; generated by PrusaSlicer 2.6.0+win64 on 2023-08-06 at 09:03:01 UTC


;
;

;
;

;
;
; 

; external perimeters extrusion width = 0.50mm
; perimeters extrusion width = 0.50mm
; infill extrusion width = 0.50mm
; solid infill extrusion width = 0.50mm
; top infill extrusion width = 0.45mm
; first layer extrusion width = 0.50mm

M73 P0 R18
M201 X2500 Y2500 Z200 E2500 ; sets maximum accelerations, mm/sec^2
M203 X200 Y200 Z40 E100 ; sets maximum feedrates, mm / sec
M204 P2000 R1200 T2000 ; sets acceleration (P, T) and retract acceleration (R), mm/sec^2
M205 X8.00 Y8.00 Z2.00 E10.00 ; sets the jerk limits, mm/sec
M205 S0 T0 ; sets the minimum extruding and travel feed rate, mm/sec
;TYPE:Custom
M17 ; enable steppers
M862.3 P "MK4" ; printer model check
M862.1 P0.4 ; nozzle diameter check
M555 X85 Y91 W80 H24

G90 ; use absolute coordinates
M83 ; extruder relative mode

M140 S60 ; set bed temp

M104 S170 ; set extruder temp for bed leveling
M109 R170 ; wait for temp


M84 E ; turn off E motor

G28 ; home all without mesh bed level

G1 X42 Y-4 Z5 F4800

M302 S160 ; lower cold extrusion limit to 160C


G1 E-2 F2400 ; retraction


M84 E ; turn off E motor

G29 P9 X10 Y-4 W32 H4

M106 S100

G0 Z40 F10000

M190 S60 ; wait for bed temp

M107

;
; MBL
;
M84 E ; turn off E motor
G29 P1 ; invalidate mbl & probe print area
G29 P1 X0 Y0 W50 H20 C ; probe near purge place
G29 P3.2 ; interpolate mbl probes
G29 P3.13 ; extrapolate mbl outside probe area
G29 A ; activate mbl

; prepare for purge
M104 S215
G0 X0 Y-4 Z15 F4800 ; move away and ready for the purge
M109 S215

G92 E0
M569 S0 E ; set spreadcycle mode for extruder

;
; Extrude purge line
;
G92 E0 ; reset extruder position
G1 E2 F2400 ; deretraction after the initial one before nozzle cleaning
G0 E7 X15 Z0.2 F500 ; purge
G0 X25 E4 F500 ; purge
G0 X35 E4 F650 ; purge
G0 X45 E4 F800 ; purge
G0 X48 Z0.05 F8000 ; wipe, move close to the bed
G0 X51 Z0.2 F8000 ; wipe, move quickly away from the bed

G92 E0
M221 S100 ; set flow to 100%
G21 ; set units to millimeters
G90 ; use absolute coordinates
M83 ; use relative distances for extrusion
M900 K0.05 ; Filament gcode



M142 S36 ; set heatbreak target temp
M107
;LAYER_CHANGE
;Z:0.2
;HEIGHT:0.2
;BEFORE_LAYER_CHANGE
G92 E0.0
;0.2


G1 E-.8 F2100
G1 Z.2 F720
;AFTER_LAYER_CHANGE
;0.2
; printing object querre_20mm.STL id:0 copy 0
G1 Z.4
G1 X115.826 Y114.093 F12000
G1 Z.2 F720
G1 E.8 F1500
M204 P600
;TYPE:Perimeter
;WIDTH:0.499999
G1 F1200
G1 X103.859 Y114.093 E.45482
G1 X103.685 Y113.179 E.03536
G1 X103.418 Y112.39 E.03166
G1 X103.049 Y111.663 E.03099
G1 X102.583 Y111.023 E.03009
G1 X102.017 Y110.481 E.02978
G1 X101.37 Y110.075 E.02903
G1 X100.659 Y109.826 E.02863
G1 X99.916 Y109.755 E.02837
G1 X99.183 Y109.865 E.02817
G1 X98.495 Y110.144 E.02822
G1 X97.877 Y110.567 E.02846
G1 X97.339 Y111.115 E.02919
G1 X96.897 Y111.755 E.02956
G1 X96.545 Y112.48 E.03063
G1 X96.292 Y113.266 E.03138
G1 X96.141 Y114.093 E.03195
G1 X85.907 Y114.093 E.38896
G1 X85.907 Y95.907 E.69118
G1 X164.093 Y95.907 E2.97156
G1 X164.093 Y114.093 E.69118
G1 X153.859 Y114.093 E.38896
G1 X153.685 Y113.179 E.03536
G1 X153.418 Y112.39 E.03166
G1 X153.103 Y111.755 E.02694
G1 X152.583 Y111.023 E.03413
G1 X152.123 Y110.567 E.02462
M73 P1 R18
G1 X151.864 Y110.38 E.01214
G1 X151.37 Y110.075 E.02207
G1 X150.659 Y109.826 E.02863
G1 X149.916 Y109.755 E.02837
G1 X149.183 Y109.865 E.02817
G1 X148.495 Y110.144 E.02822
G1 X147.877 Y110.567 E.02846
G1 X147.339 Y111.115 E.02919
G1 X146.897 Y111.755 E.02956
G1 X146.545 Y112.48 E.03063
G1 X146.292 Y113.266 E.03138
G1 X146.141 Y114.093 E.03195
G1 X128.859 Y114.093 E.65682
G1 X128.685 Y113.179 E.03536
G1 X128.418 Y112.39 E.03166
G1 X128.049 Y111.663 E.03099
G1 X127.583 Y111.023 E.03009
G1 X127.017 Y110.481 E.02978
G1 X126.37 Y110.075 E.02903
G1 X125.659 Y109.826 E.02863
G1 X124.916 Y109.755 E.02837
G1 X124.183 Y109.865 E.02817
G1 X123.495 Y110.144 E.02822
G1 X122.877 Y110.567 E.02846
G1 X122.339 Y111.115 E.02919
G1 X121.897 Y111.755 E.02956
G1 X121.545 Y112.48 E.03063
G1 X121.292 Y113.266 E.03138
G1 X121.141 Y114.093 E.03195
G1 X115.886 Y114.093 E.19972
M204 P1000
G1 X115.826 Y114.55 F12000
M204 P600
;TYPE:External perimeter
G1 F1200
G1 X103.429 Y114.55 E.47116
G1 X103.399 Y114.093 E.01741
G1 X103.251 Y113.322 E.02984
G1 X103.008 Y112.593 E.02921
G1 X102.676 Y111.927 E.02828
G1 X102.262 Y111.348 E.02705
G1 X101.766 Y110.863 E.02637
G1 X101.208 Y110.502 E.02526
G1 X100.603 Y110.28 E.02449
G1 X99.972 Y110.209 E.02413
G1 X99.345 Y110.293 E.02404
G1 X98.747 Y110.525 E.02438
G1 X98.199 Y110.892 E.02507
G1 X97.712 Y111.378 E.02615
G1 X97.306 Y111.958 E.02691
G1 X96.979 Y112.623 E.02816
G1 X96.741 Y113.351 E.02911
G1 X96.601 Y114.093 E.0287
G1 X96.571 Y114.55 E.01741
G1 X85.45 Y114.55 E.42267
G1 X85.45 Y95.45 E.72592
G1 X164.55 Y95.45 E3.0063
G1 X164.55 Y114.55 E.72592
G1 X153.429 Y114.55 E.42267
G1 X153.399 Y114.093 E.01741
G1 X153.251 Y113.322 E.02984
G1 X153.008 Y112.593 E.02921
G1 X152.694 Y111.958 E.02692
G1 X152.262 Y111.348 E.02841
G1 X151.766 Y110.863 E.02637
M73 P2 R17
G1 X151.208 Y110.502 E.02526
G1 X150.603 Y110.28 E.02449
G1 X149.972 Y110.209 E.02413
G1 X149.345 Y110.293 E.02404
G1 X148.747 Y110.525 E.02438
G1 X148.199 Y110.892 E.02507
G1 X147.712 Y111.378 E.02615
G1 X147.306 Y111.958 E.02691
G1 X146.979 Y112.623 E.02816
G1 X146.741 Y113.351 E.02911
G1 X146.601 Y114.093 E.0287
G1 X146.571 Y114.55 E.01741
G1 X128.429 Y114.55 E.68951
G1 X128.399 Y114.093 E.01741
G1 X128.251 Y113.322 E.02984
G1 X128.008 Y112.593 E.02921
G1 X127.676 Y111.927 E.02828
G1 X127.262 Y111.348 E.02705
G1 X126.766 Y110.863 E.02637
G1 X126.208 Y110.502 E.02526
G1 X125.603 Y110.28 E.02449
G1 X124.972 Y110.209 E.02413
G1 X124.345 Y110.293 E.02404
G1 X123.747 Y110.525 E.02438
G1 X123.199 Y110.892 E.02507
G1 X122.712 Y111.378 E.02615
G1 X122.306 Y111.958 E.02691
G1 X121.979 Y112.623 E.02816
G1 X121.741 Y113.351 E.02911
G1 X121.601 Y114.093 E.0287
G1 X121.571 Y114.55 E.01741
G1 X115.886 Y114.55 E.21607
M204 P1000
G1 X115.617 Y114.209 F12000
G1 E-.64 F2100
;WIPE_START
G1 F9600
G1 X115.116 Y114.55 E-.16
;WIPE_END
G1 Z.4 F720
G1 X162.957 Y96.113 F12000
G1 Z.2 F720
G1 E.8 F1500
M204 P600
;TYPE:Solid infill
;WIDTH:0.502974
G1 F1200
G1 X163.682 Y96.837 E.03919
G1 X163.682 Y97.488 E.0249
G1 X162.512 Y96.318 E.0633
G1 X161.861 Y96.318 E.0249
G1 X163.682 Y98.139 E.09851
G1 X163.682 Y98.789 E.02486
G1 X161.211 Y96.318 E.13368
G1 X160.56 Y96.318 E.0249
G1 X163.682 Y99.44 E.1689
G1 X163.682 Y100.09 E.02486
G1 X159.91 Y96.318 E.20406
G1 X159.259 Y96.318 E.0249
G1 X163.682 Y100.741 E.23928
G1 X163.682 Y101.392 E.0249
G1 X158.608 Y96.318 E.2745
G1 X157.958 Y96.318 E.02486
G1 X163.682 Y102.042 E.30966
G1 X163.682 Y102.693 E.0249
G1 X157.307 Y96.318 E.34488
G1 X156.656 Y96.318 E.0249
G1 X163.682 Y103.344 E.3801
G1 X163.682 Y103.994 E.02486
G1 X156.006 Y96.318 E.41526
G1 X155.355 Y96.318 E.0249
M73 P3 R17
G1 X163.682 Y104.645 E.45048
G1 X163.682 Y105.295 E.02486
G1 X154.705 Y96.318 E.48565
G1 X154.054 Y96.318 E.0249
G1 X163.682 Y105.946 E.52086
G1 X163.682 Y106.597 E.0249
G1 X153.403 Y96.318 E.55608
G1 X152.753 Y96.318 E.02486
G1 X163.682 Y107.247 E.59125
G1 X163.682 Y107.898 E.0249
G1 X152.102 Y96.318 E.62646
G1 X151.452 Y96.318 E.02486
G1 X163.682 Y108.548 E.66163
G1 X163.682 Y109.199 E.0249
G1 X150.801 Y96.318 E.69685
G1 X150.15 Y96.318 E.0249
G1 X163.682 Y109.85 E.73207
G1 X163.682 Y110.5 E.02486
G1 X149.5 Y96.318 E.76723
G1 X148.849 Y96.318 E.0249
G1 X163.682 Y111.151 E.80245
G1 X163.682 Y111.801 E.02486
G1 X148.199 Y96.318 E.83761
G1 X147.548 Y96.318 E.0249
G1 X163.682 Y112.452 E.87283
G1 X163.682 Y113.103 E.0249
G1 X146.897 Y96.318 E.90805
G1 X146.247 Y96.318 E.02486
G1 X163.61 Y113.682 E.93934
G1 X162.959 Y113.682 E.0249
M73 P4 R17
G1 X145.596 Y96.318 E.93934
G1 X144.945 Y96.318 E.0249
G1 X162.309 Y113.682 E.93937
G1 X161.658 Y113.682 E.0249
G1 X144.295 Y96.318 E.93934
G1 X143.644 Y96.318 E.0249
G1 X161.007 Y113.682 E.93934
G1 X160.357 Y113.682 E.02486
G1 X142.994 Y96.318 E.93934
G1 X142.343 Y96.318 E.0249
G1 X159.706 Y113.682 E.93934
G1 X159.055 Y113.682 E.0249
G1 X141.692 Y96.318 E.93934
G1 X141.042 Y96.318 E.02486
G1 X158.405 Y113.682 E.93934
G1 X157.754 Y113.682 E.0249
G1 X140.391 Y96.318 E.93934
G1 X139.741 Y96.318 E.02486
M73 P5 R17
G1 X157.104 Y113.682 E.93934
G1 X156.453 Y113.682 E.0249
G1 X139.09 Y96.318 E.93934
G1 X138.439 Y96.318 E.0249
G1 X155.802 Y113.682 E.93934
G1 X155.152 Y113.682 E.02486
G1 X153.845 Y112.375 E.07071
G1 X154.079 Y113.059 E.02765
G1 X154.129 Y113.309 E.00975
G1 X154.707 Y113.887 E.03127
M204 P1000
G1 E-.64 F2100
;WIPE_START
G1 F9600
G1 X154.163 Y113.343 E-.16
;WIPE_END
G1 Z.4 F720
G1 X151.308 Y109.837 F12000
G1 Z.2 F720
G1 E.8 F1500
M204 P600
G1 F1200
G1 X137.789 Y96.318 E.73136
G1 X137.138 Y96.318 E.0249
G1 X150.179 Y109.359 E.7055
G1 X150 Y109.337 E.0069
G1 X149.56 Y109.391 E.01696
G1 X136.487 Y96.318 E.70723
G1 X135.837 Y96.318 E.02486
G1 X149.014 Y109.496 E.71289
G1 X148.542 Y109.674 E.0193
G1 X135.186 Y96.318 E.72254
M73 P6 R17
G1 X134.536 Y96.318 E.02486
G1 X148.121 Y109.904 E.73496
G1 X147.728 Y110.162 E.01798
G1 X133.885 Y96.318 E.74892
G1 X133.234 Y96.318 E.0249
G1 X147.39 Y110.475 E.76585
G1 X147.065 Y110.8 E.01758
G1 X132.584 Y96.318 E.78343
G1 X131.933 Y96.318 E.0249
G1 X146.793 Y111.178 E.80391
G1 X146.608 Y111.436 E.01214
G1 X146.538 Y111.574 E.00592
G1 X131.283 Y96.318 E.8253
G1 X130.632 Y96.318 E.0249
G1 X146.318 Y112.004 E.84859
G1 X146.209 Y112.217 E.00915
G1 X146.125 Y112.462 E.00991
G1 X129.981 Y96.318 E.87337
G1 X129.331 Y96.318 E.02486
G1 X145.959 Y112.947 E.89958
G1 X145.838 Y113.476 E.02076
G1 X128.68 Y96.318 E.92823
G1 X128.029 Y96.318 E.0249
G1 X145.393 Y113.682 E.93937
M73 P7 R17
G1 X144.742 Y113.682 E.0249
G1 X127.379 Y96.318 E.93934
G1 X126.728 Y96.318 E.0249
G1 X144.091 Y113.682 E.93934
G1 X143.441 Y113.682 E.02486
G1 X126.078 Y96.318 E.93934
G1 X125.427 Y96.318 E.0249
G1 X142.79 Y113.682 E.93934
G1 X142.139 Y113.682 E.0249
M73 P7 R16
G1 X124.776 Y96.318 E.93934
G1 X124.126 Y96.318 E.02486
G1 X141.489 Y113.682 E.93934
G1 X140.838 Y113.682 E.0249
G1 X123.475 Y96.318 E.93934
G1 X122.825 Y96.318 E.02486
G1 X140.188 Y113.682 E.93934
G1 X139.537 Y113.682 E.0249
M73 P8 R16
G1 X122.174 Y96.318 E.93934
G1 X121.523 Y96.318 E.0249
G1 X138.886 Y113.682 E.93934
G1 X138.236 Y113.682 E.02486
G1 X120.873 Y96.318 E.93934
G1 X120.222 Y96.318 E.0249
G1 X137.585 Y113.682 E.93934
G1 X136.935 Y113.682 E.02486
G1 X119.571 Y96.318 E.93937
G1 X118.921 Y96.318 E.02486
G1 X136.284 Y113.682 E.93934
G1 X135.633 Y113.682 E.0249
G1 X118.27 Y96.318 E.93934
G1 X117.62 Y96.318 E.02486
G1 X134.983 Y113.682 E.93934
G1 X134.332 Y113.682 E.0249
G1 X116.969 Y96.318 E.93934
G1 X116.318 Y96.318 E.0249
M73 P9 R16
G1 X133.681 Y113.682 E.93934
G1 X133.031 Y113.682 E.02486
G1 X115.668 Y96.318 E.93934
G1 X115.017 Y96.318 E.0249
G1 X132.38 Y113.682 E.93934
G1 X131.73 Y113.682 E.02486
G1 X114.367 Y96.318 E.93934
G1 X113.716 Y96.318 E.0249
G1 X131.079 Y113.682 E.93934
G1 X130.428 Y113.682 E.0249
G1 X128.611 Y111.864 E.09832
G1 X128.392 Y111.436 E.01839
G1 X127.922 Y110.782 E.03081
G1 X127.333 Y110.202 E.03162
G1 X126.628 Y109.739 E.03226
G1 X126.399 Y109.652 E.00937
G1 X113.065 Y96.318 E.72135
G1 X112.415 Y96.318 E.02486
M73 P10 R16
G1 X125.494 Y109.398 E.70759
G1 X125 Y109.337 E.01904
G1 X124.807 Y109.361 E.00744
G1 X111.764 Y96.318 E.70561
G1 X111.113 Y96.318 E.0249
G1 X124.227 Y109.432 E.70945
G1 X124.161 Y109.441 E.00255
G1 X123.743 Y109.598 E.01708
G1 X110.463 Y96.318 E.71843
G1 X109.812 Y96.318 E.0249
G1 X123.288 Y109.794 E.72904
G1 X122.895 Y110.052 E.01798
G1 X109.162 Y96.318 E.74297
G1 X108.511 Y96.318 E.0249
G1 X122.53 Y110.337 E.75841
G1 X122.202 Y110.66 E.01761
G1 X107.86 Y96.318 E.77589
G1 X107.21 Y96.318 E.02486
G1 X121.909 Y111.017 E.7952
G1 X121.637 Y111.396 E.01785
G1 X106.559 Y96.318 E.8157
G1 X105.909 Y96.318 E.02486
G1 X121.411 Y111.821 E.83867
G1 X121.195 Y112.256 E.01858
G1 X105.258 Y96.318 E.8622
G1 X104.607 Y96.318 E.0249
G1 X121.03 Y112.741 E.88847
G1 X120.921 Y113.059 E.01286
M73 P11 R16
G1 X120.884 Y113.245 E.00725
G1 X103.957 Y96.318 E.91573
G1 X103.306 Y96.318 E.0249
G1 X120.669 Y113.682 E.93934
G1 X120.019 Y113.682 E.02486
G1 X102.655 Y96.318 E.93937
G1 X102.005 Y96.318 E.02486
G1 X119.368 Y113.682 E.93934
G1 X118.717 Y113.682 E.0249
G1 X101.354 Y96.318 E.93934
G1 X100.704 Y96.318 E.02486
G1 X118.067 Y113.682 E.93934
G1 X117.416 Y113.682 E.0249
G1 X100.053 Y96.318 E.93934
G1 X99.402 Y96.318 E.0249
G1 X116.766 Y113.682 E.93937
G1 X116.115 Y113.682 E.0249
G1 X98.752 Y96.318 E.93934
G1 X98.101 Y96.318 E.0249
M73 P12 R16
G1 X115.464 Y113.682 E.93934
G1 X114.814 Y113.682 E.02486
G1 X97.451 Y96.318 E.93934
G1 X96.8 Y96.318 E.0249
G1 X114.163 Y113.682 E.93934
G1 X113.512 Y113.682 E.0249
G1 X96.149 Y96.318 E.93934
G1 X95.499 Y96.318 E.02486
G1 X112.862 Y113.682 E.93934
G1 X112.211 Y113.682 E.0249
G1 X94.848 Y96.318 E.93934
G1 X94.197 Y96.318 E.0249
G1 X111.561 Y113.682 E.93937
G1 X110.91 Y113.682 E.0249
G1 X93.547 Y96.318 E.93934
G1 X92.896 Y96.318 E.0249
M73 P12 R15
G1 X110.259 Y113.682 E.93934
G1 X109.609 Y113.682 E.02486
M73 P13 R15
G1 X92.246 Y96.318 E.93934
G1 X91.595 Y96.318 E.0249
G1 X108.958 Y113.682 E.93934
G1 X108.308 Y113.682 E.02486
G1 X90.944 Y96.318 E.93937
G1 X90.294 Y96.318 E.02486
G1 X107.657 Y113.682 E.93934
G1 X107.006 Y113.682 E.0249
G1 X89.643 Y96.318 E.93934
G1 X88.993 Y96.318 E.02486
G1 X106.356 Y113.682 E.93934
G1 X105.705 Y113.682 E.0249
G1 X88.342 Y96.318 E.93934
G1 X87.691 Y96.318 E.0249
G1 X100.81 Y109.437 E.70972
G1 X100.068 Y109.345 E.0286
M73 P14 R15
G1 X87.041 Y96.318 E.70475
G1 X86.39 Y96.318 E.0249
G1 X99.474 Y109.402 E.70783
G1 X99.161 Y109.441 E.01207
G1 X98.944 Y109.523 E.00887
G1 X86.318 Y96.897 E.68305
G1 X86.318 Y97.548 E.0249
G1 X98.471 Y109.701 E.65746
G1 X98.372 Y109.739 E.00406
G1 X98.062 Y109.942 E.01417
G1 X86.318 Y98.199 E.63531
G1 X86.318 Y98.849 E.02486
G1 X97.67 Y110.2 E.6141
G1 X97.341 Y110.522 E.01761
G1 X86.318 Y99.5 E.5963
G1 X86.318 Y100.15 E.02486
G1 X97.029 Y110.861 E.57945
G1 X96.754 Y111.237 E.01782
G1 X86.318 Y100.801 E.56458
G1 X86.318 Y101.452 E.0249
G1 X96.505 Y111.638 E.55108
G1 X96.285 Y112.068 E.01848
G1 X86.318 Y102.102 E.53918
G1 X86.318 Y102.753 E.0249
M73 P15 R15
G1 X96.1 Y112.535 E.52919
G1 X95.935 Y113.02 E.0196
G1 X86.318 Y103.404 E.52024
G1 X86.318 Y104.054 E.02486
G1 X95.821 Y113.557 E.5141
G1 X95.797 Y113.682 E.00487
G1 X95.295 Y113.682 E.0192
G1 X86.318 Y104.705 E.48565
G1 X86.318 Y105.355 E.02486
G1 X94.645 Y113.682 E.45048
G1 X93.994 Y113.682 E.0249
G1 X86.318 Y106.006 E.41526
G1 X86.318 Y106.657 E.0249
G1 X93.343 Y113.682 E.38004
G1 X92.693 Y113.682 E.02486
G1 X86.318 Y107.307 E.34488
G1 X86.318 Y107.958 E.0249
G1 X92.042 Y113.682 E.30966
G1 X91.392 Y113.682 E.02486
G1 X86.318 Y108.608 E.2745
G1 X86.318 Y109.259 E.0249
G1 X90.741 Y113.682 E.23928
G1 X90.09 Y113.682 E.0249
G1 X86.318 Y109.91 E.20406
G1 X86.318 Y110.56 E.02486
G1 X89.44 Y113.682 E.1689
G1 X88.789 Y113.682 E.0249
G1 X86.318 Y111.211 E.13368
G1 X86.318 Y111.862 E.0249
G1 X88.138 Y113.682 E.09846
G1 X87.488 Y113.682 E.02486
G1 X86.318 Y112.512 E.0633
G1 X86.318 Y113.163 E.0249
G1 X87.043 Y113.887 E.03919
M204 P1000
G1 E-.64 F2100
;WIPE_START
G1 F9600
G1 X86.498 Y113.343 E-.16
;WIPE_END
G1 Z.4 F720
G1 X103.529 Y112.156 F12000
G1 Z.2 F720
G1 E.8 F1500
M204 P600
G1 F1200
G1 X105.054 Y113.682 E.08253
G1 X104.404 Y113.682 E.02486
G1 X103.891 Y113.169 E.02775
M204 P1000
G1 E-.64 F2100
;WIPE_START
M73 P16 R15
G1 F9600
G1 X104.404 Y113.682 E-.15077
G1 X104.448 Y113.682 E-.00923
;WIPE_END
G1 Z.4 F720
G1 X128.709 Y112.613 F12000
G1 Z.2 F720
G1 E.8 F1500
M204 P600
G1 F1200
G1 X129.983 Y113.887 E.06892
M204 P1000
; stop printing object querre_20mm.STL id:0 copy 0
M106 S127.5
;LAYER_CHANGE
;Z:0.5
;HEIGHT:0.3
;BEFORE_LAYER_CHANGE
G92 E0.0
;0.5


G1 E-.64 F2100
;WIPE_START
G1 F9600
G1 X129.439 Y113.343 E-.16
;WIPE_END
G1 Z.4 F720
G1 Z.5
;AFTER_LAYER_CHANGE
;0.5
M104 S210 ; set temperature
; printing object querre_20mm.STL id:0 copy 0
G1 Z.7
G1 X118.278 Y95.686 F12000
G1 Z.5 F720
G1 E.8 F1500
M204 P1100
