; generated by PrusaSlicer 2.6.0+win64 on 2023-08-05 at 10:56:50 UTC


;
;

;
;

;
;
; 

; external perimeters extrusion width = 0.45mm
; perimeters extrusion width = 0.45mm
; infill extrusion width = 0.45mm
; solid infill extrusion width = 0.45mm
; top infill extrusion width = 0.42mm
; first layer extrusion width = 0.50mm

M73 P0 R21
M201 X2500 Y2500 Z200 E2500 ; sets maximum accelerations, mm/sec^2
M203 X200 Y200 Z40 E100 ; sets maximum feedrates, mm / sec
M204 P2000 R1200 T2000 ; sets acceleration (P, T) and retract acceleration (R), mm/sec^2
M205 X8.00 Y8.00 Z2.00 E10.00 ; sets the jerk limits, mm/sec
M205 S0 T0 ; sets the minimum extruding and travel feed rate, mm/sec
;TYPE:Custom
M17 ; enable steppers
M862.3 P "MK4" ; printer model check
M862.1 P0.4 ; nozzle diameter check
M555 X31 Y96 W188 H14

G90 ; use absolute coordinates
M83 ; extruder relative mode

M140 S85 ; set bed temp

M104 S170 ; set extruder temp for bed leveling
M109 R170 ; wait for temp


M84 E ; turn off E motor

G28 ; home all without mesh bed level

G1 X42 Y-4 Z5 F4800

M302 S160 ; lower cold extrusion limit to 160C


G1 E-2 F2400 ; retraction


M84 E ; turn off E motor

G29 P9 X10 Y-4 W32 H4



G0 Z40 F10000

M190 S85 ; wait for bed temp

M107

;
; MBL
;
M84 E ; turn off E motor
G29 P1 ; invalidate mbl & probe print area
G29 P1 X0 Y0 W50 H20 C ; probe near purge place
G29 P3.2 ; interpolate mbl probes
G29 P3.13 ; extrapolate mbl outside probe area
G29 A ; activate mbl

; prepare for purge
M104 S230
G0 X0 Y-4 Z15 F4800 ; move away and ready for the purge
M109 S230

G92 E0
M569 S0 E ; set spreadcycle mode for extruder

;
; Extrude purge line
;
G92 E0 ; reset extruder position
G1 E2 F2400 ; deretraction after the initial one before nozzle cleaning
G0 E7 X15 Z0.2 F500 ; purge
G0 X25 E4 F500 ; purge
G0 X35 E4 F650 ; purge
G0 X45 E4 F800 ; purge
G0 X48 Z0.05 F8000 ; wipe, move close to the bed
G0 X51 Z0.2 F8000 ; wipe, move quickly away from the bed

G92 E0
M221 S100 ; set flow to 100%
G21 ; set units to millimeters
G90 ; use absolute coordinates
M83 ; use relative distances for extrusion
M900 K0.07 ; Filament gcode



M142 S40 ; set heatbreak target temp
M107
;LAYER_CHANGE
;Z:0.2
;HEIGHT:0.2
;BEFORE_LAYER_CHANGE
G92 E0.0
;0.2


G1 E-1 F2100
G1 Z.15 F720
G1 Z.2
;AFTER_LAYER_CHANGE
;0.2
; printing object gabari placement bras balance.STL id:0 copy 0
G1 Z.35
G1 X218.093 Y109.093 F12000
G1 Z.2 F720
G1 E1 F1500
M204 P600
;TYPE:Perimeter
;WIDTH:0.499999
G1 F1200
G1 X31.907 Y109.093 E7.07624
G1 X31.907 Y100.907 E.31112
G1 X218.093 Y100.907 E7.07624
G1 X218.093 Y109.033 E.30884
M204 P1000
M73 P0 R20
G1 X218.55 Y109.55 F12000
M204 P600
;TYPE:External perimeter
G1 F1200
G1 X31.45 Y109.55 E7.11097
G1 X31.45 Y100.45 E.34586
G1 X218.55 Y100.45 E7.11097
G1 X218.55 Y109.49 E.34358
M204 P1000
M73 P1 R20
G1 X218.15 Y109.544 F12000
;WIPE_START
G1 F9600
M73 P2 R20
G1 X213.738 Y109.492 E-1
;WIPE_END
G1 Z.35 F720
G1 X216.961 Y101.113 F12000
G1 Z.2 F720
M73 P3 R20
G1 E1 F1500
M204 P600
;TYPE:Solid infill
;WIDTH:0.500861
G1 F1200
G1 X217.682 Y101.833 E.0388
G1 X217.682 Y102.481 E.02467
G1 X216.519 Y101.318 E.06263
G1 X215.872 Y101.318 E.02464
G1 X217.682 Y103.128 E.09747
G1 X217.682 Y103.776 E.02467
G1 X215.224 Y101.318 E.13236
G1 X214.577 Y101.318 E.02464
G1 X217.682 Y104.423 E.16721
G1 X217.682 Y105.071 E.02467
G1 X213.929 Y101.318 E.2021
G1 X213.281 Y101.318 E.02467
G1 X217.682 Y105.719 E.237
G1 X217.682 Y106.366 E.02464
G1 X212.634 Y101.318 E.27184
G1 X211.986 Y101.318 E.02467
G1 X217.682 Y107.014 E.30673
G1 X217.682 Y107.662 E.02467
G1 X211.338 Y101.318 E.34163
G1 X210.691 Y101.318 E.02464
G1 X217.682 Y108.309 E.37647
G1 X217.682 Y108.682 E.0142
M73 P4 R20
G1 X217.406 Y108.682 E.01051
G1 X210.043 Y101.318 E.39653
G1 X209.396 Y101.318 E.02464
G1 X216.759 Y108.682 E.39653
G1 X216.111 Y108.682 E.02467
G1 X208.748 Y101.318 E.39653
G1 X208.1 Y101.318 E.02467
G1 X215.463 Y108.682 E.39653
G1 X214.816 Y108.682 E.02464
G1 X207.453 Y101.318 E.39653
G1 X206.805 Y101.318 E.02467
G1 X214.168 Y108.682 E.39653
G1 X213.521 Y108.682 E.02464
G1 X206.157 Y101.318 E.39655
G1 X205.51 Y101.318 E.02464
G1 X212.873 Y108.682 E.39653
G1 X212.225 Y108.682 E.02467
G1 X204.862 Y101.318 E.39653
G1 X204.215 Y101.318 E.02464
G1 X211.578 Y108.682 E.39653
G1 X210.93 Y108.682 E.02467
G1 X203.567 Y101.318 E.39653
G1 X202.919 Y101.318 E.02467
G1 X210.282 Y108.682 E.39653
G1 X209.635 Y108.682 E.02464
G1 X202.272 Y101.318 E.39653
G1 X201.624 Y101.318 E.02467
G1 X208.987 Y108.682 E.39653
G1 X208.34 Y108.682 E.02464
G1 X200.976 Y101.318 E.39655
G1 X200.329 Y101.318 E.02464
G1 X207.692 Y108.682 E.39653
G1 X207.044 Y108.682 E.02467
G1 X199.681 Y101.318 E.39653
G1 X199.034 Y101.318 E.02464
G1 X206.397 Y108.682 E.39653
G1 X205.749 Y108.682 E.02467
G1 X198.386 Y101.318 E.39653
G1 X197.738 Y101.318 E.02467
G1 X205.101 Y108.682 E.39653
G1 X204.454 Y108.682 E.02464
G1 X197.091 Y101.318 E.39653
G1 X196.443 Y101.318 E.02467
G1 X203.806 Y108.682 E.39653
G1 X203.159 Y108.682 E.02464
G1 X195.795 Y101.318 E.39655
G1 X195.148 Y101.318 E.02464
M73 P5 R20
G1 X202.511 Y108.682 E.39653
G1 X201.863 Y108.682 E.02467
G1 X194.5 Y101.318 E.39653
G1 X193.853 Y101.318 E.02464
G1 X201.216 Y108.682 E.39653
G1 X200.568 Y108.682 E.02467
G1 X193.205 Y101.318 E.39653
G1 X192.557 Y101.318 E.02467
G1 X199.92 Y108.682 E.39653
G1 X199.273 Y108.682 E.02464
G1 X191.91 Y101.318 E.39653
G1 X191.262 Y101.318 E.02467
G1 X198.625 Y108.682 E.39653
G1 X197.978 Y108.682 E.02464
G1 X190.614 Y101.318 E.39655
G1 X189.967 Y101.318 E.02464
G1 X197.33 Y108.682 E.39653
G1 X196.682 Y108.682 E.02467
M73 P5 R19
G1 X189.319 Y101.318 E.39653
G1 X188.672 Y101.318 E.02464
G1 X196.035 Y108.682 E.39653
G1 X195.387 Y108.682 E.02467
G1 X188.024 Y101.318 E.39653
G1 X187.376 Y101.318 E.02467
G1 X194.739 Y108.682 E.39653
G1 X194.092 Y108.682 E.02464
G1 X186.729 Y101.318 E.39653
G1 X186.081 Y101.318 E.02467
G1 X193.444 Y108.682 E.39653
G1 X192.797 Y108.682 E.02464
G1 X185.433 Y101.318 E.39655
G1 X184.786 Y101.318 E.02464
G1 X192.149 Y108.682 E.39653
G1 X191.501 Y108.682 E.02467
G1 X184.138 Y101.318 E.39653
G1 X183.491 Y101.318 E.02464
G1 X190.854 Y108.682 E.39653
G1 X190.206 Y108.682 E.02467
G1 X182.843 Y101.318 E.39653
G1 X182.195 Y101.318 E.02467
G1 X189.558 Y108.682 E.39653
G1 X188.911 Y108.682 E.02464
G1 X181.548 Y101.318 E.39653
G1 X180.9 Y101.318 E.02467
M73 P6 R19
G1 X188.263 Y108.682 E.39653
G1 X187.616 Y108.682 E.02464
G1 X180.252 Y101.318 E.39655
G1 X179.605 Y101.318 E.02464
G1 X186.968 Y108.682 E.39653
G1 X186.32 Y108.682 E.02467
G1 X178.957 Y101.318 E.39653
G1 X178.31 Y101.318 E.02464
G1 X185.673 Y108.682 E.39653
G1 X185.025 Y108.682 E.02467
G1 X177.662 Y101.318 E.39653
G1 X177.014 Y101.318 E.02467
G1 X184.377 Y108.682 E.39653
G1 X183.73 Y108.682 E.02464
G1 X176.367 Y101.318 E.39653
G1 X175.719 Y101.318 E.02467
G1 X183.082 Y108.682 E.39653
G1 X182.435 Y108.682 E.02464
G1 X175.071 Y101.318 E.39655
G1 X174.424 Y101.318 E.02464
G1 X181.787 Y108.682 E.39653
G1 X181.139 Y108.682 E.02467
G1 X173.776 Y101.318 E.39653
G1 X173.129 Y101.318 E.02464
G1 X180.492 Y108.682 E.39653
G1 X179.844 Y108.682 E.02467
G1 X172.481 Y101.318 E.39653
G1 X171.833 Y101.318 E.02467
G1 X179.196 Y108.682 E.39653
G1 X178.549 Y108.682 E.02464
G1 X171.186 Y101.318 E.39653
G1 X170.538 Y101.318 E.02467
G1 X177.901 Y108.682 E.39653
G1 X177.254 Y108.682 E.02464
G1 X169.89 Y101.318 E.39655
G1 X169.243 Y101.318 E.02464
G1 X176.606 Y108.682 E.39653
G1 X175.958 Y108.682 E.02467
G1 X168.595 Y101.318 E.39653
G1 X167.948 Y101.318 E.02464
G1 X175.311 Y108.682 E.39653
G1 X174.663 Y108.682 E.02467
G1 X167.3 Y101.318 E.39653
G1 X166.652 Y101.318 E.02467
M73 P7 R19
G1 X174.015 Y108.682 E.39653
G1 X173.368 Y108.682 E.02464
G1 X166.005 Y101.318 E.39653
G1 X165.357 Y101.318 E.02467
G1 X172.72 Y108.682 E.39653
G1 X172.072 Y108.682 E.02467
G1 X164.709 Y101.318 E.39653
G1 X164.062 Y101.318 E.02464
G1 X171.425 Y108.682 E.39653
G1 X170.777 Y108.682 E.02467
G1 X163.414 Y101.318 E.39653
G1 X162.767 Y101.318 E.02464
G1 X170.13 Y108.682 E.39653
G1 X169.482 Y108.682 E.02467
G1 X162.119 Y101.318 E.39653
G1 X161.471 Y101.318 E.02467
G1 X168.834 Y108.682 E.39653
G1 X168.187 Y108.682 E.02464
G1 X160.824 Y101.318 E.39653
G1 X160.176 Y101.318 E.02467
G1 X167.539 Y108.682 E.39653
G1 X166.891 Y108.682 E.02467
G1 X159.528 Y101.318 E.39653
G1 X158.881 Y101.318 E.02464
G1 X166.244 Y108.682 E.39653
G1 X165.596 Y108.682 E.02467
G1 X158.233 Y101.318 E.39653
G1 X157.585 Y101.318 E.02467
G1 X164.949 Y108.682 E.39655
G1 X164.301 Y108.682 E.02467
G1 X156.938 Y101.318 E.39653
G1 X156.29 Y101.318 E.02467
G1 X163.653 Y108.682 E.39653
G1 X163.006 Y108.682 E.02464
G1 X155.643 Y101.318 E.39653
G1 X154.995 Y101.318 E.02467
G1 X162.358 Y108.682 E.39653
G1 X161.71 Y108.682 E.02467
G1 X154.347 Y101.318 E.39653
G1 X153.7 Y101.318 E.02464
G1 X161.063 Y108.682 E.39653
G1 X160.415 Y108.682 E.02467
G1 X153.052 Y101.318 E.39653
G1 X152.404 Y101.318 E.02467
G1 X159.768 Y108.682 E.39655
M73 P8 R19
G1 X159.12 Y108.682 E.02467
G1 X151.757 Y101.318 E.39653
G1 X151.109 Y101.318 E.02467
G1 X158.472 Y108.682 E.39653
G1 X157.825 Y108.682 E.02464
G1 X150.462 Y101.318 E.39653
G1 X149.814 Y101.318 E.02467
G1 X157.177 Y108.682 E.39653
G1 X156.529 Y108.682 E.02467
G1 X149.166 Y101.318 E.39653
G1 X148.519 Y101.318 E.02464
G1 X155.882 Y108.682 E.39653
G1 X155.234 Y108.682 E.02467
G1 X147.871 Y101.318 E.39653
G1 X147.223 Y101.318 E.02467
G1 X154.587 Y108.682 E.39655
G1 X153.939 Y108.682 E.02467
G1 X146.576 Y101.318 E.39653
G1 X145.928 Y101.318 E.02467
G1 X153.291 Y108.682 E.39653
G1 X152.644 Y108.682 E.02464
G1 X145.281 Y101.318 E.39653
G1 X144.633 Y101.318 E.02467
G1 X151.996 Y108.682 E.39653
G1 X151.348 Y108.682 E.02467
G1 X143.985 Y101.318 E.39653
G1 X143.338 Y101.318 E.02464
G1 X150.701 Y108.682 E.39653
G1 X150.053 Y108.682 E.02467
G1 X142.69 Y101.318 E.39653
G1 X142.042 Y101.318 E.02467
G1 X149.406 Y108.682 E.39655
G1 X148.758 Y108.682 E.02467
G1 X141.395 Y101.318 E.39653
G1 X140.747 Y101.318 E.02467
G1 X148.11 Y108.682 E.39653
G1 X147.463 Y108.682 E.02464
G1 X140.1 Y101.318 E.39653
G1 X139.452 Y101.318 E.02467
G1 X146.815 Y108.682 E.39653
G1 X146.167 Y108.682 E.02467
G1 X138.804 Y101.318 E.39653
G1 X138.157 Y101.318 E.02464
G1 X145.52 Y108.682 E.39653
G1 X144.872 Y108.682 E.02467
M73 P9 R19
G1 X137.509 Y101.318 E.39653
G1 X136.861 Y101.318 E.02467
G1 X144.225 Y108.682 E.39655
G1 X143.577 Y108.682 E.02467
G1 X136.214 Y101.318 E.39653
G1 X135.566 Y101.318 E.02467
G1 X142.929 Y108.682 E.39653
G1 X142.282 Y108.682 E.02464
G1 X134.919 Y101.318 E.39653
G1 X134.271 Y101.318 E.02467
G1 X141.634 Y108.682 E.39653
G1 X140.986 Y108.682 E.02467
G1 X133.623 Y101.318 E.39653
G1 X132.976 Y101.318 E.02464
G1 X140.339 Y108.682 E.39653
G1 X139.691 Y108.682 E.02467
G1 X132.328 Y101.318 E.39653
G1 X131.68 Y101.318 E.02467
G1 X139.044 Y108.682 E.39655
G1 X138.396 Y108.682 E.02467
G1 X131.033 Y101.318 E.39653
G1 X130.385 Y101.318 E.02467
G1 X137.748 Y108.682 E.39653
G1 X137.101 Y108.682 E.02464
G1 X129.738 Y101.318 E.39653
G1 X129.09 Y101.318 E.02467
G1 X136.453 Y108.682 E.39653
G1 X135.805 Y108.682 E.02467
G1 X128.442 Y101.318 E.39653
G1 X127.795 Y101.318 E.02464
G1 X135.158 Y108.682 E.39653
G1 X134.51 Y108.682 E.02467
G1 X127.147 Y101.318 E.39653
G1 X126.499 Y101.318 E.02467
G1 X133.863 Y108.682 E.39655
G1 X133.215 Y108.682 E.02467
G1 X125.852 Y101.318 E.39653
G1 X125.204 Y101.318 E.02467
G1 X132.567 Y108.682 E.39653
G1 X131.92 Y108.682 E.02464
G1 X124.557 Y101.318 E.39653
G1 X123.909 Y101.318 E.02467
G1 X131.272 Y108.682 E.39653
G1 X130.624 Y108.682 E.02467
M73 P10 R19
G1 X123.261 Y101.318 E.39653
G1 X122.614 Y101.318 E.02464
G1 X129.977 Y108.682 E.39653
G1 X129.329 Y108.682 E.02467
G1 X121.966 Y101.318 E.39653
G1 X121.318 Y101.318 E.02467
M73 P10 R18
G1 X128.682 Y108.682 E.39655
G1 X128.034 Y108.682 E.02467
G1 X120.671 Y101.318 E.39653
G1 X120.023 Y101.318 E.02467
G1 X127.386 Y108.682 E.39653
G1 X126.739 Y108.682 E.02464
G1 X119.376 Y101.318 E.39653
G1 X118.728 Y101.318 E.02467
G1 X126.091 Y108.682 E.39653
G1 X125.443 Y108.682 E.02467
G1 X118.08 Y101.318 E.39653
G1 X117.433 Y101.318 E.02464
G1 X124.796 Y108.682 E.39653
G1 X124.148 Y108.682 E.02467
G1 X116.785 Y101.318 E.39653
G1 X116.137 Y101.318 E.02467
G1 X123.501 Y108.682 E.39655
G1 X122.853 Y108.682 E.02467
G1 X115.49 Y101.318 E.39653
G1 X114.842 Y101.318 E.02467
G1 X122.205 Y108.682 E.39653
G1 X121.558 Y108.682 E.02464
G1 X114.195 Y101.318 E.39653
G1 X113.547 Y101.318 E.02467
G1 X120.91 Y108.682 E.39653
G1 X120.262 Y108.682 E.02467
G1 X112.899 Y101.318 E.39653
G1 X112.252 Y101.318 E.02464
G1 X119.615 Y108.682 E.39653
G1 X118.967 Y108.682 E.02467
G1 X111.604 Y101.318 E.39653
G1 X110.956 Y101.318 E.02467
G1 X118.32 Y108.682 E.39655
G1 X117.672 Y108.682 E.02467
G1 X110.309 Y101.318 E.39653
G1 X109.661 Y101.318 E.02467
G1 X117.024 Y108.682 E.39653
G1 X116.377 Y108.682 E.02464
M73 P11 R18
G1 X109.014 Y101.318 E.39653
G1 X108.366 Y101.318 E.02467
G1 X115.729 Y108.682 E.39653
G1 X115.081 Y108.682 E.02467
G1 X107.718 Y101.318 E.39653
G1 X107.071 Y101.318 E.02464
G1 X114.434 Y108.682 E.39653
G1 X113.786 Y108.682 E.02467
G1 X106.423 Y101.318 E.39653
G1 X105.775 Y101.318 E.02467
G1 X113.138 Y108.682 E.39653
G1 X112.491 Y108.682 E.02464
G1 X105.128 Y101.318 E.39653
G1 X104.48 Y101.318 E.02467
G1 X111.843 Y108.682 E.39653
G1 X111.196 Y108.682 E.02464
G1 X103.833 Y101.318 E.39653
G1 X103.185 Y101.318 E.02467
G1 X110.548 Y108.682 E.39653
G1 X109.9 Y108.682 E.02467
G1 X102.537 Y101.318 E.39653
G1 X101.89 Y101.318 E.02464
G1 X109.253 Y108.682 E.39653
G1 X108.605 Y108.682 E.02467
G1 X101.242 Y101.318 E.39653
G1 X100.594 Y101.318 E.02467
G1 X107.957 Y108.682 E.39653
G1 X107.31 Y108.682 E.02464
G1 X99.947 Y101.318 E.39653
G1 X99.299 Y101.318 E.02467
G1 X106.662 Y108.682 E.39653
G1 X106.015 Y108.682 E.02464
G1 X98.651 Y101.318 E.39655
G1 X98.004 Y101.318 E.02464
G1 X105.367 Y108.682 E.39653
G1 X104.719 Y108.682 E.02467
G1 X97.356 Y101.318 E.39653
G1 X96.709 Y101.318 E.02464
G1 X104.072 Y108.682 E.39653
G1 X103.424 Y108.682 E.02467
G1 X96.061 Y101.318 E.39653
G1 X95.413 Y101.318 E.02467
G1 X102.776 Y108.682 E.39653
G1 X102.129 Y108.682 E.02464
M73 P12 R18
G1 X94.766 Y101.318 E.39653
G1 X94.118 Y101.318 E.02467
G1 X101.481 Y108.682 E.39653
G1 X100.834 Y108.682 E.02464
G1 X93.47 Y101.318 E.39655
G1 X92.823 Y101.318 E.02464
G1 X100.186 Y108.682 E.39653
G1 X99.538 Y108.682 E.02467
G1 X92.175 Y101.318 E.39653
G1 X91.528 Y101.318 E.02464
G1 X98.891 Y108.682 E.39653
G1 X98.243 Y108.682 E.02467
G1 X90.88 Y101.318 E.39653
G1 X90.232 Y101.318 E.02467
G1 X97.595 Y108.682 E.39653
G1 X96.948 Y108.682 E.02464
G1 X89.585 Y101.318 E.39653
G1 X88.937 Y101.318 E.02467
G1 X96.3 Y108.682 E.39653
G1 X95.653 Y108.682 E.02464
G1 X88.289 Y101.318 E.39655
G1 X87.642 Y101.318 E.02464
G1 X95.005 Y108.682 E.39653
G1 X94.357 Y108.682 E.02467
G1 X86.994 Y101.318 E.39653
G1 X86.347 Y101.318 E.02464
G1 X93.71 Y108.682 E.39653
G1 X93.062 Y108.682 E.02467
G1 X85.699 Y101.318 E.39653
G1 X85.051 Y101.318 E.02467
G1 X92.414 Y108.682 E.39653
G1 X91.767 Y108.682 E.02464
G1 X84.404 Y101.318 E.39653
G1 X83.756 Y101.318 E.02467
G1 X91.119 Y108.682 E.39653
G1 X90.472 Y108.682 E.02464
G1 X83.108 Y101.318 E.39655
G1 X82.461 Y101.318 E.02464
G1 X89.824 Y108.682 E.39653
G1 X89.176 Y108.682 E.02467
G1 X81.813 Y101.318 E.39653
G1 X81.166 Y101.318 E.02464
G1 X88.529 Y108.682 E.39653
G1 X87.881 Y108.682 E.02467
G1 X80.518 Y101.318 E.39653
M73 P13 R18
G1 X79.87 Y101.318 E.02467
G1 X87.233 Y108.682 E.39653
G1 X86.586 Y108.682 E.02464
G1 X79.223 Y101.318 E.39653
G1 X78.575 Y101.318 E.02467
G1 X85.938 Y108.682 E.39653
G1 X85.291 Y108.682 E.02464
G1 X77.927 Y101.318 E.39655
G1 X77.28 Y101.318 E.02464
G1 X84.643 Y108.682 E.39653
G1 X83.995 Y108.682 E.02467
G1 X76.632 Y101.318 E.39653
G1 X75.985 Y101.318 E.02464
G1 X83.348 Y108.682 E.39653
G1 X82.7 Y108.682 E.02467
G1 X75.337 Y101.318 E.39653
G1 X74.689 Y101.318 E.02467
G1 X82.052 Y108.682 E.39653
G1 X81.405 Y108.682 E.02464
G1 X74.042 Y101.318 E.39653
G1 X73.394 Y101.318 E.02467
G1 X80.757 Y108.682 E.39653
