; generated by PrusaSlicer 2.6.0+win64 on 2023-08-01 at 21:21:00 UTC


;
;

;
;

;
;
; 

; external perimeters extrusion width = 0.45mm
; perimeters extrusion width = 0.45mm
; infill extrusion width = 0.45mm
; solid infill extrusion width = 0.45mm
; top infill extrusion width = 0.40mm
; first layer extrusion width = 0.50mm

M73 P0 R52
M201 X2500 Y2500 Z200 E2500 ; sets maximum accelerations, mm/sec^2
M203 X200 Y200 Z40 E100 ; sets maximum feedrates, mm / sec
M204 P2000 R1200 T2000 ; sets acceleration (P, T) and retract acceleration (R), mm/sec^2
M205 X8.00 Y8.00 Z2.00 E10.00 ; sets the jerk limits, mm/sec
M205 S0 T0 ; sets the minimum extruding and travel feed rate, mm/sec
;TYPE:Custom
M17 ; enable steppers
M862.3 P "MK4" ; printer model check
M862.1 P0.4 ; nozzle diameter check
M555 X110 Y61 W32 H84

G90 ; use absolute coordinates
M83 ; extruder relative mode

M140 S85 ; set bed temp

M104 S170 ; set extruder temp for bed leveling
M109 R170 ; wait for temp


M84 E ; turn off E motor

G28 ; home all without mesh bed level

G1 X42 Y-4 Z5 F4800

M302 S160 ; lower cold extrusion limit to 160C


G1 E-2 F2400 ; retraction


M84 E ; turn off E motor

G29 P9 X10 Y-4 W32 H4



G0 Z40 F10000

M190 S85 ; wait for bed temp

M107

;
; MBL
;
M84 E ; turn off E motor
G29 P1 ; invalidate mbl & probe print area
G29 P1 X0 Y0 W50 H20 C ; probe near purge place
G29 P3.2 ; interpolate mbl probes
G29 P3.13 ; extrapolate mbl outside probe area
G29 A ; activate mbl

; prepare for purge
M104 S230
G0 X0 Y-4 Z15 F4800 ; move away and ready for the purge
M109 S230

G92 E0
M569 S0 E ; set spreadcycle mode for extruder

;
; Extrude purge line
;
G92 E0 ; reset extruder position
G1 E2 F2400 ; deretraction after the initial one before nozzle cleaning
G0 E7 X15 Z0.2 F500 ; purge
G0 X25 E4 F500 ; purge
G0 X35 E4 F650 ; purge
G0 X45 E4 F800 ; purge
G0 X48 Z0.05 F8000 ; wipe, move close to the bed
G0 X51 Z0.2 F8000 ; wipe, move quickly away from the bed

G92 E0
M221 S100 ; set flow to 100%
G21 ; set units to millimeters
G90 ; use absolute coordinates
M83 ; use relative distances for extrusion
M900 K0.07 ; Filament gcode



M142 S40 ; set heatbreak target temp
M107
;LAYER_CHANGE
;Z:0.2
;HEIGHT:0.2
;BEFORE_LAYER_CHANGE
G92 E0.0
;0.2


G1 E-1 F2100
G1 Z.15 F720
G1 Z.2
;AFTER_LAYER_CHANGE
;0.2
; printing object support boite harpe.STL id:0 copy 0
G1 Z.35
G1 X110.907 Y108.657 F12000
G1 Z.2 F720
G1 E1 F1500
M204 P600
;TYPE:Perimeter
;WIDTH:0.499999
G1 F1200
G1 X139.093 Y108.657 E1.07124
G1 X139.093 Y142.909 E1.30179
G1 X139.073 Y143.189 E.01067
G1 X138.943 Y143.545 E.0144
G1 X138.7 Y143.835 E.01438
G1 X138.373 Y144.024 E.01435
G1 X137.96 Y144.093 E.01591
G1 X112.091 Y144.093 E.98318
G1 X111.811 Y144.073 E.01067
G1 X111.455 Y143.944 E.01439
G1 X111.165 Y143.7 E.0144
G1 X110.976 Y143.373 E.01435
G1 X110.907 Y142.96 E.01591
G1 X110.907 Y108.717 E1.30145
M204 P1000
G1 X110.45 Y108.2 F12000
M204 P600
;TYPE:External perimeter
G1 F1200
G1 X139.55 Y108.2 E1.10598
G1 X139.55 Y142.909 E1.31916
G1 X139.525 Y143.269 E.01372
G1 X139.341 Y143.774 E.02043
G1 X138.995 Y144.186 E.02045
G1 X138.53 Y144.455 E.02042
G1 X137.98 Y144.55 E.02121
M73 P0 R51
G1 X112.091 Y144.55 E.98394
G1 X111.731 Y144.525 E.01372
G1 X111.226 Y144.341 E.02043
G1 X110.814 Y143.995 E.02045
G1 X110.545 Y143.53 E.02042
G1 X110.45 Y142.98 E.02121
G1 X110.45 Y108.26 E1.31958
M204 P1000
G1 X110.797 Y108.4 F12000
;WIPE_START
G1 F9600
G1 X115.262 Y108.25 E-1
;WIPE_END
G1 Z.35 F720
G1 X126.086 Y129.673 F12000
G1 Z.2 F720
G1 E1 F1500
M204 P600
;TYPE:Perimeter
G1 F1200
G1 X126.515 Y129.873 E.01799
G1 X126.949 Y130.176 E.02012
G1 X127.323 Y130.55 E.0201
G1 X127.654 Y131.037 E.02238
G1 X127.868 Y131.52 E.02008
G1 X127.995 Y132.033 E.02009
G1 X128.03 Y132.56 E.02007
G1 X127.974 Y133.085 E.02007
G1 X127.827 Y133.593 E.0201
G1 X127.594 Y134.067 E.02007
G1 X127.283 Y134.494 E.02008
G1 X126.902 Y134.86 E.02008
G1 X126.463 Y135.154 E.02008
G1 X125.98 Y135.368 E.02008
G1 X125.467 Y135.495 E.02009
G1 X124.94 Y135.53 E.02007
G1 X124.415 Y135.474 E.02007
G1 X123.907 Y135.327 E.0201
G1 X123.433 Y135.094 E.02007
G1 X123.006 Y134.783 E.02008
G1 X122.64 Y134.402 E.02008
G1 X122.346 Y133.963 E.02008
G1 X122.132 Y133.48 E.02008
G1 X122.005 Y132.967 E.02009
G1 X121.97 Y132.56 E.01553
G1 X122.005 Y132.033 E.02007
G1 X122.132 Y131.52 E.02009
G1 X122.346 Y131.037 E.02008
G1 X122.64 Y130.598 E.02008
G1 X123.006 Y130.217 E.02008
G1 X123.433 Y129.906 E.02008
G1 X123.907 Y129.673 E.02007
G1 X124.415 Y129.526 E.0201
G1 X124.966 Y129.47 E.02105
G1 X125.502 Y129.509 E.02043
G1 X126.031 Y129.648 E.02079
M204 P1000
G1 X125.881 Y130.082 F12000
M204 P600
;TYPE:External perimeter
G1 F1200
G1 X126.305 Y130.28 E.01779
G1 X126.67 Y130.54 E.01703
G1 X126.985 Y130.86 E.01707
G1 X127.24 Y131.23 E.01708
G1 X127.426 Y131.638 E.01704
G1 X127.539 Y132.072 E.01704
G1 X127.575 Y132.52 E.01708
G1 X127.532 Y132.967 E.01707
G1 X127.413 Y133.399 E.01703
G1 X127.185 Y133.854 E.01934
G1 X126.96 Y134.17 E.01474
G1 X126.64 Y134.485 E.01707
G1 X126.27 Y134.74 E.01708
G1 X125.862 Y134.927 E.01706
G1 X125.428 Y135.039 E.01704
G1 X124.98 Y135.075 E.01708
G1 X124.533 Y135.032 E.01707
G1 X124.101 Y134.913 E.01703
G1 X123.695 Y134.72 E.01709
G1 X123.33 Y134.46 E.01703
G1 X123.015 Y134.14 E.01707
G1 X122.76 Y133.77 E.01708
G1 X122.573 Y133.362 E.01706
G1 X122.461 Y132.928 E.01704
G1 X122.425 Y132.52 E.01557
G1 X122.468 Y132.033 E.01858
G1 X122.587 Y131.601 E.01703
G1 X122.78 Y131.195 E.01709
G1 X123.04 Y130.83 E.01703
G1 X123.36 Y130.515 E.01707
G1 X123.73 Y130.26 E.01708
G1 X124.138 Y130.073 E.01706
G1 X124.572 Y129.961 E.01704
G1 X124.987 Y129.927 E.01583
G1 X125.591 Y130.001 E.02313
G1 X125.823 Y130.066 E.00916
M204 P1000
G1 X126.187 Y129.825 F12000
;WIPE_START
G1 F9600
G1 X126.305 Y130.28 E-.10959
G1 X126.67 Y130.54 E-.09313
G1 X126.985 Y130.86 E-.09331
G1 X127.24 Y131.23 E-.09338
G1 X127.426 Y131.638 E-.09318
G1 X127.539 Y132.072 E-.0932
G1 X127.575 Y132.52 E-.0934
G1 X127.532 Y132.967 E-.09332
G1 X127.413 Y133.399 E-.09312
G1 X127.185 Y133.854 E-.10576
G1 X127.077 Y134.005 E-.03861
;WIPE_END
G1 Z.35 F720
G1 X137.959 Y108.863 F12000
G1 Z.2 F720
G1 E1 F1500
M204 P600
;TYPE:Solid infill
;WIDTH:0.502145
G1 F1200
G1 X138.682 Y109.586 E.03904
G1 X138.682 Y110.235 E.02478
G1 X137.515 Y109.068 E.06302
G1 X136.866 Y109.068 E.02478
G1 X138.682 Y110.884 E.09807
G1 X138.682 Y111.534 E.02482
G1 X136.216 Y109.068 E.13317
G1 X135.567 Y109.068 E.02478
G1 X138.682 Y112.183 E.16821
G1 X138.682 Y112.833 E.02482
G1 X134.917 Y109.068 E.20332
G1 X134.268 Y109.068 E.02478
G1 X138.682 Y113.482 E.23836
G1 X138.682 Y114.132 E.02482
G1 X133.618 Y109.068 E.27346
G1 X132.969 Y109.068 E.02478
G1 X138.682 Y114.781 E.30851
G1 X138.682 Y115.431 E.02482
G1 X132.319 Y109.068 E.34361
G1 X131.67 Y109.068 E.02478
G1 X138.682 Y116.08 E.37866
G1 X138.682 Y116.729 E.02478
G1 X131.021 Y109.068 E.4137
G1 X130.371 Y109.068 E.02482
G1 X138.682 Y117.379 E.44881
G1 X138.682 Y118.028 E.02478
G1 X129.722 Y109.068 E.48385
G1 X129.072 Y109.068 E.02482
G1 X138.682 Y118.678 E.51895
G1 X138.682 Y119.327 E.02478
G1 X128.423 Y109.068 E.554
G1 X127.773 Y109.068 E.02482
G1 X138.682 Y119.977 E.5891
G1 X138.682 Y120.626 E.02478
G1 X127.124 Y109.068 E.62415
G1 X126.474 Y109.068 E.02482
G1 X138.682 Y121.276 E.65925
G1 X138.682 Y121.925 E.02478
G1 X125.825 Y109.068 E.6943
G1 X125.176 Y109.068 E.02478
M73 P1 R51
G1 X138.682 Y122.574 E.72934
G1 X138.682 Y123.224 E.02482
G1 X124.526 Y109.068 E.76444
G1 X123.877 Y109.068 E.02478
G1 X138.682 Y123.873 E.79949
G1 X138.682 Y124.523 E.02482
G1 X123.227 Y109.068 E.83459
G1 X122.578 Y109.068 E.02478
G1 X138.682 Y125.172 E.86964
G1 X138.682 Y125.822 E.02482
G1 X121.928 Y109.068 E.90474
G1 X121.279 Y109.068 E.02478
G1 X138.682 Y126.471 E.93979
G1 X138.682 Y127.121 E.02482
G1 X120.629 Y109.068 E.97489
G1 X119.98 Y109.068 E.02478
G1 X138.682 Y127.77 E1.00993
G1 X138.682 Y128.419 E.02478
G1 X119.331 Y109.068 E1.04498
G1 X118.681 Y109.068 E.02482
G1 X138.682 Y129.069 E1.08008
G1 X138.682 Y129.718 E.02478
G1 X118.032 Y109.068 E1.11513
G1 X117.382 Y109.068 E.02482
G1 X138.682 Y130.368 E1.15023
G1 X138.682 Y131.017 E.02478
G1 X116.733 Y109.068 E1.18528
G1 X116.083 Y109.068 E.02482
G1 X138.682 Y131.667 E1.22038
G1 X138.682 Y132.316 E.02478
G1 X115.434 Y109.068 E1.25542
G1 X114.784 Y109.068 E.02482
G1 X138.682 Y132.966 E1.29052
G1 X138.682 Y133.615 E.02478
G1 X114.135 Y109.068 E1.32557
G1 X113.486 Y109.068 E.02478
G1 X138.682 Y134.264 E1.36062
G1 X138.682 Y134.914 E.02482
G1 X112.836 Y109.068 E1.39572
G1 X112.187 Y109.068 E.02478
G1 X138.682 Y135.563 E1.43077
G1 X138.682 Y136.213 E.02482
G1 X111.537 Y109.068 E1.46587
G1 X111.318 Y109.068 E.00836
G1 X111.318 Y109.499 E.01646
G1 X138.682 Y136.862 E1.47767
G1 X138.682 Y137.512 E.02482
G1 X111.318 Y110.148 E1.47769
M73 P2 R51
G1 X111.318 Y110.798 E.02482
G1 X138.682 Y138.161 E1.47767
G1 X138.682 Y138.81 E.02478
G1 X111.318 Y111.447 E1.47767
G1 X111.318 Y112.097 E.02482
G1 X138.682 Y139.46 E1.47767
G1 X138.682 Y140.109 E.02478
G1 X111.318 Y112.746 E1.47767
G1 X111.318 Y113.396 E.02482
G1 X138.682 Y140.759 E1.47767
G1 X138.682 Y141.408 E.02478
G1 X111.318 Y114.045 E1.47767
G1 X111.318 Y114.695 E.02482
M73 P2 R50
G1 X125.78 Y129.156 E.78094
G1 X125.596 Y129.107 E.00727
G1 X125.038 Y129.063 E.02137
G1 X111.318 Y115.344 E.74087
G1 X111.318 Y115.993 E.02478
G1 X124.43 Y129.105 E.70807
G1 X123.911 Y129.235 E.02043
G1 X111.318 Y116.643 E.68001
G1 X111.318 Y117.292 E.02478
G1 X123.456 Y129.43 E.65547
G1 X123.203 Y129.564 E.01093
G1 X123.05 Y129.673 E.00717
G1 X111.318 Y117.942 E.63352
G1 X111.318 Y118.591 E.02478
G1 X122.686 Y129.959 E.61389
G1 X122.365 Y130.287 E.01752
G1 X111.318 Y119.241 E.59653
G1 X111.318 Y119.89 E.02478
G1 X122.092 Y130.664 E.58181
G1 X121.976 Y130.856 E.00857
G1 X121.868 Y131.089 E.00981
G1 X111.318 Y120.54 E.56969
G1 X111.318 Y121.189 E.02478
G1 X121.694 Y131.565 E.56032
G1 X121.627 Y131.816 E.00992
G1 X121.587 Y132.107 E.01122
G1 X111.318 Y121.838 E.55454
G1 X111.318 Y122.488 E.02482
G1 X121.803 Y132.972 E.56618
M204 P1000
;WIPE_START
G1 F9600
G1 X118.4 Y129.57 E-1
;WIPE_END
G1 Z.35 F720
G1 X128.053 Y131.429 F12000
M73 P3 R50
G1 Z.2 F720
G1 E1 F1500
M204 P600
G1 F1200
G1 X138.682 Y142.058 E.57398
G1 X138.682 Y142.707 E.02478
G1 X128.442 Y132.468 E.55295
G1 X128.395 Y133.07 E.02306
G1 X138.61 Y143.286 E.55165
G1 X138.518 Y143.435 E.00669
G1 X138.435 Y143.518 E.00448
G1 X138.286 Y143.61 E.00669
G1 X128.265 Y133.589 E.54115
G1 X128.203 Y133.759 E.00691
G1 X128.07 Y134.044 E.01201
G1 X137.708 Y143.682 E.52046
G1 X137.058 Y143.682 E.02482
G1 X127.828 Y134.451 E.49846
G1 X127.692 Y134.645 E.00905
G1 X127.543 Y134.816 E.00866
G1 X136.409 Y143.682 E.47878
G1 X135.759 Y143.682 E.02482
G1 X127.213 Y135.135 E.46152
G1 X126.836 Y135.408 E.01777
G1 X135.11 Y143.682 E.44681
G1 X134.46 Y143.682 E.02482
G1 X126.411 Y135.632 E.43468
G1 X126.094 Y135.764 E.01311
G1 X125.934 Y135.805 E.00631
G1 X133.811 Y143.682 E.42537
G1 X133.162 Y143.682 E.02478
G1 X125.391 Y135.911 E.41964
G1 X125.001 Y135.945 E.01495
G1 X124.756 Y135.925 E.00939
G1 X132.512 Y143.682 E.41886
G1 X131.863 Y143.682 E.02478
G1 X123.959 Y135.778 E.42683
G1 X123.741 Y135.703 E.0088
G1 X123.355 Y135.524 E.01625
G1 X123.204 Y135.436 E.00667
G1 X122.855 Y135.192 E.01626
G1 X122.721 Y135.079 E.00669
G1 X122.421 Y134.779 E.0162
G1 X122.308 Y134.645 E.00669
G1 X122.064 Y134.296 E.01626
G1 X121.976 Y134.144 E.00671
G1 X121.797 Y133.759 E.01621
G1 X121.723 Y133.542 E.00875
G1 X111.318 Y123.137 E.56188
G1 X111.318 Y123.787 E.02482
G1 X131.213 Y143.682 E1.07436
G1 X130.564 Y143.682 E.02478
G1 X111.318 Y124.436 E1.03931
G1 X111.318 Y125.086 E.02482
G1 X129.914 Y143.682 E1.00421
G1 X129.265 Y143.682 E.02478
G1 X111.318 Y125.735 E.96916
G1 X111.318 Y126.385 E.02482
G1 X128.615 Y143.682 E.93406
G1 X127.966 Y143.682 E.02478
G1 X111.318 Y127.034 E.89901
G1 X111.318 Y127.683 E.02478
G1 X127.317 Y143.682 E.86397
G1 X126.667 Y143.682 E.02482
G1 X111.318 Y128.333 E.82887
G1 X111.318 Y128.982 E.02478
G1 X126.018 Y143.682 E.79382
G1 X125.368 Y143.682 E.02482
G1 X111.318 Y129.632 E.75872
G1 X111.318 Y130.281 E.02478
G1 X124.719 Y143.682 E.72367
G1 X124.069 Y143.682 E.02482
G1 X111.318 Y130.931 E.68857
G1 X111.318 Y131.58 E.02478
G1 X123.42 Y143.682 E.65352
G1 X122.77 Y143.682 E.02482
G1 X111.318 Y132.23 E.61842
G1 X111.318 Y132.879 E.02478
G1 X122.121 Y143.682 E.58338
G1 X121.472 Y143.682 E.02478
G1 X111.318 Y133.528 E.54833
G1 X111.318 Y134.178 E.02482
G1 X120.822 Y143.682 E.51323
G1 X120.173 Y143.682 E.02478
G1 X111.318 Y134.827 E.47818
G1 X111.318 Y135.477 E.02482
G1 X119.523 Y143.682 E.44308
G1 X118.874 Y143.682 E.02478
G1 X111.318 Y136.126 E.40803
G1 X111.318 Y136.776 E.02482
G1 X118.224 Y143.682 E.37293
G1 X117.575 Y143.682 E.02478
G1 X111.318 Y137.425 E.33789
G1 X111.318 Y138.075 E.02482
M73 P4 R50
G1 X116.925 Y143.682 E.30279
G1 X116.276 Y143.682 E.02478
G1 X111.318 Y138.724 E.26774
G1 X111.318 Y139.373 E.02478
G1 X115.627 Y143.682 E.23269
G1 X114.977 Y143.682 E.02482
G1 X111.318 Y140.023 E.19759
G1 X111.318 Y140.672 E.02478
G1 X114.328 Y143.682 E.16254
G1 X113.678 Y143.682 E.02482
G1 X111.318 Y141.322 E.12744
G1 X111.318 Y141.971 E.02478
G1 X113.029 Y143.682 E.0924
G1 X112.379 Y143.682 E.02482
G1 X111.318 Y142.621 E.0573
G1 X111.318 Y142.942 E.01226
G1 X111.334 Y143.117 E.00671
G1 X111.364 Y143.231 E.0045
G1 X111.414 Y143.338 E.00451
G1 X111.478 Y143.43 E.00428
G1 X111.925 Y143.876 E.02411
M204 P1000
;WIPE_START
G1 F9600
G1 X111.478 Y143.43 E-.13122
G1 X111.414 Y143.338 E-.02329
G1 X111.364 Y143.231 E-.02454
G1 X111.334 Y143.117 E-.0245
G1 X111.318 Y142.942 E-.03652
G1 X111.318 Y142.621 E-.06671
G1 X112.379 Y143.682 E-.31182
G1 X113.029 Y143.682 E-.13508
G1 X112.191 Y142.844 E-.24632
;WIPE_END
G1 Z.35 F720
G1 X139.093 Y101.343 F12000
G1 Z.2 F720
G1 E1 F1500
M204 P600
;TYPE:Perimeter
;WIDTH:0.499999
G1 F1200
G1 X110.907 Y101.343 E1.07124
G1 X110.907 Y67.091 E1.30179
G1 X110.927 Y66.811 E.01067
G1 X111.057 Y66.455 E.0144
G1 X111.3 Y66.165 E.01438
G1 X111.63 Y65.976 E.01445
G1 X112.04 Y65.907 E.0158
G1 X137.909 Y65.907 E.98318
G1 X138.18 Y65.926 E.01032
G1 X138.545 Y66.057 E.01474
G1 X138.835 Y66.3 E.01438
G1 X139.024 Y66.627 E.01435
G1 X139.093 Y67.091 E.01783
G1 X139.093 Y101.283 E1.29951
M204 P1000
G1 X139.55 Y101.8 F12000
M204 P600
;TYPE:External perimeter
G1 F1200
G1 X110.45 Y101.8 E1.10598
M73 P4 R49
G1 X110.45 Y67.091 E1.31916
G1 X110.475 Y66.731 E.01372
G1 X110.659 Y66.226 E.02043
G1 X111.005 Y65.814 E.02045
G1 X111.471 Y65.545 E.02045
G1 X112.02 Y65.45 E.02118
G1 X137.98 Y65.45 E.98664
G1 X138.53 Y65.545 E.02121
G1 X138.995 Y65.814 E.02042
G1 X139.341 Y66.226 E.02045
G1 X139.49 Y66.601 E.01534
G1 X139.55 Y67.091 E.01876
G1 X139.55 Y101.74 E1.31688
M204 P1000
G1 X139.203 Y101.6 F12000
;WIPE_START
G1 F9600
G1 X134.738 Y101.75 E-1
;WIPE_END
G1 Z.35 F720
G1 X125.517 Y74.519 F12000
G1 Z.2 F720
G1 E1 F1500
M204 P600
;TYPE:Perimeter
G1 F1200
G1 X125.585 Y74.526 E.0026
G1 X126.093 Y74.673 E.0201
G1 X126.567 Y74.906 E.02007
G1 X126.994 Y75.217 E.02008
G1 X127.36 Y75.598 E.02008
G1 X127.654 Y76.037 E.02008
G1 X127.868 Y76.52 E.02008
G1 X127.995 Y77.033 E.02009
G1 X128.03 Y77.56 E.02007
G1 X127.974 Y78.085 E.02007
G1 X127.827 Y78.593 E.0201
G1 X127.594 Y79.067 E.02007
G1 X127.283 Y79.494 E.02008
G1 X126.902 Y79.86 E.02008
G1 X126.463 Y80.154 E.02008
G1 X125.98 Y80.368 E.02008
G1 X125.467 Y80.495 E.02009
G1 X124.94 Y80.53 E.02007
G1 X124.415 Y80.474 E.02007
G1 X123.907 Y80.327 E.0201
G1 X123.485 Y80.127 E.01775
G1 X123.051 Y79.824 E.02012
G1 X122.677 Y79.45 E.0201
G1 X122.346 Y78.963 E.02238
G1 X122.132 Y78.48 E.02008
G1 X122.005 Y77.967 E.02009
G1 X121.97 Y77.44 E.02007
G1 X122.026 Y76.915 E.02007
G1 X122.173 Y76.407 E.0201
G1 X122.406 Y75.933 E.02007
G1 X122.717 Y75.506 E.02008
G1 X123.098 Y75.14 E.02008
G1 X123.537 Y74.846 E.02008
G1 X124.02 Y74.632 E.02008
G1 X124.533 Y74.505 E.02009
G1 X125.022 Y74.472 E.01863
G1 X125.457 Y74.514 E.01661
M204 P1000
G1 X125.449 Y74.966 F12000
M204 P600
;TYPE:External perimeter
G1 F1200
G1 X125.899 Y75.087 E.01771
G1 X126.305 Y75.28 E.01709
