; generated by PrusaSlicer 2.6.0+win64 on 2023-08-06 at 16:56:15 UTC


;
;

;
;

;
;
; 

; external perimeters extrusion width = 0.45mm
; perimeters extrusion width = 0.45mm
; infill extrusion width = 0.45mm
; solid infill extrusion width = 0.45mm
; top infill extrusion width = 0.40mm
; support material extrusion width = 0.37mm
; first layer extrusion width = 0.50mm

M73 P0 R25
M201 X2500 Y2500 Z200 E2500 ; sets maximum accelerations, mm/sec^2
M203 X200 Y200 Z40 E100 ; sets maximum feedrates, mm / sec
M204 P2000 R1200 T2000 ; sets acceleration (P, T) and retract acceleration (R), mm/sec^2
M205 X8.00 Y8.00 Z2.00 E10.00 ; sets the jerk limits, mm/sec
M205 S0 T0 ; sets the minimum extruding and travel feed rate, mm/sec
;TYPE:Custom
M17 ; enable steppers
M862.3 P "MK4" ; printer model check
M862.1 P0.4 ; nozzle diameter check
M555 X112.75 Y85.9214 W32 H34.1573

G90 ; use absolute coordinates
M83 ; extruder relative mode

M140 S60 ; set bed temp

M104 S170 ; set extruder temp for bed leveling
M109 R170 ; wait for temp


M84 E ; turn off E motor

G28 ; home all without mesh bed level

G1 X42 Y-4 Z5 F4800

M302 S160 ; lower cold extrusion limit to 160C


G1 E-2 F2400 ; retraction


M84 E ; turn off E motor

G29 P9 X10 Y-4 W32 H4

M106 S100

G0 Z40 F10000

M190 S60 ; wait for bed temp

M107

;
; MBL
;
M84 E ; turn off E motor
G29 P1 ; invalidate mbl & probe print area
G29 P1 X0 Y0 W50 H20 C ; probe near purge place
G29 P3.2 ; interpolate mbl probes
G29 P3.13 ; extrapolate mbl outside probe area
G29 A ; activate mbl

; prepare for purge
M104 S215
G0 X0 Y-4 Z15 F4800 ; move away and ready for the purge
M109 S215

G92 E0
M569 S0 E ; set spreadcycle mode for extruder

;
; Extrude purge line
;
G92 E0 ; reset extruder position
G1 E2 F2400 ; deretraction after the initial one before nozzle cleaning
G0 E7 X15 Z0.2 F500 ; purge
G0 X25 E4 F500 ; purge
G0 X35 E4 F650 ; purge
G0 X45 E4 F800 ; purge
G0 X48 Z0.05 F8000 ; wipe, move close to the bed
G0 X51 Z0.2 F8000 ; wipe, move quickly away from the bed

G92 E0
M221 S100 ; set flow to 100%
G21 ; set units to millimeters
G90 ; use absolute coordinates
M83 ; use relative distances for extrusion
M900 K0.05 ; Filament gcode



M142 S36 ; set heatbreak target temp
M107
;LAYER_CHANGE
;Z:0.2
;HEIGHT:0.2
;BEFORE_LAYER_CHANGE
G92 E0.0
;0.2


G1 E-.8 F2100
G1 Z.2 F720
;AFTER_LAYER_CHANGE
;0.2
; printing object User Library-EQ-P6-INT-TPM.STL id:0 copy 0
G1 Z.4
G1 X113.889 Y93.793 F12000
G1 Z.2 F720
G1 E.8 F1500
M204 P600
;TYPE:Support material interface
;WIDTH:0.37
G1 F1200
G1 X113.972 Y93.876 E.00319
G1 X114.718 Y93.876 E.02029
G1 X114.261 Y93.42 E.01756
G1 X114.518 Y93.163 E.00988
G1 X114.75 Y93.163 E.00631
G1 X115.463 Y93.876 E.02742
G1 X116.209 Y93.876 E.02029
G1 X115.496 Y93.163 E.02742
G1 X116.241 Y93.163 E.02026
G1 X116.954 Y93.876 E.02742
G1 X117.699 Y93.876 E.02026
G1 X116.986 Y93.163 E.02742
G1 X117.732 Y93.163 E.02029
G1 X118.445 Y93.876 E.02742
G1 X119.19 Y93.876 E.02026
G1 X118.477 Y93.163 E.02742
G1 X119.223 Y93.163 E.02029
G1 X119.936 Y93.876 E.02742
G1 X120.681 Y93.876 E.02026
G1 X119.968 Y93.163 E.02742
G1 X120.713 Y93.163 E.02026
G1 X121.426 Y93.876 E.02742
G1 X122.172 Y93.876 E.02029
G1 X121.459 Y93.163 E.02742
G1 X122.204 Y93.163 E.02026
G1 X122.917 Y93.876 E.02742
G1 X123.663 Y93.876 E.02029
G1 X122.95 Y93.163 E.02742
G1 X123.695 Y93.163 E.02026
G1 X124.408 Y93.876 E.02742
G1 X125.153 Y93.876 E.02026
G1 X124.44 Y93.163 E.02742
G1 X125.186 Y93.163 E.02029
G1 X125.899 Y93.876 E.02742
G1 X126.644 Y93.876 E.02026
G1 X125.931 Y93.163 E.02742
G1 X126.677 Y93.163 E.02029
G1 X127.39 Y93.876 E.02742
G1 X128.135 Y93.876 E.02026
G1 X127.422 Y93.163 E.02742
G1 X128.167 Y93.163 E.02026
G1 X128.88 Y93.876 E.02742
G1 X129.626 Y93.876 E.02029
G1 X128.913 Y93.163 E.02742
G1 X129.658 Y93.163 E.02026
G1 X130.371 Y93.876 E.02742
G1 X131.117 Y93.876 E.02029
G1 X130.404 Y93.163 E.02742
G1 X131.149 Y93.163 E.02026
G1 X131.862 Y93.876 E.02742
G1 X132.608 Y93.876 E.02029
G1 X131.894 Y93.163 E.02744
G1 X132.64 Y93.163 E.02029
G1 X133.353 Y93.876 E.02742
G1 X134.098 Y93.876 E.02026
G1 X133.384 Y93.162 E.02746
G1 X133.692 Y93.117 E.00847
G1 X133.867 Y93.063 E.00498
G1 X134.031 Y93.063 E.00446
G1 X134.844 Y93.876 E.03127
G1 X135.589 Y93.876 E.02026
G1 X134.776 Y93.063 E.03127
G1 X135.087 Y93.063 E.00846
G1 X135.156 Y93.092 E.00204
G1 X135.287 Y93.223 E.00504
M204 P1000
G1 X135.43 Y93.365 F12000
M204 P600
G1 F1200
G1 X135.941 Y93.876 E.01965
G1 X135.753 Y93.876 E.00511
M204 P1000
G1 E-.64 F2100
;WIPE_START
G1 F9600
G1 X135.941 Y93.876 E-.03907
G1 X135.53 Y93.465 E-.12093
;WIPE_END
G1 Z.4 F720
G1 X139 Y90.15 F12000
G1 Z.2 F720
G1 E.8 F1500
M204 P600
;TYPE:Support material
;WIDTH:0.5
G1 F1200
G1 X139 Y96.09 E.22576
G1 X137.86 Y96.09 E.04333
G1 X137.86 Y94.447 E.06244
G1 X137.503 Y94.09 E.01919
G1 X136.503 Y94.09 E.03801
G1 X136.5 Y93.851 E.00908
G1 X135.39 Y92.741 E.05966
G1 X135.17 Y92.65 E.00905
G1 X133.806 Y92.65 E.05184
G1 X133.601 Y92.712 E.00814
G1 X133.345 Y92.75 E.00984
G1 X132.346 Y92.75 E.03797
G1 X132.863 Y90.15 E.10075
G1 X138.931 Y90.15 E.23062
M204 P1000
G1 X138.141 Y95.884 F12000
M204 P600
G1 F1200
G1 X138.141 Y90.561 E.20231
G1 X137.57 Y90.561 E.0217
G1 X137.57 Y93.679 E.1185
G1 X136.998 Y93.679 E.02174
G1 X136.998 Y90.561 E.1185
G1 X136.427 Y90.561 E.0217
G1 X136.427 Y93.196 E.10015
G1 X135.856 Y92.625 E.03069
G1 X135.856 Y90.561 E.07845
G1 X135.284 Y90.561 E.02174
G1 X135.284 Y92.252 E.06427
G1 X135.252 Y92.238 E.00133
G1 X134.713 Y92.238 E.02049
G1 X134.713 Y90.561 E.06374
G1 X134.142 Y90.561 E.0217
G1 X134.142 Y92.238 E.06374
G1 X133.745 Y92.238 E.01509
G1 X133.57 Y92.291 E.00695
M73 P1 R25
G1 X133.57 Y90.561 E.06575
G1 X133.201 Y90.561 E.01402
G1 X132.999 Y91.576 E.03933
G1 X132.999 Y92.544 E.03679
M204 P1000
G1 E-.64 F2100
;WIPE_START
G1 F9600
G1 X132.999 Y91.774 E-.16
;WIPE_END
G1 Z.4 F720
G1 X135.727 Y101.237 F12000
G1 Z.2 F720
G1 E.8 F1500
M204 P600
;TYPE:Support material interface
;WIDTH:0.37
G1 F1200
G1 X135.941 Y101.024 E.00821
G1 X135.282 Y101.024 E.01792
G1 X135.611 Y101.353 E.01265
G1 X135.239 Y101.725 E.01431
G1 X134.537 Y101.024 E.02698
G1 X133.791 Y101.024 E.02029
G1 X134.604 Y101.837 E.03127
G1 X133.867 Y101.837 E.02004
G1 X133.046 Y101.024 E.03142
G1 X132.301 Y101.024 E.02026
G1 X133.014 Y101.737 E.02742
G1 X132.268 Y101.737 E.02029
G1 X131.555 Y101.024 E.02742
G1 X130.81 Y101.024 E.02026
G1 X131.523 Y101.737 E.02742
G1 X130.777 Y101.737 E.02029
G1 X130.064 Y101.024 E.02742
G1 X129.319 Y101.024 E.02026
G1 X130.032 Y101.737 E.02742
G1 X129.287 Y101.737 E.02026
G1 X128.574 Y101.024 E.02742
G1 X127.828 Y101.024 E.02029
G1 X128.541 Y101.737 E.02742
G1 X127.796 Y101.737 E.02026
G1 X127.083 Y101.024 E.02742
G1 X126.337 Y101.024 E.02029
G1 X127.05 Y101.737 E.02742
G1 X126.305 Y101.737 E.02026
G1 X125.592 Y101.024 E.02742
G1 X124.847 Y101.024 E.02026
G1 X125.56 Y101.737 E.02742
G1 X124.814 Y101.737 E.02029
G1 X124.101 Y101.024 E.02742
G1 X123.356 Y101.024 E.02026
G1 X124.069 Y101.737 E.02742
G1 X123.323 Y101.737 E.02029
G1 X122.61 Y101.024 E.02742
G1 X121.865 Y101.024 E.02026
G1 X122.578 Y101.737 E.02742
G1 X121.833 Y101.737 E.02026
G1 X121.12 Y101.024 E.02742
G1 X120.374 Y101.024 E.02029
G1 X121.087 Y101.737 E.02742
G1 X120.342 Y101.737 E.02026
G1 X119.629 Y101.024 E.02742
G1 X118.883 Y101.024 E.02029
G1 X119.596 Y101.737 E.02742
G1 X118.851 Y101.737 E.02026
G1 X118.138 Y101.024 E.02742
G1 X117.392 Y101.024 E.02029
G1 X118.106 Y101.737 E.02744
G1 X117.36 Y101.737 E.02029
G1 X116.647 Y101.024 E.02742
G1 X115.902 Y101.024 E.02026
G1 X116.615 Y101.737 E.02742
G1 X115.869 Y101.737 E.02029
G1 X115.156 Y101.024 E.02742
G1 X114.411 Y101.024 E.02026
G1 X115.124 Y101.737 E.02742
G1 X114.518 Y101.737 E.01648
G1 X113.805 Y101.024 E.02742
G1 X114.247 Y101.024 E.01202
M204 P1000
G1 E-.64 F2100
;WIPE_START
G1 F9600
G1 X113.805 Y101.024 E-.09185
G1 X114.037 Y101.256 E-.06815
;WIPE_END
G1 Z.4 F720
G1 X139 Y104.75 F12000
G1 Z.2 F720
G1 E.8 F1500
M204 P600
;TYPE:Support material
;WIDTH:0.5
G1 F1200
G1 X131.093 Y104.75 E.30052
G1 X131.093 Y102.15 E.09882
G1 X133.345 Y102.15 E.08559
G1 X133.601 Y102.188 E.00984
G1 X133.806 Y102.25 E.00814
G1 X135.17 Y102.25 E.05184
G1 X135.39 Y102.159 E.00905
G1 X136.5 Y101.049 E.05966
G1 X136.503 Y100.81 E.00908
G1 X137.503 Y100.81 E.03801
G1 X137.86 Y100.453 E.01919
G1 X137.86 Y98.81 E.06244
G1 X139 Y98.81 E.04333
G1 X139 Y104.681 E.22314
M204 P1000
G1 X138.141 Y104.544 F12000
M204 P600
G1 F1200
G1 X138.141 Y100.753 E.14408
G1 X137.673 Y101.221 E.02515
G1 X137.57 Y101.221 E.00391
G1 X137.57 Y104.339 E.1185
G1 X136.998 Y104.339 E.02174
G1 X136.998 Y101.221 E.1185
G1 X136.909 Y101.221 E.00338
G1 X136.427 Y101.704 E.02593
G1 X136.427 Y104.339 E.10015
G1 X135.856 Y104.339 E.0217
G1 X135.856 Y102.275 E.07845
G1 X135.623 Y102.508 E.01252
G1 X135.284 Y102.648 E.01394
G1 X135.284 Y104.339 E.06427
G1 X134.713 Y104.339 E.0217
G1 X134.713 Y102.662 E.06374
G1 X134.142 Y102.662 E.0217
G1 X134.142 Y104.339 E.06374
G1 X133.57 Y104.339 E.02174
G1 X133.57 Y102.609 E.06575
G1 X133.315 Y102.562 E.00985
G1 X132.999 Y102.562 E.01201
G1 X132.999 Y104.339 E.06754
G1 X132.428 Y104.339 E.0217
G1 X132.428 Y102.562 E.06754
G1 X131.856 Y102.562 E.02174
G1 X131.856 Y104.544 E.07533
M204 P1000
G1 E-.64 F2100
;WIPE_START
G1 F9600
G1 X131.856 Y103.774 E-.16
;WIPE_END
G1 Z.4 F720
G1 X125.303 Y99.395 F12000
G1 Z.2 F720
G1 E.8 F1500
M204 P600
;TYPE:Perimeter
;WIDTH:0.499999
G1 F1200
G1 X123.211 Y99.397 E.07951
G1 X122.457 Y99.451 E.02873
G1 X122.555 Y99.339 E.00566
G1 X122.881 Y98.812 E.02355
G1 X123.074 Y98.256 E.02237
G1 X123.162 Y97.682 E.02207
G1 X123.152 Y97.101 E.02208
G1 X123.041 Y96.523 E.02237
G1 X122.809 Y95.946 E.02364
G1 X122.466 Y95.461 E.02258
G1 X122.743 Y95.49 E.01059
G1 X123.26 Y95.505 E.01966
G1 X135.826 Y95.507 E.47759
G1 X135.903 Y95.558 E.00351
G1 X136.343 Y95.607 E.01683
G1 X136.343 Y99.293 E.14009
G1 X135.903 Y99.342 E.01683
G1 X135.826 Y99.393 E.00351
G1 X125.363 Y99.395 E.39766
M204 P1000
G1 X125.303 Y99.852 F12000
M204 P600
;TYPE:External perimeter
G1 F1200
G1 X123.244 Y99.853 E.07825
M73 P1 R24
G1 X122.448 Y99.91 E.03033
G1 X121.767 Y100.032 E.02629
G1 X121.274 Y100.05 E.01875
G1 X120.669 Y100.05 E.02299
G1 X121.011 Y99.909 E.01406
G1 X121.576 Y99.564 E.02516
G1 X122.131 Y99.136 E.02664
G1 X122.428 Y98.701 E.02002
G1 X122.612 Y98.219 E.01961
G1 X122.702 Y97.721 E.01923
G1 X122.705 Y97.218 E.01912
G1 X122.623 Y96.722 E.01911
G1 X122.447 Y96.234 E.01972
G1 X122.172 Y95.812 E.01914
G1 X121.753 Y95.445 E.02117
G1 X121.2 Y95.107 E.02463
G1 X120.669 Y94.85 E.02242
G1 X121.742 Y94.862 E.04078
G1 X122.24 Y94.975 E.01941
G1 X122.757 Y95.033 E.01977
G1 X123.26 Y95.048 E.01913
G1 X135.917 Y95.05 E.48105
G1 X136.158 Y95.15 E.00992
G1 X136.8 Y95.15 E.0244
G1 X136.8 Y99.75 E.17483
G1 X136.073 Y99.766 E.02764
G1 X135.964 Y99.85 E.00523
G1 X125.363 Y99.852 E.4029
M204 P1000
G1 X125.102 Y99.506 F12000
G1 E-.64 F2100
;WIPE_START
G1 F9600
G1 X124.593 Y99.852 E-.16
;WIPE_END
G1 Z.4 F720
G1 X120.099 Y100.121 F12000
G1 Z.2 F720
G1 E.8 F1500
M204 P600
;WIDTH:0.393908
G1 F1200
G1 X119.193 Y100.103 E.02645
M204 P1000
G1 E-.64 F2100
;WIPE_START
G1 F9600
G1 X119.963 Y100.118 E-.16
;WIPE_END
G1 Z.4 F720
G1 X117.071 Y95.441 F12000
G1 Z.2 F720
G1 E.8 F1500
M204 P600
;TYPE:Perimeter
;WIDTH:0.499999
G1 F1200
G1 X116.766 Y95.817 E.0184
G1 X116.51 Y96.362 E.02288
G1 X116.37 Y96.929 E.0222
G1 X116.328 Y97.45 E.01987
G1 X116.37 Y97.971 E.01987
G1 X116.51 Y98.538 E.0222
G1 X116.766 Y99.083 E.02288
G1 X117.056 Y99.443 E.01757
G1 X116.847 Y99.418 E.008
G1 X116.321 Y99.396 E.02001
G1 X113.657 Y99.394 E.10125
G1 X113.657 Y95.506 E.14777
G1 X116.38 Y95.501 E.10349
G1 X117.011 Y95.446 E.02407
M204 P1000
G1 X117.156 Y94.975 F12000
M204 P600
;TYPE:External perimeter
G1 F1200
G1 X117.337 Y94.959 E.00691
G1 X117.835 Y94.85 E.01938
G1 X118.83 Y94.85 E.03782
G1 X118.702 Y94.893 E.00513
G1 X117.998 Y95.298 E.03087
G1 X117.518 Y95.627 E.02212
G1 X117.175 Y96.022 E.01988
G1 X116.952 Y96.48 E.01936
G1 X116.825 Y96.968 E.01916
G1 X116.786 Y97.469 E.0191
G1 X116.832 Y97.971 E.01916
G1 X116.968 Y98.463 E.0194
G1 X117.252 Y98.976 E.02229
G1 X117.62 Y99.35 E.01994
G1 X118.318 Y99.813 E.03183
G1 X118.83 Y100.05 E.02144
G1 X117.835 Y100.05 E.03782
G1 X117.325 Y99.939 E.01984
G1 X116.827 Y99.875 E.01908
G1 X116.321 Y99.854 E.01925
G1 X113.2 Y99.85 E.11862
G1 X113.2 Y95.05 E.18243
G1 X116.34 Y95.046 E.11934
G1 X117.096 Y94.98 E.02884
M204 P1000
G1 X117.257 Y95.126 F12000
G1 E-.64 F2100
;WIPE_START
G1 F9600
G1 X117.337 Y94.959 E-.05027
G1 X117.835 Y94.85 E-.10594
G1 X117.853 Y94.85 E-.00379
;WIPE_END
G1 Z.4 F720
G1 X119.185 Y94.798 F12000
M73 P2 R24
G1 Z.2 F720
G1 E.8 F1500
M204 P600
;WIDTH:0.395138
G1 F1200
G1 X120.078 Y94.778 E.02616
;WIDTH:0.38292
G1 X120.105 Y94.78 E.00077
M204 P1000
G1 E-.64 F2100
;WIPE_START
G1 F9600
G1 X120.078 Y94.778 E-.00563
G1 X119.335 Y94.795 E-.15437
;WIPE_END
G1 Z.4 F720
G1 X115.627 Y95.71 F12000
G1 Z.2 F720
G1 E.8 F1500
M204 P600
;TYPE:Solid infill
;WIDTH:0.541524
G1 F1200
G1 X116.129 Y96.211 E.0294
G1 X115.981 Y96.769 E.02393
G1 X115.128 Y95.916 E.05001
G1 X114.424 Y95.917 E.02919
G1 X115.919 Y97.412 E.08765
G1 X115.96 Y98.013 E.02497
G1 X115.991 Y98.19 E.00745
G1 X114.068 Y96.267 E.11275
G1 X114.068 Y96.972 E.02923
G1 X116.082 Y98.985 E.11806
G1 X115.376 Y98.984 E.02927
G1 X114.068 Y97.677 E.07666
G1 X114.068 Y98.382 E.02923
G1 X114.876 Y99.189 E.04735
M204 P1000
G1 E-.64 F2100
;WIPE_START
G1 F9600
G1 X114.331 Y98.645 E-.16
;WIPE_END
G1 Z.4 F720
G1 X135.077 Y95.712 F12000
G1 Z.2 F720
G1 E.8 F1500
M204 P600
;WIDTH:0.517147
G1 F1200
G1 X135.932 Y96.567 E.04768
G1 X135.932 Y97.238 E.02646
G1 X134.612 Y95.918 E.07361
G1 X133.941 Y95.917 E.02646
G1 X135.932 Y97.908 E.11103
G1 X135.932 Y98.579 E.02646
G1 X133.27 Y95.917 E.14845
G1 X132.598 Y95.916 E.0265
G1 X135.664 Y98.982 E.17098
G1 X134.993 Y98.982 E.02646
G1 X131.927 Y95.916 E.17098
G1 X131.256 Y95.916 E.02646
G1 X134.323 Y98.982 E.171
G1 X133.652 Y98.982 E.02646
G1 X130.585 Y95.915 E.17103
G1 X129.914 Y95.915 E.02646
G1 X132.981 Y98.982 E.17103
G1 X132.311 Y98.982 E.02642
G1 X129.243 Y95.914 E.17109
G1 X128.572 Y95.914 E.02646
G1 X131.64 Y98.982 E.17109
G1 X130.97 Y98.982 E.02642
G1 X127.901 Y95.914 E.17112
G1 X127.23 Y95.913 E.02646
G1 X130.299 Y98.982 E.17114
G1 X129.629 Y98.983 E.02642
G1 X126.559 Y95.913 E.1712
G1 X125.888 Y95.912 E.02646
G1 X128.958 Y98.983 E.17123
G1 X128.288 Y98.983 E.02642
G1 X125.217 Y95.912 E.17126
G1 X124.546 Y95.912 E.02646
G1 X127.617 Y98.983 E.17126
G1 X126.946 Y98.983 E.02646
G1 X123.875 Y95.911 E.17128
G1 X123.254 Y95.911 E.02449
G1 X123.283 Y95.99 E.00332
G1 X126.276 Y98.983 E.16691
G1 X125.605 Y98.983 E.02646
G1 X123.538 Y96.916 E.11527
G1 X123.574 Y97.21 E.01168
G1 X123.574 Y97.622 E.01625
G1 X124.935 Y98.983 E.0759
G1 X124.264 Y98.983 E.02646
G1 X123.498 Y98.217 E.04272
G1 X123.43 Y98.511 E.0119
G1 X123.346 Y98.735 E.00943
G1 X123.799 Y99.189 E.02529
M204 P1000
; stop printing object User Library-EQ-P6-INT-TPM.STL id:0 copy 0
; printing object User Library-EQ-P6-INT-TPM.STL id:0 copy 1
G1 E-.64 F2100
;WIPE_START
G1 F9600
G1 X123.346 Y98.735 E-.13328
G1 X123.391 Y98.615 E-.02672
;WIPE_END
G1 Z.4 F720
G1 X113.889 Y108.893 F12000
G1 Z.2 F720
G1 E.8 F1500
M204 P600
;TYPE:Support material interface
;WIDTH:0.37
G1 F1200
G1 X113.972 Y108.976 E.00319
G1 X114.718 Y108.976 E.02029
G1 X114.261 Y108.52 E.01756
G1 X114.518 Y108.263 E.00988
G1 X114.75 Y108.263 E.00631
G1 X115.463 Y108.976 E.02742
G1 X116.209 Y108.976 E.02029
G1 X115.496 Y108.263 E.02742
G1 X116.241 Y108.263 E.02026
G1 X116.954 Y108.976 E.02742
G1 X117.699 Y108.976 E.02026
G1 X116.986 Y108.263 E.02742
G1 X117.732 Y108.263 E.02029
G1 X118.445 Y108.976 E.02742
G1 X119.19 Y108.976 E.02026
G1 X118.477 Y108.263 E.02742
G1 X119.223 Y108.263 E.02029
G1 X119.936 Y108.976 E.02742
G1 X120.681 Y108.976 E.02026
G1 X119.968 Y108.263 E.02742
G1 X120.713 Y108.263 E.02026
G1 X121.426 Y108.976 E.02742
G1 X122.172 Y108.976 E.02029
G1 X121.459 Y108.263 E.02742
G1 X122.204 Y108.263 E.02026
G1 X122.917 Y108.976 E.02742
G1 X123.663 Y108.976 E.02029
