; generated by PrusaSlicer 2.6.0+win64 on 2023-08-06 at 17:44:28 UTC


;
;

;
;

;
;
; 

; external perimeters extrusion width = 0.45mm
; perimeters extrusion width = 0.45mm
; infill extrusion width = 0.45mm
; solid infill extrusion width = 0.45mm
; top infill extrusion width = 0.40mm
; support material extrusion width = 0.37mm
; first layer extrusion width = 0.50mm

M73 P0 R21
M201 X2500 Y2500 Z200 E2500 ; sets maximum accelerations, mm/sec^2
M203 X200 Y200 Z40 E100 ; sets maximum feedrates, mm / sec
M204 P2000 R1200 T2000 ; sets acceleration (P, T) and retract acceleration (R), mm/sec^2
M205 X8.00 Y8.00 Z2.00 E10.00 ; sets the jerk limits, mm/sec
M205 S0 T0 ; sets the minimum extruding and travel feed rate, mm/sec
;TYPE:Custom
M17 ; enable steppers
M862.3 P "MK4" ; printer model check
M862.1 P0.4 ; nozzle diameter check
M555 X120.001 Y84 W34.9976 H63

G90 ; use absolute coordinates
M83 ; extruder relative mode

M140 S60 ; set bed temp

M104 S170 ; set extruder temp for bed leveling
M109 R170 ; wait for temp


M84 E ; turn off E motor

G28 ; home all without mesh bed level

G1 X42 Y-4 Z5 F4800

M302 S160 ; lower cold extrusion limit to 160C


G1 E-2 F2400 ; retraction


M84 E ; turn off E motor

G29 P9 X10 Y-4 W32 H4

M106 S100

G0 Z40 F10000

M190 S60 ; wait for bed temp

M107

;
; MBL
;
M84 E ; turn off E motor
G29 P1 ; invalidate mbl & probe print area
G29 P1 X0 Y0 W50 H20 C ; probe near purge place
G29 P3.2 ; interpolate mbl probes
G29 P3.13 ; extrapolate mbl outside probe area
G29 A ; activate mbl

; prepare for purge
M104 S215
G0 X0 Y-4 Z15 F4800 ; move away and ready for the purge
M109 S215

G92 E0
M569 S0 E ; set spreadcycle mode for extruder

;
; Extrude purge line
;
G92 E0 ; reset extruder position
G1 E2 F2400 ; deretraction after the initial one before nozzle cleaning
G0 E7 X15 Z0.2 F500 ; purge
G0 X25 E4 F500 ; purge
G0 X35 E4 F650 ; purge
G0 X45 E4 F800 ; purge
G0 X48 Z0.05 F8000 ; wipe, move close to the bed
G0 X51 Z0.2 F8000 ; wipe, move quickly away from the bed

G92 E0
M221 S100 ; set flow to 100%
G21 ; set units to millimeters
G90 ; use absolute coordinates
M83 ; use relative distances for extrusion
M900 K0.05 ; Filament gcode



M142 S36 ; set heatbreak target temp
M107
;LAYER_CHANGE
;Z:0.2
;HEIGHT:0.2
;BEFORE_LAYER_CHANGE
G92 E0.0
;0.2


G1 E-.8 F2100
G1 Z.2 F720
;AFTER_LAYER_CHANGE
;0.2
; printing object accroche pcb.STL id:0 copy 0
G1 Z.4
G1 X123.5 Y118.439 F12000
G1 Z.2 F720
G1 E.8 F1500
M204 P600
;TYPE:Perimeter
;WIDTH:0.499999
G1 F1200
G1 X123.636 Y118.644 E.00935
G1 X123.805 Y118.707 E.00685
G1 X124.441 Y118.845 E.02473
G1 X125.055 Y118.886 E.02339
G1 X125.655 Y118.83 E.0229
G1 X126.364 Y118.644 E.02786
G1 X126.5 Y118.439 E.00935
G1 X126.636 Y118.644 E.00935
G1 X126.804 Y118.707 E.00682
G1 X127.429 Y118.844 E.02432
G1 X127.992 Y118.897 E.02149
G1 X128.924 Y118.906 E.03542
G1 X129.066 Y118.952 E.00567
G1 X129.014 Y119.014 E.00308
G1 X126.779 Y120.985 E.11326
G1 X126.565 Y121.093 E.00911
G1 X123.506 Y121.093 E.11626
G1 X123.274 Y121.032 E.00912
G1 X121.722 Y119.664 E.07863
G1 X120.934 Y118.952 E.04036
G1 X121.076 Y118.906 E.00567
G1 X122.069 Y118.894 E.03774
G1 X122.656 Y118.83 E.02244
G1 X123.364 Y118.644 E.02782
G1 X123.467 Y118.489 E.00707
M204 P1000
G1 E-.64 F2100
;WIPE_START
G1 F9600
G1 X123.636 Y118.644 E-.04765
G1 X123.805 Y118.707 E-.03748
G1 X124.157 Y118.783 E-.07487
;WIPE_END
G1 Z.4 F720
G1 X123.272 Y95.583 F12000
G1 Z.2 F720
G1 E.8 F1500
M204 P600
;TYPE:External perimeter
;WIDTH:0.50095
G1 F1200
G1 X123.272 Y89.042 E.24912
G1 X123.298 Y88.843 E.00764
;WIDTH:0.490324
G1 X123.421 Y88.565 E.01131
;WIDTH:0.490062
G1 X123.635 Y88.368 E.01081
;WIDTH:0.50096
G1 X124.012 Y88.272 E.01482
G1 X125.958 Y88.272 E.07412
G1 X126.157 Y88.298 E.00764
;WIDTH:0.490327
G1 X126.469 Y88.44 E.01275
;WIDTH:0.490043
G1 X126.646 Y88.672 E.01085
;WIDTH:0.50095
G1 X126.728 Y89.022 E.01369
G1 X126.729 Y118.039 E1.10512
;WIDTH:0.499999
G1 X126.85 Y118.241 E.00895
G1 X127.474 Y118.389 E.02437
G1 X127.997 Y118.44 E.01997
G1 X128.97 Y118.45 E.03698
G1 X129.256 Y118.526 E.01125
G1 X129.464 Y118.712 E.01061
G1 X129.532 Y118.95 E.00941
G1 X129.506 Y119.089 E.00537
G1 X129.344 Y119.333 E.01113
G1 X127.082 Y121.328 E.11463
G1 X126.769 Y121.525 E.01406
G1 X126.598 Y121.55 E.00657
G1 X123.506 Y121.55 E.11752
G1 X123.141 Y121.492 E.01405
G1 X122.996 Y121.396 E.00661
M73 P1 R21
G1 X120.687 Y119.36 E.117
G1 X120.502 Y119.111 E.01179
G1 X120.469 Y118.878 E.00894
G1 X120.587 Y118.655 E.00959
G1 X120.819 Y118.485 E.01093
G1 X121.072 Y118.449 E.00971
G1 X122.024 Y118.439 E.03618
G1 X122.554 Y118.385 E.02025
G1 X123.15 Y118.241 E.0233
G1 X123.271 Y118.039 E.00895
;WIDTH:0.50095
G1 X123.272 Y95.643 E.85296
M204 P1000
G1 E-.64 F2100
;WIPE_START
G1 F9600
G1 X123.272 Y94.873 E-.16
;WIPE_END
G1 Z.4 F720
G1 X123.729 Y102.041 F12000
G1 Z.2 F720
G1 E.8 F1500
M204 P600
G1 F1200
G1 X123.73 Y89.042 E.49507
G1 X123.767 Y88.848 E.00752
;WIDTH:0.487847
G1 X123.883 Y88.75 E.00562
;WIDTH:0.500976
G1 X124.022 Y88.73 E.00535
G1 X125.958 Y88.73 E.07374
G1 X126.152 Y88.767 E.00752
;WIDTH:0.487824
G1 X126.25 Y88.883 E.00562
;WIDTH:0.50095
G1 X126.27 Y89.022 E.00535
G1 X126.271 Y118.039 E1.10512
;WIDTH:0.499999
G1 X126.15 Y118.241 E.00895
G1 X125.554 Y118.384 E.02329
G1 X125.018 Y118.43 E.02045
G1 X124.478 Y118.389 E.02058
G1 X123.906 Y118.261 E.02228
G1 X123.85 Y118.241 E.00226
G1 X123.729 Y118.039 E.00895
;WIDTH:0.50095
G1 X123.729 Y102.101 E.607
M204 P1000
G1 E-.64 F2100
;WIPE_START
G1 F9600
G1 X123.729 Y101.331 E-.16
;WIPE_END
G1 Z.4 F720
G1 X128.11 Y119.538 F12000
G1 Z.2 F720
G1 E.8 F1500
M204 P600
;TYPE:Solid infill
;WIDTH:0.512902
G1 F1200
G1 X127.87 Y119.298 E.01326
G1 X127.378 Y119.253 E.01931
G1 X127.099 Y119.192 E.01116
G1 X127.611 Y119.703 E.02827
G1 X127.258 Y120.015 E.01841
G1 X126.337 Y119.095 E.05087
G1 X125.797 Y119.219 E.02165
G1 X126.904 Y120.326 E.06118
G1 X126.551 Y120.638 E.01841
G1 X125.197 Y119.284 E.07483
G1 X125.001 Y119.3 E.00768
G1 X124.511 Y119.263 E.0192
G1 X125.93 Y120.682 E.07842
G1 X125.265 Y120.682 E.02599
G1 X123.685 Y119.101 E.08735
G1 X123.5 Y119.031 E.00773
G1 X123.33 Y119.098 E.00714
G1 X123.073 Y119.154 E.01028
G1 X124.601 Y120.682 E.08445
G1 X123.936 Y120.682 E.02599
G1 X122.328 Y119.073 E.0889
M204 P1000
; stop printing object accroche pcb.STL id:0 copy 0
; printing object accroche pcb.STL id:0 copy 1
G1 E-.64 F2100
;WIPE_START
G1 F9600
G1 X122.872 Y119.618 E-.16
;WIPE_END
G1 Z.4 F720
G1 X136 Y130.939 F12000
G1 Z.2 F720
G1 E.8 F1500
M204 P600
;TYPE:Perimeter
;WIDTH:0.499999
G1 F1200
G1 X136.136 Y131.144 E.00935
G1 X136.305 Y131.207 E.00685
G1 X136.941 Y131.345 E.02473
G1 X137.555 Y131.386 E.02339
G1 X138.155 Y131.33 E.0229
G1 X138.864 Y131.144 E.02786
G1 X139 Y130.939 E.00935
G1 X139.136 Y131.144 E.00935
G1 X139.304 Y131.207 E.00682
G1 X139.929 Y131.344 E.02432
G1 X140.492 Y131.397 E.02149
G1 X141.424 Y131.406 E.03542
G1 X141.566 Y131.452 E.00567
G1 X141.514 Y131.514 E.00308
G1 X139.279 Y133.485 E.11326
G1 X139.065 Y133.593 E.00911
G1 X136.006 Y133.593 E.11626
G1 X135.774 Y133.532 E.00912
G1 X134.222 Y132.164 E.07863
G1 X133.434 Y131.452 E.04036
G1 X133.576 Y131.406 E.00567
G1 X134.569 Y131.394 E.03774
G1 X135.156 Y131.33 E.02244
G1 X135.864 Y131.144 E.02782
G1 X135.967 Y130.989 E.00707
M204 P1000
G1 E-.64 F2100
;WIPE_START
G1 F9600
G1 X136.136 Y131.144 E-.04765
G1 X136.305 Y131.207 E-.03748
G1 X136.657 Y131.283 E-.07487
;WIPE_END
G1 Z.4 F720
G1 X135.772 Y108.083 F12000
G1 Z.2 F720
G1 E.8 F1500
M204 P600
;TYPE:External perimeter
;WIDTH:0.50095
G1 F1200
G1 X135.772 Y101.542 E.24912
G1 X135.798 Y101.343 E.00764
;WIDTH:0.490324
G1 X135.921 Y101.065 E.01131
;WIDTH:0.490062
G1 X136.135 Y100.868 E.01081
;WIDTH:0.50096
G1 X136.512 Y100.772 E.01482
G1 X138.458 Y100.772 E.07412
G1 X138.657 Y100.798 E.00764
;WIDTH:0.490327
G1 X138.969 Y100.94 E.01275
;WIDTH:0.490043
G1 X139.146 Y101.172 E.01085
;WIDTH:0.50095
G1 X139.228 Y101.522 E.01369
G1 X139.229 Y130.539 E1.10512
;WIDTH:0.499999
G1 X139.35 Y130.741 E.00895
G1 X139.974 Y130.889 E.02437
G1 X140.497 Y130.94 E.01997
G1 X141.47 Y130.95 E.03698
G1 X141.756 Y131.026 E.01125
G1 X141.964 Y131.212 E.01061
G1 X142.032 Y131.45 E.00941
G1 X142.006 Y131.589 E.00537
G1 X141.844 Y131.833 E.01113
G1 X139.582 Y133.828 E.11463
G1 X139.269 Y134.025 E.01406
G1 X139.098 Y134.05 E.00657
G1 X136.006 Y134.05 E.11752
G1 X135.641 Y133.992 E.01405
G1 X135.496 Y133.896 E.00661
G1 X133.187 Y131.86 E.117
G1 X133.002 Y131.611 E.01179
G1 X132.969 Y131.378 E.00894
G1 X133.087 Y131.155 E.00959
G1 X133.319 Y130.985 E.01093
G1 X133.572 Y130.949 E.00971
G1 X134.524 Y130.939 E.03618
G1 X135.054 Y130.885 E.02025
G1 X135.65 Y130.741 E.0233
G1 X135.771 Y130.539 E.00895
;WIDTH:0.50095
G1 X135.772 Y108.143 E.85296
M204 P1000
G1 E-.64 F2100
;WIPE_START
G1 F9600
G1 X135.772 Y107.373 E-.16
;WIPE_END
G1 Z.4 F720
G1 X136.229 Y114.541 F12000
G1 Z.2 F720
G1 E.8 F1500
M204 P600
G1 F1200
G1 X136.23 Y101.542 E.49507
G1 X136.267 Y101.348 E.00752
;WIDTH:0.487847
G1 X136.383 Y101.25 E.00562
;WIDTH:0.500976
G1 X136.522 Y101.23 E.00535
G1 X138.458 Y101.23 E.07374
G1 X138.652 Y101.267 E.00752
;WIDTH:0.487824
G1 X138.75 Y101.383 E.00562
;WIDTH:0.50095
G1 X138.77 Y101.522 E.00535
G1 X138.771 Y130.539 E1.10512
;WIDTH:0.499999
G1 X138.65 Y130.741 E.00895
M73 P2 R21
G1 X138.054 Y130.884 E.02329
G1 X137.518 Y130.93 E.02045
G1 X136.978 Y130.889 E.02058
G1 X136.406 Y130.761 E.02228
G1 X136.35 Y130.741 E.00226
G1 X136.229 Y130.539 E.00895
;WIDTH:0.50095
G1 X136.229 Y114.601 E.607
M204 P1000
G1 E-.64 F2100
;WIPE_START
G1 F9600
G1 X136.229 Y113.831 E-.16
;WIPE_END
G1 Z.4 F720
G1 X140.61 Y132.038 F12000
G1 Z.2 F720
G1 E.8 F1500
M204 P600
;TYPE:Solid infill
;WIDTH:0.512902
G1 F1200
G1 X140.37 Y131.798 E.01326
G1 X139.878 Y131.753 E.01931
G1 X139.599 Y131.692 E.01116
G1 X140.111 Y132.203 E.02827
G1 X139.758 Y132.515 E.01841
G1 X138.837 Y131.595 E.05087
G1 X138.297 Y131.719 E.02165
G1 X139.404 Y132.826 E.06118
G1 X139.051 Y133.138 E.01841
G1 X137.697 Y131.784 E.07483
G1 X137.501 Y131.8 E.00768
G1 X137.011 Y131.763 E.0192
G1 X138.43 Y133.182 E.07842
G1 X137.765 Y133.182 E.02599
G1 X136.185 Y131.601 E.08735
G1 X136 Y131.531 E.00773
G1 X135.83 Y131.598 E.00714
G1 X135.573 Y131.654 E.01028
G1 X137.101 Y133.182 E.08445
G1 X136.436 Y133.182 E.02599
G1 X134.828 Y131.573 E.0889
M204 P1000
; stop printing object accroche pcb.STL id:0 copy 1
; printing object accroche pcb.STL id:0 copy 2
G1 E-.64 F2100
;WIPE_START
G1 F9600
G1 X135.372 Y132.118 E-.16
;WIPE_END
G1 Z.4 F720
G1 X148.5 Y143.439 F12000
G1 Z.2 F720
G1 E.8 F1500
M204 P600
;TYPE:Perimeter
;WIDTH:0.499999
G1 F1200
G1 X148.636 Y143.644 E.00935
G1 X148.805 Y143.707 E.00685
G1 X149.441 Y143.845 E.02473
G1 X150.055 Y143.886 E.02339
G1 X150.655 Y143.83 E.0229
G1 X151.364 Y143.644 E.02786
G1 X151.5 Y143.439 E.00935
G1 X151.636 Y143.644 E.00935
G1 X151.804 Y143.707 E.00682
G1 X152.429 Y143.844 E.02432
G1 X152.992 Y143.897 E.02149
G1 X153.924 Y143.906 E.03542
G1 X154.066 Y143.952 E.00567
G1 X154.014 Y144.014 E.00308
G1 X151.779 Y145.985 E.11326
G1 X151.565 Y146.093 E.00911
G1 X148.506 Y146.093 E.11626
G1 X148.274 Y146.032 E.00912
G1 X146.722 Y144.664 E.07863
G1 X145.934 Y143.952 E.04036
G1 X146.076 Y143.906 E.00567
G1 X147.069 Y143.894 E.03774
G1 X147.656 Y143.83 E.02244
G1 X148.364 Y143.644 E.02782
G1 X148.467 Y143.489 E.00707
M204 P1000
G1 E-.64 F2100
;WIPE_START
G1 F9600
G1 X148.636 Y143.644 E-.04765
G1 X148.805 Y143.707 E-.03748
G1 X149.157 Y143.783 E-.07487
;WIPE_END
G1 Z.4 F720
G1 X148.272 Y120.583 F12000
G1 Z.2 F720
G1 E.8 F1500
M204 P600
;TYPE:External perimeter
;WIDTH:0.50095
G1 F1200
G1 X148.272 Y114.042 E.24912
G1 X148.298 Y113.843 E.00764
;WIDTH:0.490324
G1 X148.421 Y113.565 E.01131
;WIDTH:0.490062
G1 X148.635 Y113.368 E.01081
;WIDTH:0.50096
G1 X149.012 Y113.272 E.01482
G1 X150.958 Y113.272 E.07412
G1 X151.157 Y113.298 E.00764
;WIDTH:0.490327
G1 X151.469 Y113.44 E.01275
;WIDTH:0.490043
G1 X151.646 Y113.672 E.01085
;WIDTH:0.50095
G1 X151.728 Y114.022 E.01369
G1 X151.729 Y143.039 E1.10512
;WIDTH:0.499999
G1 X151.85 Y143.241 E.00895
G1 X152.474 Y143.389 E.02437
G1 X152.997 Y143.44 E.01997
G1 X153.97 Y143.45 E.03698
G1 X154.256 Y143.526 E.01125
G1 X154.464 Y143.712 E.01061
G1 X154.532 Y143.95 E.00941
G1 X154.506 Y144.089 E.00537
G1 X154.344 Y144.333 E.01113
G1 X152.082 Y146.328 E.11463
G1 X151.769 Y146.525 E.01406
G1 X151.598 Y146.55 E.00657
G1 X148.506 Y146.55 E.11752
G1 X148.141 Y146.492 E.01405
G1 X147.996 Y146.396 E.00661
G1 X145.687 Y144.36 E.117
G1 X145.502 Y144.111 E.01179
G1 X145.469 Y143.878 E.00894
G1 X145.587 Y143.655 E.00959
G1 X145.819 Y143.485 E.01093
G1 X146.072 Y143.449 E.00971
G1 X147.024 Y143.439 E.03618
G1 X147.554 Y143.385 E.02025
G1 X148.15 Y143.241 E.0233
G1 X148.271 Y143.039 E.00895
;WIDTH:0.50095
G1 X148.272 Y120.643 E.85296
M204 P1000
G1 E-.64 F2100
;WIPE_START
G1 F9600
G1 X148.272 Y119.873 E-.16
;WIPE_END
G1 Z.4 F720
G1 X148.729 Y127.041 F12000
G1 Z.2 F720
G1 E.8 F1500
M204 P600
G1 F1200
G1 X148.73 Y114.042 E.49507
G1 X148.767 Y113.848 E.00752
;WIDTH:0.487847
G1 X148.883 Y113.75 E.00562
;WIDTH:0.500976
G1 X149.022 Y113.73 E.00535
G1 X150.958 Y113.73 E.07374
G1 X151.152 Y113.767 E.00752
;WIDTH:0.487824
G1 X151.25 Y113.883 E.00562
;WIDTH:0.50095
G1 X151.27 Y114.022 E.00535
G1 X151.271 Y143.039 E1.10512
;WIDTH:0.499999
G1 X151.15 Y143.241 E.00895
G1 X150.554 Y143.384 E.02329
G1 X150.018 Y143.43 E.02045
G1 X149.478 Y143.389 E.02058
G1 X148.906 Y143.261 E.02228
G1 X148.85 Y143.241 E.00226
G1 X148.729 Y143.039 E.00895
;WIDTH:0.50095
G1 X148.729 Y127.101 E.607
M204 P1000
G1 E-.64 F2100
;WIPE_START
G1 F9600
G1 X148.729 Y126.331 E-.16
;WIPE_END
G1 Z.4 F720
G1 X153.11 Y144.538 F12000
G1 Z.2 F720
G1 E.8 F1500
M204 P600
;TYPE:Solid infill
;WIDTH:0.512902
G1 F1200
G1 X152.87 Y144.298 E.01326
M73 P3 R21
G1 X152.378 Y144.253 E.01931
G1 X152.099 Y144.192 E.01116
G1 X152.611 Y144.703 E.02827
G1 X152.258 Y145.015 E.01841
G1 X151.337 Y144.095 E.05087
G1 X150.797 Y144.219 E.02165
G1 X151.904 Y145.326 E.06118
G1 X151.551 Y145.638 E.01841
G1 X150.197 Y144.284 E.07483
G1 X150.001 Y144.3 E.00768
G1 X149.511 Y144.263 E.0192
G1 X150.93 Y145.682 E.07842
G1 X150.265 Y145.682 E.02599
G1 X148.685 Y144.101 E.08735
G1 X148.5 Y144.031 E.00773
G1 X148.33 Y144.098 E.00714
G1 X148.073 Y144.154 E.01028
G1 X149.601 Y145.682 E.08445
G1 X148.936 Y145.682 E.02599
G1 X147.328 Y144.073 E.0889
M204 P1000
; stop printing object accroche pcb.STL id:0 copy 2
M106 S127.5
;LAYER_CHANGE
;Z:0.4
;HEIGHT:0.2
;BEFORE_LAYER_CHANGE
G92 E0.0
;0.4


G1 E-.64 F2100
;WIPE_START
G1 F9600
G1 X147.872 Y144.618 E-.16
;WIPE_END
G1 Z.4 F720
;AFTER_LAYER_CHANGE
;0.4
M104 S210 ; set temperature
; printing object accroche pcb.STL id:0 copy 0
G1 Z.6
G1 X128.236 Y118.632 F12000
G1 Z.4 F720
G1 E.8 F1500
M204 P900
;TYPE:Perimeter
;WIDTH:0.449999
G1 X128.917 Y118.632 E.02305
G1 X129.119 Y118.661 E.00691
G1 X129.275 Y118.777 E.00658
G1 X129.346 Y118.952 E.00639
G1 X129.346 Y118.993 E.00139
G1 X129.206 Y119.212 E.0088
G1 X127.358 Y120.841 E.08339
G1 X126.833 Y121.29 E.02338
G1 X126.599 Y121.368 E.00835
G1 X123.979 Y121.368 E.08868
G1 X123.344 Y121.356 E.0215
G1 X123.117 Y121.261 E.00833
G1 X120.846 Y119.258 E.1025
G1 X120.689 Y119.084 E.00793
G1 X120.655 Y118.91 E.006
G1 X120.775 Y118.72 E.00761
G1 X121.053 Y118.632 E.00987
G1 X123.021 Y118.632 E.06661
G1 X123.302 Y118.564 E.00979
G1 X123.5 Y118.268 E.01205
G1 X123.698 Y118.564 E.01205
G1 X123.979 Y118.632 E.00979
G1 X126.021 Y118.632 E.06912
G1 X126.302 Y118.564 E.00979
G1 X126.5 Y118.268 E.01205
G1 X126.698 Y118.564 E.01205
G1 X126.979 Y118.632 E.00979
G1 X128.176 Y118.632 E.04052
M204 P1000
G1 X128.236 Y118.225 F12000
M204 P700
;TYPE:External perimeter
G1 F1500
G1 X128.917 Y118.225 E.02305
G1 X129.088 Y118.243 E.00582
G1 X129.363 Y118.331 E.00977
G1 X129.563 Y118.488 E.00861
G1 X129.699 Y118.699 E.0085
G1 X129.753 Y118.95 E.00869
G1 X129.706 Y119.192 E.00834
G1 X129.5 Y119.495 E.0124
G1 X127.42 Y121.33 E.09389
G1 X126.947 Y121.701 E.02035
G1 X126.614 Y121.775 E.01155
G1 X123.758 Y121.775 E.09667
G1 X123.158 Y121.741 E.02034
G1 X122.859 Y121.576 E.01156
