; generated by PrusaSlicer 2.6.0+win64 on 2023-08-06 at 18:44:04 UTC


;
;

;
;

;
;
; 

; external perimeters extrusion width = 0.45mm
; perimeters extrusion width = 0.45mm
; infill extrusion width = 0.45mm
; solid infill extrusion width = 0.45mm
; top infill extrusion width = 0.40mm
; support material extrusion width = 0.37mm
; first layer extrusion width = 0.50mm

M73 P0 R22
M201 X2500 Y2500 Z200 E2500 ; sets maximum accelerations, mm/sec^2
M203 X200 Y200 Z40 E100 ; sets maximum feedrates, mm / sec
M204 P2000 R1200 T2000 ; sets acceleration (P, T) and retract acceleration (R), mm/sec^2
M205 X8.00 Y8.00 Z2.00 E10.00 ; sets the jerk limits, mm/sec
M205 S0 T0 ; sets the minimum extruding and travel feed rate, mm/sec
;TYPE:Custom
M17 ; enable steppers
M862.3 P "MK4" ; printer model check
M862.1 P0.4 ; nozzle diameter check
M555 X120.001 Y83 W34.9976 H65

G90 ; use absolute coordinates
M83 ; extruder relative mode

M140 S60 ; set bed temp

M104 S170 ; set extruder temp for bed leveling
M109 R170 ; wait for temp


M84 E ; turn off E motor

G28 ; home all without mesh bed level

G1 X42 Y-4 Z5 F4800

M302 S160 ; lower cold extrusion limit to 160C


G1 E-2 F2400 ; retraction


M84 E ; turn off E motor

G29 P9 X10 Y-4 W32 H4

M106 S100

G0 Z40 F10000

M190 S60 ; wait for bed temp

M107

;
; MBL
;
M84 E ; turn off E motor
G29 P1 ; invalidate mbl & probe print area
G29 P1 X0 Y0 W50 H20 C ; probe near purge place
G29 P3.2 ; interpolate mbl probes
G29 P3.13 ; extrapolate mbl outside probe area
G29 A ; activate mbl

; prepare for purge
M104 S215
G0 X0 Y-4 Z15 F4800 ; move away and ready for the purge
M109 S215

G92 E0
M569 S0 E ; set spreadcycle mode for extruder

;
; Extrude purge line
;
G92 E0 ; reset extruder position
G1 E2 F2400 ; deretraction after the initial one before nozzle cleaning
G0 E7 X15 Z0.2 F500 ; purge
G0 X25 E4 F500 ; purge
G0 X35 E4 F650 ; purge
G0 X45 E4 F800 ; purge
G0 X48 Z0.05 F8000 ; wipe, move close to the bed
G0 X51 Z0.2 F8000 ; wipe, move quickly away from the bed

G92 E0
M221 S100 ; set flow to 100%
G21 ; set units to millimeters
G90 ; use absolute coordinates
M83 ; use relative distances for extrusion
M900 K0.05 ; Filament gcode



M142 S36 ; set heatbreak target temp
M107
;LAYER_CHANGE
;Z:0.2
;HEIGHT:0.2
;BEFORE_LAYER_CHANGE
G92 E0.0
;0.2


G1 E-.8 F2100
G1 Z.2 F720
;AFTER_LAYER_CHANGE
;0.2
; printing object accroche pcb.STL id:0 copy 0
G1 Z.4
G1 X123.262 Y119.672 F12000
G1 Z.2 F720
G1 E.8 F1500
M204 P600
;TYPE:Perimeter
;WIDTH:0.499999
G1 F1200
G1 X123.381 Y119.634 E.00475
G1 X123.5 Y119.45 E.00833
G1 X123.618 Y119.634 E.00831
G1 X123.805 Y119.707 E.00763
G1 X124.441 Y119.845 E.02473
G1 X125.055 Y119.886 E.02339
G1 X125.655 Y119.83 E.0229
G1 X126.364 Y119.644 E.02786
G1 X126.5 Y119.439 E.00935
G1 X126.636 Y119.644 E.00935
G1 X126.804 Y119.707 E.00682
G1 X127.429 Y119.844 E.02432
G1 X127.992 Y119.897 E.02149
G1 X128.924 Y119.906 E.03542
G1 X129.066 Y119.952 E.00567
G1 X129.014 Y120.014 E.00308
G1 X126.779 Y121.985 E.11326
G1 X126.565 Y122.093 E.00911
G1 X123.506 Y122.093 E.11626
G1 X123.274 Y122.032 E.00912
G1 X121.023 Y120.047 E.11406
G1 X120.934 Y119.952 E.00495
G1 X121.069 Y119.907 E.00541
G1 X122.286 Y119.892 E.04626
G1 X122.791 Y119.822 E.01938
G1 X123.205 Y119.69 E.01652
M204 P1000
G1 X123.271 Y118.672 F12000
M204 P600
;TYPE:External perimeter
;WIDTH:0.50095
G1 F1200
G1 X123.272 Y88.042 E1.16655
G1 X123.298 Y87.843 E.00764
;WIDTH:0.490324
G1 X123.421 Y87.565 E.01131
;WIDTH:0.490063
G1 X123.635 Y87.368 E.01081
;WIDTH:0.50096
G1 X124.012 Y87.272 E.01482
G1 X125.958 Y87.272 E.07412
G1 X126.157 Y87.298 E.00764
;WIDTH:0.490327
G1 X126.469 Y87.44 E.01275
;WIDTH:0.490043
G1 X126.646 Y87.672 E.01085
;WIDTH:0.50095
G1 X126.728 Y88.022 E.01369
G1 X126.729 Y119.039 E1.18129
;WIDTH:0.499999
G1 X126.85 Y119.241 E.00895
G1 X127.474 Y119.389 E.02437
G1 X127.997 Y119.44 E.01997
G1 X128.97 Y119.45 E.03698
G1 X129.256 Y119.526 E.01125
G1 X129.464 Y119.712 E.01061
G1 X129.532 Y119.95 E.00941
G1 X129.506 Y120.089 E.00537
G1 X129.344 Y120.333 E.01113
M73 P1 R22
G1 X127.082 Y122.328 E.11463
G1 X126.769 Y122.525 E.01406
G1 X126.598 Y122.55 E.00657
G1 X123.506 Y122.55 E.11752
G1 X123.141 Y122.492 E.01405
G1 X122.996 Y122.396 E.00661
G1 X120.721 Y120.39 E.11528
G1 X120.528 Y120.178 E.0109
G1 X120.468 Y119.95 E.00896
G1 X120.536 Y119.712 E.00941
G1 X120.73 Y119.535 E.00998
G1 X121.029 Y119.45 E.01181
G1 X122.203 Y119.44 E.04462
G1 X122.667 Y119.382 E.01777
G1 X123.156 Y119.237 E.01938
G1 X123.271 Y119.038 E.00874
;WIDTH:0.50095
G1 X123.271 Y118.732 E.01165
M204 P1000
G1 E-.64 F2100
;WIPE_START
G1 F9600
G1 X123.271 Y117.962 E-.16
;WIPE_END
G1 Z.4 F720
G1 X123.729 Y102.567 F12000
G1 Z.2 F720
G1 E.8 F1500
M204 P600
G1 F1200
G1 X123.73 Y88.042 E.55319
G1 X123.749 Y87.882 E.00614
;WIDTH:0.490063
G1 X123.854 Y87.762 E.00593
;WIDTH:0.500985
G1 X124.022 Y87.73 E.00651
G1 X125.958 Y87.73 E.07374
G1 X126.152 Y87.767 E.00752
;WIDTH:0.487825
G1 X126.25 Y87.883 E.00562
;WIDTH:0.50095
G1 X126.27 Y88.022 E.00535
G1 X126.271 Y119.039 E1.18129
;WIDTH:0.499999
G1 X126.15 Y119.241 E.00895
G1 X125.554 Y119.384 E.02329
G1 X125.018 Y119.43 E.02045
G1 X124.478 Y119.389 E.02058
G1 X123.906 Y119.261 E.02228
G1 X123.844 Y119.237 E.00253
G1 X123.729 Y119.038 E.00874
;WIDTH:0.50095
G1 X123.729 Y102.627 E.62502
M204 P1000
G1 E-.64 F2100
;WIPE_START
G1 F9600
G1 X123.729 Y101.857 E-.16
;WIPE_END
G1 Z.4 F720
G1 X128.11 Y120.538 F12000
G1 Z.2 F720
G1 E.8 F1500
M204 P600
;TYPE:Solid infill
;WIDTH:0.512898
G1 F1200
G1 X127.87 Y120.298 E.01326
G1 X127.378 Y120.253 E.01931
G1 X127.099 Y120.192 E.01116
G1 X127.611 Y120.703 E.02827
G1 X127.258 Y121.015 E.01841
G1 X126.338 Y120.095 E.05084
G1 X125.797 Y120.219 E.02169
G1 X126.904 Y121.326 E.06118
G1 X126.551 Y121.638 E.01841
G1 X125.197 Y120.284 E.07483
G1 X125.001 Y120.3 E.00768
G1 X124.511 Y120.263 E.0192
G1 X125.93 Y121.682 E.07842
G1 X125.266 Y121.682 E.02595
G1 X123.684 Y120.1 E.08743
G1 X123.499 Y120.025 E.0078
G1 X123.355 Y120.09 E.00617
G1 X123.085 Y120.166 E.01096
G1 X124.601 Y121.682 E.08378
G1 X123.936 Y121.682 E.02599
G1 X122.343 Y120.088 E.08807
M204 P1000
; stop printing object accroche pcb.STL id:0 copy 0
; printing object accroche pcb.STL id:0 copy 1
G1 E-.64 F2100
;WIPE_START
G1 F9600
G1 X122.887 Y120.633 E-.16
;WIPE_END
G1 Z.4 F720
G1 X135.762 Y132.172 F12000
G1 Z.2 F720
G1 E.8 F1500
M204 P600
;TYPE:Perimeter
;WIDTH:0.499999
G1 F1200
G1 X135.881 Y132.134 E.00475
G1 X136 Y131.95 E.00833
G1 X136.118 Y132.134 E.00831
G1 X136.305 Y132.207 E.00763
G1 X136.941 Y132.345 E.02473
G1 X137.555 Y132.386 E.02339
G1 X138.155 Y132.33 E.0229
G1 X138.864 Y132.144 E.02786
G1 X139 Y131.939 E.00935
G1 X139.136 Y132.144 E.00935
G1 X139.304 Y132.207 E.00682
G1 X139.929 Y132.344 E.02432
G1 X140.492 Y132.397 E.02149
G1 X141.424 Y132.406 E.03542
G1 X141.566 Y132.452 E.00567
G1 X141.514 Y132.514 E.00308
G1 X139.279 Y134.485 E.11326
G1 X139.065 Y134.593 E.00911
G1 X136.006 Y134.593 E.11626
G1 X135.774 Y134.532 E.00912
G1 X133.523 Y132.547 E.11406
G1 X133.434 Y132.452 E.00495
G1 X133.569 Y132.407 E.00541
G1 X134.786 Y132.392 E.04626
G1 X135.291 Y132.322 E.01938
G1 X135.705 Y132.19 E.01652
M204 P1000
G1 X135.771 Y131.172 F12000
M204 P600
;TYPE:External perimeter
;WIDTH:0.50095
G1 F1200
G1 X135.772 Y100.542 E1.16655
G1 X135.798 Y100.343 E.00764
;WIDTH:0.490324
G1 X135.921 Y100.065 E.01131
;WIDTH:0.490063
G1 X136.135 Y99.868 E.01081
;WIDTH:0.50096
G1 X136.512 Y99.772 E.01482
G1 X138.458 Y99.772 E.07412
G1 X138.657 Y99.798 E.00764
;WIDTH:0.490327
G1 X138.969 Y99.94 E.01275
;WIDTH:0.490043
G1 X139.146 Y100.172 E.01085
;WIDTH:0.50095
G1 X139.228 Y100.522 E.01369
G1 X139.229 Y131.539 E1.18129
;WIDTH:0.499999
G1 X139.35 Y131.741 E.00895
G1 X139.974 Y131.889 E.02437
G1 X140.497 Y131.94 E.01997
G1 X141.47 Y131.95 E.03698
G1 X141.756 Y132.026 E.01125
G1 X141.964 Y132.212 E.01061
G1 X142.032 Y132.45 E.00941
G1 X142.006 Y132.589 E.00537
G1 X141.844 Y132.833 E.01113
G1 X139.582 Y134.828 E.11463
G1 X139.269 Y135.025 E.01406
G1 X139.098 Y135.05 E.00657
G1 X136.006 Y135.05 E.11752
G1 X135.641 Y134.992 E.01405
G1 X135.496 Y134.896 E.00661
G1 X133.221 Y132.89 E.11528
G1 X133.028 Y132.678 E.0109
G1 X132.968 Y132.45 E.00896
G1 X133.036 Y132.212 E.00941
G1 X133.23 Y132.035 E.00998
G1 X133.529 Y131.95 E.01181
G1 X134.703 Y131.94 E.04462
G1 X135.167 Y131.882 E.01777
G1 X135.656 Y131.737 E.01938
G1 X135.771 Y131.538 E.00874
;WIDTH:0.50095
G1 X135.771 Y131.232 E.01165
M204 P1000
G1 E-.64 F2100
;WIPE_START
G1 F9600
G1 X135.771 Y130.462 E-.16
;WIPE_END
G1 Z.4 F720
G1 X136.229 Y115.067 F12000
G1 Z.2 F720
G1 E.8 F1500
M204 P600
G1 F1200
G1 X136.23 Y100.542 E.55319
G1 X136.249 Y100.382 E.00614
;WIDTH:0.490063
G1 X136.354 Y100.262 E.00593
;WIDTH:0.500985
G1 X136.522 Y100.23 E.00651
G1 X138.458 Y100.23 E.07374
G1 X138.652 Y100.267 E.00752
;WIDTH:0.487825
G1 X138.75 Y100.383 E.00562
;WIDTH:0.50095
G1 X138.77 Y100.522 E.00535
G1 X138.771 Y131.539 E1.18129
;WIDTH:0.499999
G1 X138.65 Y131.741 E.00895
G1 X138.054 Y131.884 E.02329
G1 X137.518 Y131.93 E.02045
G1 X136.978 Y131.889 E.02058
G1 X136.406 Y131.761 E.02228
G1 X136.344 Y131.737 E.00253
G1 X136.229 Y131.538 E.00874
;WIDTH:0.50095
G1 X136.229 Y115.127 E.62502
M204 P1000
G1 E-.64 F2100
;WIPE_START
M73 P2 R22
G1 F9600
G1 X136.229 Y114.357 E-.16
;WIPE_END
G1 Z.4 F720
G1 X140.61 Y133.038 F12000
G1 Z.2 F720
G1 E.8 F1500
M204 P600
;TYPE:Solid infill
;WIDTH:0.512898
G1 F1200
G1 X140.37 Y132.798 E.01326
G1 X139.878 Y132.753 E.01931
G1 X139.599 Y132.692 E.01116
G1 X140.111 Y133.203 E.02827
G1 X139.758 Y133.515 E.01841
G1 X138.838 Y132.595 E.05084
G1 X138.297 Y132.719 E.02169
G1 X139.404 Y133.826 E.06118
G1 X139.051 Y134.138 E.01841
G1 X137.697 Y132.784 E.07483
G1 X137.501 Y132.8 E.00768
G1 X137.011 Y132.763 E.0192
G1 X138.43 Y134.182 E.07842
G1 X137.766 Y134.182 E.02595
G1 X136.184 Y132.6 E.08743
G1 X135.999 Y132.525 E.0078
G1 X135.855 Y132.59 E.00617
G1 X135.585 Y132.666 E.01096
G1 X137.101 Y134.182 E.08378
G1 X136.436 Y134.182 E.02599
G1 X134.843 Y132.588 E.08807
M204 P1000
; stop printing object accroche pcb.STL id:0 copy 1
; printing object accroche pcb.STL id:0 copy 2
G1 E-.64 F2100
;WIPE_START
G1 F9600
G1 X135.387 Y133.133 E-.16
;WIPE_END
G1 Z.4 F720
G1 X148.262 Y144.672 F12000
G1 Z.2 F720
G1 E.8 F1500
M204 P600
;TYPE:Perimeter
;WIDTH:0.499999
G1 F1200
G1 X148.381 Y144.634 E.00475
G1 X148.5 Y144.45 E.00833
G1 X148.618 Y144.634 E.00831
G1 X148.805 Y144.707 E.00763
G1 X149.441 Y144.845 E.02473
G1 X150.055 Y144.886 E.02339
G1 X150.655 Y144.83 E.0229
G1 X151.364 Y144.644 E.02786
G1 X151.5 Y144.439 E.00935
G1 X151.636 Y144.644 E.00935
G1 X151.804 Y144.707 E.00682
G1 X152.429 Y144.844 E.02432
G1 X152.992 Y144.897 E.02149
G1 X153.924 Y144.906 E.03542
G1 X154.066 Y144.952 E.00567
G1 X154.014 Y145.014 E.00308
G1 X151.779 Y146.985 E.11326
G1 X151.565 Y147.093 E.00911
G1 X148.506 Y147.093 E.11626
G1 X148.274 Y147.032 E.00912
G1 X146.023 Y145.047 E.11406
G1 X145.934 Y144.952 E.00495
G1 X146.069 Y144.907 E.00541
G1 X147.286 Y144.892 E.04626
G1 X147.791 Y144.822 E.01938
G1 X148.205 Y144.69 E.01652
M204 P1000
G1 X148.271 Y143.672 F12000
M204 P600
;TYPE:External perimeter
;WIDTH:0.50095
G1 F1200
G1 X148.272 Y113.042 E1.16655
G1 X148.298 Y112.843 E.00764
;WIDTH:0.490324
G1 X148.421 Y112.565 E.01131
;WIDTH:0.490063
G1 X148.635 Y112.368 E.01081
;WIDTH:0.50096
G1 X149.012 Y112.272 E.01482
G1 X150.958 Y112.272 E.07412
G1 X151.157 Y112.298 E.00764
;WIDTH:0.490327
G1 X151.469 Y112.44 E.01275
;WIDTH:0.490043
G1 X151.646 Y112.672 E.01085
;WIDTH:0.50095
G1 X151.728 Y113.022 E.01369
G1 X151.729 Y144.039 E1.18129
;WIDTH:0.499999
G1 X151.85 Y144.241 E.00895
G1 X152.474 Y144.389 E.02437
G1 X152.997 Y144.44 E.01997
G1 X153.97 Y144.45 E.03698
G1 X154.256 Y144.526 E.01125
G1 X154.464 Y144.712 E.01061
G1 X154.532 Y144.95 E.00941
G1 X154.506 Y145.089 E.00537
G1 X154.344 Y145.333 E.01113
G1 X152.082 Y147.328 E.11463
G1 X151.769 Y147.525 E.01406
G1 X151.598 Y147.55 E.00657
G1 X148.506 Y147.55 E.11752
G1 X148.141 Y147.492 E.01405
G1 X147.996 Y147.396 E.00661
G1 X145.721 Y145.39 E.11528
G1 X145.528 Y145.178 E.0109
G1 X145.468 Y144.95 E.00896
G1 X145.536 Y144.712 E.00941
G1 X145.73 Y144.535 E.00998
G1 X146.029 Y144.45 E.01181
G1 X147.203 Y144.44 E.04462
G1 X147.667 Y144.382 E.01777
G1 X148.156 Y144.237 E.01938
G1 X148.271 Y144.038 E.00874
;WIDTH:0.50095
G1 X148.271 Y143.732 E.01165
M204 P1000
G1 E-.64 F2100
;WIPE_START
G1 F9600
G1 X148.271 Y142.962 E-.16
;WIPE_END
G1 Z.4 F720
G1 X148.729 Y127.567 F12000
G1 Z.2 F720
G1 E.8 F1500
M204 P600
G1 F1200
G1 X148.73 Y113.042 E.55319
G1 X148.749 Y112.882 E.00614
;WIDTH:0.490063
G1 X148.854 Y112.762 E.00593
;WIDTH:0.500985
G1 X149.022 Y112.73 E.00651
G1 X150.958 Y112.73 E.07374
G1 X151.152 Y112.767 E.00752
;WIDTH:0.487825
G1 X151.25 Y112.883 E.00562
;WIDTH:0.50095
G1 X151.27 Y113.022 E.00535
G1 X151.271 Y144.039 E1.18129
;WIDTH:0.499999
G1 X151.15 Y144.241 E.00895
G1 X150.554 Y144.384 E.02329
G1 X150.018 Y144.43 E.02045
G1 X149.478 Y144.389 E.02058
G1 X148.906 Y144.261 E.02228
G1 X148.844 Y144.237 E.00253
G1 X148.729 Y144.038 E.00874
;WIDTH:0.50095
G1 X148.729 Y127.627 E.62502
M204 P1000
G1 E-.64 F2100
;WIPE_START
G1 F9600
G1 X148.729 Y126.857 E-.16
;WIPE_END
G1 Z.4 F720
G1 X153.11 Y145.538 F12000
G1 Z.2 F720
G1 E.8 F1500
M204 P600
;TYPE:Solid infill
;WIDTH:0.512898
G1 F1200
G1 X152.87 Y145.298 E.01326
G1 X152.378 Y145.253 E.01931
G1 X152.099 Y145.192 E.01116
G1 X152.611 Y145.703 E.02827
G1 X152.258 Y146.015 E.01841
G1 X151.338 Y145.095 E.05084
G1 X150.797 Y145.219 E.02169
G1 X151.904 Y146.326 E.06118
G1 X151.551 Y146.638 E.01841
G1 X150.197 Y145.284 E.07483
G1 X150.001 Y145.3 E.00768
G1 X149.511 Y145.263 E.0192
G1 X150.93 Y146.682 E.07842
G1 X150.266 Y146.682 E.02595
G1 X148.684 Y145.1 E.08743
M73 P3 R22
G1 X148.499 Y145.025 E.0078
G1 X148.355 Y145.09 E.00617
G1 X148.085 Y145.166 E.01096
G1 X149.601 Y146.682 E.08378
G1 X148.936 Y146.682 E.02599
G1 X147.343 Y145.088 E.08807
M204 P1000
; stop printing object accroche pcb.STL id:0 copy 2
M106 S127.5
;LAYER_CHANGE
;Z:0.4
;HEIGHT:0.2
;BEFORE_LAYER_CHANGE
G92 E0.0
;0.4


G1 E-.64 F2100
;WIPE_START
G1 F9600
G1 X147.887 Y145.633 E-.16
;WIPE_END
G1 Z.4 F720
;AFTER_LAYER_CHANGE
;0.4
M104 S210 ; set temperature
; printing object accroche pcb.STL id:0 copy 0
G1 Z.6
G1 X129.191 Y120.225 F12000
G1 Z.4 F720
G1 E.8 F1500
M204 P900
;TYPE:Perimeter
;WIDTH:0.449999
G1 X127.358 Y121.841 E.08271
M73 P3 R21
G1 X126.832 Y122.29 E.02341
G1 X126.599 Y122.368 E.00832
G1 X123.979 Y122.368 E.08868
G1 X123.344 Y122.356 E.0215
G1 X123.117 Y122.261 E.00833
G1 X120.846 Y120.258 E.1025
G1 X120.689 Y120.084 E.00793
G1 X120.655 Y119.909 E.00603
G1 X120.775 Y119.72 E.00758
G1 X121.053 Y119.632 E.00987
G1 X123.021 Y119.632 E.06661
G1 X123.302 Y119.564 E.00979
G1 X123.5 Y119.268 E.01205
G1 X123.698 Y119.564 E.01205
G1 X123.979 Y119.632 E.00979
G1 X126.021 Y119.632 E.06912
G1 X126.302 Y119.564 E.00979
G1 X126.5 Y119.268 E.01205
G1 X126.698 Y119.564 E.01205
G1 X126.979 Y119.632 E.00979
G1 X128.917 Y119.632 E.0656
G1 X129.119 Y119.661 E.00691
G1 X129.273 Y119.774 E.00647
G1 X129.346 Y119.953 E.00654
G1 X129.346 Y119.993 E.00135
G1 X129.227 Y120.178 E.00745
M204 P1000
G1 X129.46 Y120.53 F12000
M204 P700
;TYPE:External perimeter
G1 F1500

G1 X127.42 Y122.33 E.09209
G1 X126.947 Y122.701 E.02035
G1 X126.614 Y122.775 E.01155
G1 X123.758 Y122.775 E.09667
G1 X123.158 Y122.741 E.02034
G1 X122.859 Y122.576 E.01156
G1 X120.577 Y120.563 E.103
G1 X120.404 Y120.379 E.00855
G1 X120.248 Y120.072 E.01166
G1 X120.248 Y119.829 E.00823
G1 X120.344 Y119.593 E.00862
G1 X120.517 Y119.398 E.00882
G1 X120.744 Y119.272 E.00879
G1 X121.018 Y119.225 E.00941
G1 X123.021 Y119.225 E.0678
G1 X123.115 Y119.202 E.00328

;WIDTH:0.48573
G1 X123.188 Y119.112 E.00427
;WIDTH:0.52146
G1 X123.261 Y119.021 E.00464
G1 X123.261 Y88.043 E1.23264
G1 X123.298 Y87.788 E.01025
;WIDTH:0.514836
G1 X123.413 Y87.56 E.01002
;WIDTH:0.513892
G1 X123.63 Y87.36 E.01156
;WIDTH:0.521461
G1 X124.011 Y87.261 E.01566
G1 X125.957 Y87.261 E.07743
G1 X126.212 Y87.299 E.01026
;WIDTH:0.514835
G1 X126.439 Y87.413 E.00997
