; generated by PrusaSlicer 2.6.0+win64 on 2023-08-08 at 06:43:24 UTC


;
;

;
;

;
;
; 

; external perimeters extrusion width = 0.45mm
; perimeters extrusion width = 0.45mm
; infill extrusion width = 0.45mm
; solid infill extrusion width = 0.45mm
; top infill extrusion width = 0.40mm
; support material extrusion width = 0.37mm
; first layer extrusion width = 0.50mm

M73 P0 R108
M201 X2500 Y2500 Z200 E2500 ; sets maximum accelerations, mm/sec^2
M203 X200 Y200 Z40 E100 ; sets maximum feedrates, mm / sec
M204 P2000 R1200 T2000 ; sets acceleration (P, T) and retract acceleration (R), mm/sec^2
M205 X8.00 Y8.00 Z2.00 E10.00 ; sets the jerk limits, mm/sec
M205 S0 T0 ; sets the minimum extruding and travel feed rate, mm/sec
;TYPE:Custom
M17 ; enable steppers
M862.3 P "MK4" ; printer model check
M862.1 P0.4 ; nozzle diameter check
M555 X90.001 Y35.999 W69.998 H134.002

G90 ; use absolute coordinates
M83 ; extruder relative mode

M140 S85 ; set bed temp

M104 S170 ; set extruder temp for bed leveling
M109 R170 ; wait for temp


M84 E ; turn off E motor

G28 ; home all without mesh bed level

G1 X42 Y-4 Z5 F4800

M302 S160 ; lower cold extrusion limit to 160C


G1 E-2 F2400 ; retraction


M84 E ; turn off E motor

G29 P9 X10 Y-4 W32 H4



G0 Z40 F10000

M190 S85 ; wait for bed temp

M107

;
; MBL
;
M84 E ; turn off E motor
G29 P1 ; invalidate mbl & probe print area
G29 P1 X0 Y0 W50 H20 C ; probe near purge place
G29 P3.2 ; interpolate mbl probes
G29 P3.13 ; extrapolate mbl outside probe area
G29 A ; activate mbl

; prepare for purge
M104 S230
G0 X0 Y-4 Z15 F4800 ; move away and ready for the purge
M109 S230

G92 E0
M569 S0 E ; set spreadcycle mode for extruder

;
; Extrude purge line
;
G92 E0 ; reset extruder position
G1 E2 F2400 ; deretraction after the initial one before nozzle cleaning
G0 E7 X15 Z0.2 F500 ; purge
G0 X25 E4 F500 ; purge
G0 X35 E4 F650 ; purge
G0 X45 E4 F800 ; purge
G0 X48 Z0.05 F8000 ; wipe, move close to the bed
G0 X51 Z0.2 F8000 ; wipe, move quickly away from the bed

G92 E0
M221 S100 ; set flow to 100%
G21 ; set units to millimeters
G90 ; use absolute coordinates
M83 ; use relative distances for extrusion
M900 K0.07 ; Filament gcode



M142 S40 ; set heatbreak target temp
M107
;LAYER_CHANGE
;Z:0.2
;HEIGHT:0.2
;BEFORE_LAYER_CHANGE
G92 E0.0
;0.2


G1 E-1 F2100
G1 Z.15 F720
G1 Z.2
;AFTER_LAYER_CHANGE
;0.2
; printing object alimentador_famibees.stl id:0 copy 0
G1 Z.35
G1 X114.883 Y120.32 F12000
G1 Z.2 F720
G1 E1 F1500
M204 P600
;TYPE:Perimeter
;WIDTH:0.499999
G1 F1200
G1 X114.906 Y120.222 E.00383
G1 X114.906 Y40.906 E3.01451
G1 X135.094 Y40.906 E.76727
G1 X135.094 Y120.222 E3.01451
G1 X135.11 Y120.369 E.00562
G1 X135.244 Y120.651 E.01187
G1 X135.478 Y120.838 E.01138
G1 X135.78 Y120.908 E.01178
G1 X159.064 Y120.908 E.88494
G1 X158.93 Y125.364 E.16943
G1 X158.207 Y130.659 E.20311
G1 X156.932 Y135.848 E.20308
G1 X155.114 Y140.876 E.2032
M73 P0 R107
G1 X152.778 Y145.681 E.20306
G1 X149.949 Y150.214 E.20308
G1 X146.656 Y154.425 E.20317
G1 X142.94 Y158.266 E.20312
G1 X138.84 Y161.692 E.20307
G1 X134.4 Y164.669 E.20317
G1 X129.672 Y167.16 E.20311
G1 X125.002 Y169.024 E.19111
G1 X120.335 Y167.153 E.1911
G1 X115.613 Y164.654 E.20305
G1 X111.179 Y161.673 E.20306
G1 X107.084 Y158.244 E.20299
G1 X103.37 Y154.403 E.20307
G1 X100.081 Y150.194 E.20302
G1 X97.252 Y145.663 E.20302
G1 X94.914 Y140.859 E.20306
G1 X93.094 Y135.837 E.20301
G1 X91.811 Y130.652 E.20301
G1 X91.08 Y125.358 E.20311
G1 X90.938 Y120.908 E.16921
G1 X114.22 Y120.908 E.88486
G1 X114.371 Y120.891 E.00578
G1 X114.636 Y120.768 E.0111
G1 X114.831 Y120.534 E.01158
G1 X114.869 Y120.378 E.0061
M204 P1000
G1 X114.449 Y120.222 F12000
M204 P600
;TYPE:External perimeter
G1 F1200
G1 X114.449 Y40.449 E3.03187
G1 X135.551 Y40.449 E.80201
G1 X135.551 Y120.222 E3.03187
G1 X135.614 Y120.38 E.00646
G1 X135.78 Y120.451 E.00686
G1 X159.535 Y120.451 E.90284
G1 X159.386 Y125.402 E.18825
G1 X158.656 Y130.745 E.20495
G1 X157.37 Y135.98 E.20488
G1 X155.536 Y141.054 E.20505
G1 X153.179 Y145.903 E.20491
G1 X150.324 Y150.477 E.20493
G1 X147.001 Y154.725 E.20498
G1 X143.252 Y158.601 E.20495
G1 X139.115 Y162.058 E.2049
G1 X134.634 Y165.062 E.20503
G1 X129.864 Y167.576 E.20493
G1 X125.001 Y169.516 E.19899
G1 X120.143 Y167.568 E.19893
G1 X115.378 Y165.046 E.2049
G1 X110.904 Y162.039 E.20488
G1 X106.772 Y158.579 E.20483
G1 X103.025 Y154.703 E.20489
G1 X99.706 Y150.457 E.20483
G1 X96.851 Y145.885 E.20486
G1 X94.492 Y141.037 E.20491
G1 X92.656 Y135.97 E.20483
G1 X91.362 Y130.738 E.20484
G1 X90.624 Y125.397 E.20492
G1 X90.466 Y120.451 E.18807
G1 X114.22 Y120.451 E.9028
G1 X114.38 Y120.386 E.00656
G1 X114.426 Y120.278 E.00446
M204 P1000
G1 X114.835 Y120.119 F12000
;WIPE_START
G1 F9600
G1 X114.427 Y115.466 E-1
;WIPE_END
G1 Z.35 F720
G1 X133.96 Y41.112 F12000
G1 Z.2 F720
G1 E1 F1500
M204 P600
;TYPE:Solid infill
;WIDTH:0.501821
G1 F1200
G1 X134.683 Y41.834 E.03899
G1 X134.683 Y42.483 E.02476
G1 X133.517 Y41.317 E.06292
G1 X132.868 Y41.317 E.02476
G1 X134.683 Y43.132 E.09794
G1 X134.683 Y43.781 E.02476
G1 X132.219 Y41.317 E.13297
G1 X131.57 Y41.317 E.02476
G1 X134.683 Y44.43 E.16799
G1 X134.683 Y45.079 E.02476
G1 X130.921 Y41.317 E.20301
G1 X130.272 Y41.317 E.02476
G1 X134.683 Y45.728 E.23803
G1 X134.683 Y46.377 E.02476
G1 X129.623 Y41.317 E.27305
G1 X128.974 Y41.317 E.02476
G1 X134.683 Y47.026 E.30808
G1 X134.683 Y47.675 E.02476
G1 X128.325 Y41.317 E.3431
G1 X127.676 Y41.317 E.02476
G1 X134.683 Y48.324 E.37812
G1 X134.683 Y48.973 E.02476
G1 X127.027 Y41.317 E.41314
G1 X126.378 Y41.317 E.02476
G1 X134.683 Y49.622 E.44816
G1 X134.683 Y50.271 E.02476
G1 X125.729 Y41.317 E.48319
G1 X125.08 Y41.317 E.02476
G1 X134.683 Y50.92 E.51821
G1 X134.683 Y51.569 E.02476
G1 X124.431 Y41.317 E.55323
G1 X123.782 Y41.317 E.02476
G1 X134.683 Y52.218 E.58825
G1 X134.683 Y52.867 E.02476
G1 X123.133 Y41.317 E.62328
G1 X122.484 Y41.317 E.02476
G1 X134.683 Y53.516 E.6583
G1 X134.683 Y54.165 E.02476
G1 X121.835 Y41.317 E.69332
G1 X121.186 Y41.317 E.02476
G1 X134.683 Y54.814 E.72834
G1 X134.683 Y55.463 E.02476
G1 X120.537 Y41.317 E.76336
G1 X119.888 Y41.317 E.02476
G1 X134.683 Y56.112 E.79839
G1 X134.683 Y56.761 E.02476
G1 X119.239 Y41.317 E.83341
G1 X118.59 Y41.317 E.02476
G1 X134.683 Y57.41 E.86843
G1 X134.683 Y58.059 E.02476
G1 X117.941 Y41.317 E.90345
G1 X117.293 Y41.317 E.02473
G1 X134.683 Y58.707 E.93842
G1 X134.683 Y59.356 E.02476
G1 X116.644 Y41.317 E.97344
G1 X115.995 Y41.317 E.02476
G1 X134.683 Y60.005 E1.00846
G1 X134.683 Y60.654 E.02476
G1 X115.346 Y41.317 E1.04349
G1 X115.317 Y41.317 E.00111
G1 X115.317 Y41.938 E.0237
G1 X134.683 Y61.303 E1.04503
G1 X134.683 Y61.952 E.02476
G1 X115.317 Y42.587 E1.04503
M73 P1 R107
G1 X115.317 Y43.236 E.02476
G1 X134.683 Y62.601 E1.04503
G1 X134.683 Y63.25 E.02476
G1 X115.317 Y43.885 E1.04503
G1 X115.317 Y44.534 E.02476
G1 X134.683 Y63.899 E1.04503
G1 X134.683 Y64.548 E.02476
G1 X115.317 Y45.183 E1.04503
G1 X115.317 Y45.832 E.02476
G1 X134.683 Y65.197 E1.04503
G1 X134.683 Y65.846 E.02476
G1 X115.317 Y46.481 E1.04503
G1 X115.317 Y47.13 E.02476
G1 X134.683 Y66.495 E1.04503
G1 X134.683 Y67.144 E.02476
G1 X115.317 Y47.779 E1.04503
G1 X115.317 Y48.428 E.02476
G1 X134.683 Y67.793 E1.04503
G1 X134.683 Y68.442 E.02476
M73 P1 R106
G1 X115.317 Y49.077 E1.04503
G1 X115.317 Y49.726 E.02476
G1 X134.683 Y69.091 E1.04503
G1 X134.683 Y69.74 E.02476
G1 X115.317 Y50.375 E1.04503
G1 X115.317 Y51.024 E.02476
G1 X134.683 Y70.389 E1.04503
G1 X134.683 Y71.038 E.02476
G1 X115.317 Y51.673 E1.04503
G1 X115.317 Y52.322 E.02476
G1 X134.683 Y71.687 E1.04503
G1 X134.683 Y72.336 E.02476
G1 X115.317 Y52.971 E1.04503
G1 X115.317 Y53.62 E.02476
G1 X134.683 Y72.985 E1.04503
G1 X134.683 Y73.634 E.02476
G1 X115.317 Y54.269 E1.04503
G1 X115.317 Y54.918 E.02476
G1 X134.683 Y74.283 E1.04503
G1 X134.683 Y74.932 E.02476
G1 X115.317 Y55.567 E1.04503
G1 X115.317 Y56.216 E.02476
G1 X134.683 Y75.581 E1.04503
G1 X134.683 Y76.23 E.02476
G1 X115.317 Y56.865 E1.04503
G1 X115.317 Y57.514 E.02476
G1 X134.683 Y76.879 E1.04503
G1 X134.683 Y77.528 E.02476
G1 X115.317 Y58.163 E1.04503
G1 X115.317 Y58.812 E.02476
G1 X134.683 Y78.177 E1.04503
G1 X134.683 Y78.826 E.02476
G1 X115.317 Y59.461 E1.04503
G1 X115.317 Y60.11 E.02476
G1 X134.683 Y79.475 E1.04503
G1 X134.683 Y80.124 E.02476
G1 X115.317 Y60.759 E1.04503
G1 X115.317 Y61.408 E.02476
G1 X134.683 Y80.773 E1.04503
G1 X134.683 Y81.422 E.02476
G1 X115.317 Y62.057 E1.04503
G1 X115.317 Y62.706 E.02476
G1 X134.683 Y82.071 E1.04503
G1 X134.683 Y82.72 E.02476
G1 X115.317 Y63.355 E1.04503
G1 X115.317 Y64.004 E.02476
G1 X134.683 Y83.369 E1.04503
G1 X134.683 Y84.018 E.02476
G1 X115.317 Y64.653 E1.04503
G1 X115.317 Y65.302 E.02476
G1 X134.683 Y84.667 E1.04503
G1 X134.683 Y85.316 E.02476
G1 X115.317 Y65.951 E1.04503
G1 X115.317 Y66.6 E.02476
G1 X134.683 Y85.965 E1.04503
G1 X134.683 Y86.614 E.02476
G1 X115.317 Y67.249 E1.04503
G1 X115.317 Y67.898 E.02476
G1 X134.683 Y87.263 E1.04503
G1 X134.683 Y87.912 E.02476
G1 X115.317 Y68.547 E1.04503
G1 X115.317 Y69.196 E.02476
G1 X134.683 Y88.561 E1.04503
G1 X134.683 Y89.21 E.02476
G1 X115.317 Y69.845 E1.04503
G1 X115.317 Y70.494 E.02476
G1 X134.683 Y89.859 E1.04503
G1 X134.683 Y90.508 E.02476
G1 X115.317 Y71.143 E1.04503
G1 X115.317 Y71.792 E.02476
G1 X134.683 Y91.157 E1.04503
G1 X134.683 Y91.806 E.02476
G1 X115.317 Y72.441 E1.04503
G1 X115.317 Y73.09 E.02476
M73 P2 R106
G1 X134.683 Y92.455 E1.04503
G1 X134.683 Y93.104 E.02476
G1 X115.317 Y73.739 E1.04503
G1 X115.317 Y74.388 E.02476
G1 X134.683 Y93.753 E1.04503
G1 X134.683 Y94.402 E.02476
G1 X115.317 Y75.037 E1.04503
G1 X115.317 Y75.685 E.02473
G1 X134.683 Y95.051 E1.04505
G1 X134.683 Y95.7 E.02476
G1 X115.317 Y76.334 E1.04505
G1 X115.317 Y76.983 E.02476
M73 P2 R105
G1 X134.683 Y96.349 E1.04505
G1 X134.683 Y96.998 E.02476
G1 X115.317 Y77.632 E1.04505
G1 X115.317 Y78.281 E.02476
G1 X134.683 Y97.647 E1.04505
G1 X134.683 Y98.296 E.02476
G1 X115.317 Y78.93 E1.04505
G1 X115.317 Y79.579 E.02476
G1 X134.683 Y98.945 E1.04505
G1 X134.683 Y99.593 E.02473
G1 X115.317 Y80.228 E1.04503
G1 X115.317 Y80.877 E.02476
G1 X134.683 Y100.242 E1.04503
G1 X134.683 Y100.891 E.02476
G1 X115.317 Y81.526 E1.04503
G1 X115.317 Y82.175 E.02476
G1 X134.683 Y101.54 E1.04503
G1 X134.683 Y102.189 E.02476
G1 X115.317 Y82.824 E1.04503
G1 X115.317 Y83.473 E.02476
G1 X134.683 Y102.838 E1.04503
G1 X134.683 Y103.487 E.02476
G1 X115.317 Y84.122 E1.04503
G1 X115.317 Y84.771 E.02476
G1 X134.683 Y104.136 E1.04503
G1 X134.683 Y104.785 E.02476
G1 X115.317 Y85.42 E1.04503
G1 X115.317 Y86.069 E.02476
G1 X134.683 Y105.434 E1.04503
G1 X134.683 Y106.083 E.02476
G1 X115.317 Y86.718 E1.04503
G1 X115.317 Y87.367 E.02476
G1 X134.683 Y106.732 E1.04503
G1 X134.683 Y107.381 E.02476
G1 X115.317 Y88.016 E1.04503
G1 X115.317 Y88.665 E.02476
G1 X134.683 Y108.03 E1.04503
G1 X134.683 Y108.679 E.02476
G1 X115.317 Y89.314 E1.04503
G1 X115.317 Y89.963 E.02476
G1 X134.683 Y109.328 E1.04503
G1 X134.683 Y109.977 E.02476
G1 X115.317 Y90.612 E1.04503
G1 X115.317 Y91.261 E.02476
G1 X134.683 Y110.626 E1.04503
G1 X134.683 Y111.275 E.02476
G1 X115.317 Y91.91 E1.04503
G1 X115.317 Y92.559 E.02476
G1 X134.683 Y111.924 E1.04503
G1 X134.683 Y112.573 E.02476
G1 X115.317 Y93.208 E1.04503
G1 X115.317 Y93.857 E.02476
G1 X134.683 Y113.222 E1.04503
G1 X134.683 Y113.871 E.02476
G1 X115.317 Y94.506 E1.04503
G1 X115.317 Y95.155 E.02476
G1 X134.683 Y114.52 E1.04503
G1 X134.683 Y115.169 E.02476
G1 X115.317 Y95.804 E1.04503
G1 X115.317 Y96.453 E.02476
G1 X134.683 Y115.818 E1.04503
G1 X134.683 Y116.467 E.02476
G1 X115.317 Y97.102 E1.04503
G1 X115.317 Y97.751 E.02476
G1 X134.683 Y117.116 E1.04503
G1 X134.683 Y117.765 E.02476
G1 X115.317 Y98.4 E1.04503
G1 X115.317 Y99.049 E.02476
G1 X134.683 Y118.414 E1.04503
G1 X134.683 Y119.063 E.02476
G1 X115.317 Y99.698 E1.04503
G1 X115.317 Y100.347 E.02476
G1 X134.888 Y119.918 E1.05611
M204 P1000
;WIPE_START
G1 F9600
G1 X131.485 Y116.515 E-1
;WIPE_END
G1 Z.35 F720
G1 X158.15 Y121.114 F12000
G1 Z.2 F720
G1 E1 F1500
M204 P600
M73 P3 R105
G1 F1200
G1 X158.632 Y121.596 E.02601
G1 X158.613 Y122.226 E.02405
G1 X157.706 Y121.319 E.04894
G1 X157.057 Y121.319 E.02476
G1 X158.594 Y122.856 E.08294
G1 X158.575 Y123.486 E.02405
G1 X156.408 Y121.319 E.11694
G1 X155.759 Y121.319 E.02476
G1 X158.556 Y124.116 E.15094
G1 X158.537 Y124.746 E.02405
G1 X155.11 Y121.319 E.18493
G1 X154.461 Y121.319 E.02476
G1 X158.514 Y125.371 E.21869
M73 P3 R104
G1 X158.436 Y125.942 E.02199
G1 X153.812 Y121.319 E.2495
G1 X153.163 Y121.319 E.02476
G1 X158.358 Y126.513 E.28031
G1 X158.28 Y127.084 E.02199
G1 X152.514 Y121.319 E.31113
G1 X151.865 Y121.319 E.02476
G1 X158.202 Y127.655 E.34194
G1 X158.124 Y128.226 E.02199
G1 X151.216 Y121.319 E.37275
G1 X150.567 Y121.319 E.02476
G1 X158.046 Y128.798 E.40359
G1 X157.968 Y129.369 E.02199
G1 X149.918 Y121.319 E.4344
G1 X149.269 Y121.319 E.02476
G1 X157.89 Y129.94 E.46522
G1 X157.812 Y130.511 E.02199
G1 X148.62 Y121.319 E.49603
G1 X147.971 Y121.319 E.02476
G1 X157.69 Y131.038 E.52447
G1 X157.562 Y131.559 E.02047
G1 X147.322 Y121.319 E.55258
G1 X146.673 Y121.319 E.02476
G1 X157.434 Y132.08 E.5807
G1 X157.306 Y132.601 E.02047
G1 X146.024 Y121.319 E.60881
G1 X145.375 Y121.319 E.02476
G1 X157.178 Y133.122 E.63693
G1 X157.05 Y133.643 E.02047
G1 X144.726 Y121.319 E.66504
G1 X144.077 Y121.318 E.02476
G1 X156.922 Y134.164 E.69318
G1 X156.794 Y134.684 E.02043
G1 X143.428 Y121.318 E.72127
G1 X142.779 Y121.318 E.02476
G1 X156.666 Y135.205 E.74939
G1 X156.538 Y135.726 E.02047
G1 X142.13 Y121.318 E.7775
G1 X141.481 Y121.318 E.02476
G1 X156.366 Y136.203 E.80324
G1 X156.193 Y136.68 E.01936
G1 X140.832 Y121.318 E.82896
G1 X140.183 Y121.318 E.02476
G1 X156.021 Y137.157 E.8547
G1 X155.849 Y137.633 E.01931
G1 X139.534 Y121.318 E.88041
G1 X138.885 Y121.318 E.02476
G1 X155.676 Y138.11 E.90612
G1 X155.504 Y138.587 E.01935
G1 X138.236 Y121.318 E.93186
G1 X137.587 Y121.318 E.02476
G1 X155.332 Y139.063 E.95758
G1 X155.16 Y139.54 E.01935
G1 X136.938 Y121.318 E.98332
G1 X136.289 Y121.318 E.02476
G1 X154.987 Y140.017 E1.00903
G1 X154.815 Y140.493 E.01931
G1 X135.626 Y121.304 E1.0355
G1 X135.503 Y121.285 E.00475
G1 X135.327 Y121.223 E.00712
G1 X135.137 Y121.113 E.00838
G1 X134.981 Y120.976 E.00792
G1 X134.832 Y120.777 E.00949
G1 X134.748 Y120.597 E.00758
G1 X134.693 Y120.371 E.00888
G1 X115.317 Y100.996 E1.04556
G1 X115.317 Y101.645 E.02476
G1 X154.621 Y140.949 E2.12097
G1 X154.409 Y141.385 E.0185
G1 X115.317 Y102.294 E2.1095
G1 X115.317 Y102.943 E.02476
G1 X154.197 Y141.822 E2.09806
G1 X153.984 Y142.259 E.01855
G1 X115.317 Y103.592 E2.0866
G1 X115.317 Y104.241 E.02476
G1 X153.772 Y142.696 E2.07516
G1 X153.56 Y143.132 E.0185
G1 X115.317 Y104.89 E2.06369
G1 X115.317 Y105.539 E.02476
G1 X153.348 Y143.569 E2.05225
G1 X153.135 Y144.006 E.01855
G1 X115.317 Y106.188 E2.04078
G1 X115.317 Y106.837 E.02476
G1 X152.923 Y144.442 E2.02931
G1 X152.711 Y144.879 E.01853
G1 X115.317 Y107.486 E2.01787
G1 X115.317 Y108.135 E.02476
G1 X152.498 Y145.316 E2.00641
G1 X152.418 Y145.482 E.00703
G1 X152.263 Y145.729 E.01113
G1 X115.317 Y108.784 E1.9937
G1 X115.317 Y109.433 E.02476
G1 X152.014 Y146.129 E1.98026
G1 X151.764 Y146.529 E.018
G1 X115.317 Y110.082 E1.9668
G1 X115.317 Y110.731 E.02476
G1 X151.515 Y146.928 E1.95333
G1 X151.266 Y147.328 E.01798
G1 X115.317 Y111.38 E1.9399
G1 X115.317 Y112.029 E.02476
M73 P4 R103
G1 X151.016 Y147.727 E1.92641
G1 X150.767 Y148.127 E.01798
G1 X115.317 Y112.678 E1.91297
G1 X115.317 Y113.327 E.02476
G1 X150.517 Y148.526 E1.89948
G1 X150.268 Y148.926 E.01798
G1 X115.317 Y113.976 E1.88604
G1 X115.317 Y114.625 E.02476
G1 X150.019 Y149.326 E1.87261
G1 X149.769 Y149.725 E.01797
G1 X115.317 Y115.274 E1.85911
G1 X115.317 Y115.923 E.02476
G1 X149.507 Y150.112 E1.84498
G1 X149.222 Y150.476 E.01764
G1 X115.317 Y116.571 E1.82962
G1 X115.317 Y117.22 E.02476
G1 X148.937 Y150.84 E1.81424
G1 X148.652 Y151.204 E.01764
G1 X115.317 Y117.869 E1.79886
G1 X115.317 Y118.518 E.02476
G1 X148.367 Y151.568 E1.78348
G1 X148.083 Y151.933 E.01765
G1 X115.317 Y119.167 E1.76816
G1 X115.317 Y119.816 E.02476
G1 X147.798 Y152.297 E1.75278
G1 X147.513 Y152.661 E.01764
