; generated by PrusaSlicer 2.6.0+win64 on 2023-08-26 at 14:45:34 UTC


;
;

;
;

;
;
; 

; external perimeters extrusion width = 0.40mm
; perimeters extrusion width = 0.40mm
; infill extrusion width = 0.40mm
; solid infill extrusion width = 0.40mm
; top infill extrusion width = 0.40mm
; first layer extrusion width = 0.50mm

; external perimeters extrusion width = 0.40mm
; perimeters extrusion width = 0.40mm
; infill extrusion width = 0.40mm
; solid infill extrusion width = 0.40mm
; top infill extrusion width = 0.40mm
; first layer extrusion width = 0.50mm

M73 P0 R41
M201 X2500 Y2500 Z200 E2500 ; sets maximum accelerations, mm/sec^2
M203 X200 Y200 Z40 E100 ; sets maximum feedrates, mm / sec
M204 P2000 R1200 T2000 ; sets acceleration (P, T) and retract acceleration (R), mm/sec^2
M205 X8.00 Y8.00 Z2.00 E10.00 ; sets the jerk limits, mm/sec
M205 S0 T0 ; sets the minimum extruding and travel feed rate, mm/sec
;TYPE:Custom
M17 ; enable steppers
M862.3 P "MK4" ; printer model check
M862.1 P0.4 ; nozzle diameter check
M555 X97.8354 Y91.8354 W54.3292 H22.3292

G90 ; use absolute coordinates
M83 ; extruder relative mode

M140 S85 ; set bed temp

M104 S170 ; set extruder temp for bed leveling
M109 R170 ; wait for temp


M84 E ; turn off E motor

G28 ; home all without mesh bed level

G1 X42 Y-4 Z5 F4800

M302 S160 ; lower cold extrusion limit to 160C


G1 E-2 F2400 ; retraction


M84 E ; turn off E motor

G29 P9 X10 Y-4 W32 H4



G0 Z40 F10000

M190 S85 ; wait for bed temp

M107

;
; MBL
;
M84 E ; turn off E motor
G29 P1 ; invalidate mbl & probe print area
G29 P1 X0 Y0 W50 H20 C ; probe near purge place
G29 P3.2 ; interpolate mbl probes
G29 P3.13 ; extrapolate mbl outside probe area
G29 A ; activate mbl

; prepare for purge
M104 S230
G0 X0 Y-4 Z15 F4800 ; move away and ready for the purge
M109 S230

G92 E0
M569 S0 E ; set spreadcycle mode for extruder

;
; Extrude purge line
;
G92 E0 ; reset extruder position
G1 E2 F2400 ; deretraction after the initial one before nozzle cleaning
G0 E7 X15 Z0.2 F500 ; purge
G0 X25 E4 F500 ; purge
G0 X35 E4 F650 ; purge
G0 X45 E4 F800 ; purge
G0 X48 Z0.05 F8000 ; wipe, move close to the bed
G0 X51 Z0.2 F8000 ; wipe, move quickly away from the bed

G92 E0
M221 S100 ; set flow to 100%
G21 ; set units to millimeters
G90 ; use absolute coordinates
M83 ; use relative distances for extrusion
M900 K0.07 ; Filament gcode



M142 S36 ; set heatbreak target temp
M107
;LAYER_CHANGE
;Z:0.2
;HEIGHT:0.2
;BEFORE_LAYER_CHANGE
G92 E0.0
;0.2


G1 E-1 F2100
G1 Z.15 F720
G1 Z.2
;AFTER_LAYER_CHANGE
;0.2
; printing object capuchon 30mm alu motedis haut.STL id:0 copy 0
G1 Z.35
G1 X114.8 Y97.203 F12000
G1 Z.2 F720
G1 E1 F1500
M204 P600
;TYPE:Perimeter
;WIDTH:0.499999
G1 F1200
G1 X114.8 Y112.8 E.59278
G1 X99.2 Y112.8 E.5929
G1 X99.2 Y97.2 E.5929
G1 X114.74 Y97.203 E.59062
M204 P1000
G1 X115.258 Y96.746 F12000
M204 P600
G1 F1200
G1 X115.258 Y113.258 E.62756
G1 X98.742 Y113.258 E.62771
G1 X98.742 Y96.743 E.62767
G1 X115.198 Y96.746 E.62543
M204 P1000
G1 X115.661 Y96.289 F12000
M204 P600
;TYPE:External perimeter
G1 F1200
G1 X115.715 Y96.366 E.00357
G1 X115.715 Y113.631 E.65618
G1 X115.64 Y113.715 E.00428
G1 X98.403 Y113.715 E.65511
G1 X98.332 Y113.697 E.00278
G1 X98.285 Y113.637 E.0029
G1 X98.285 Y96.403 E.655
G1 X98.303 Y96.332 E.00278
G1 X98.363 Y96.285 E.0029
G1 X115.601 Y96.289 E.65515
M204 P1000
G1 X115.65 Y96.382 F12000
;WIPE_START
G1 F9600
G1 X115.715 Y96.366 E-.02859
G1 X115.715 Y101.04 E-.97141
;WIPE_END
G1 Z.35 F720
G1 X113.668 Y97.409 F12000
G1 Z.2 F720
G1 E1 F1500
M204 P600
;TYPE:Solid infill
;WIDTH:0.501288
G1 F1200
G1 X114.389 Y98.13 E.03886
G1 X114.389 Y98.778 E.0247
G1 X113.225 Y97.614 E.06274
G1 X112.577 Y97.614 E.0247
G1 X114.389 Y99.426 E.09767
G1 X114.389 Y100.075 E.02474
G1 X111.928 Y97.614 E.13265
G1 X111.28 Y97.614 E.0247
G1 X114.389 Y100.723 E.16758
G1 X114.389 Y101.371 E.0247
G1 X110.632 Y97.614 E.2025
G1 X109.983 Y97.614 E.02474
G1 X114.389 Y102.019 E.23746
G1 X114.389 Y102.667 E.0247
G1 X109.335 Y97.613 E.27241
G1 X108.687 Y97.613 E.0247
G1 X114.389 Y103.316 E.30737
G1 X114.389 Y103.964 E.0247
G1 X108.038 Y97.613 E.34232
G1 X107.39 Y97.613 E.0247
G1 X114.389 Y104.612 E.37725
G1 X114.389 Y105.26 E.0247
G1 X106.741 Y97.613 E.4122
G1 X106.093 Y97.613 E.0247
G1 X114.389 Y105.909 E.44716
G1 X114.389 Y106.557 E.0247
G1 X105.445 Y97.613 E.48209
G1 X104.796 Y97.612 E.02474
G1 X114.389 Y107.205 E.51707
G1 X114.389 Y107.853 E.0247
G1 X104.148 Y97.612 E.552
G1 X103.5 Y97.612 E.0247
G1 X114.389 Y108.502 E.58695
G1 X114.389 Y109.15 E.0247
G1 X102.851 Y97.612 E.6219
G1 X102.203 Y97.612 E.0247
M73 P1 R41
G1 X114.389 Y109.798 E.65683
G1 X114.389 Y110.446 E.0247
G1 X101.554 Y97.612 E.69179
G1 X100.906 Y97.611 E.0247
G1 X114.389 Y111.094 E.72674
G1 X114.389 Y111.743 E.02474
G1 X100.258 Y97.611 E.7617
G1 X99.611 Y97.611 E.02466
G1 X114.387 Y112.389 E.79649
G1 X113.739 Y112.389 E.0247
G1 X99.611 Y98.261 E.76151
G1 X99.611 Y98.909 E.0247
G1 X113.091 Y112.389 E.72658
G1 X112.443 Y112.389 E.0247
G1 X99.611 Y99.557 E.69165
G1 X99.611 Y100.206 E.02474
G1 X111.794 Y112.389 E.65667
G1 X111.146 Y112.389 E.0247
G1 X99.611 Y100.854 E.62174
G1 X99.611 Y101.502 E.0247
G1 X110.498 Y112.389 E.58682
G1 X109.85 Y112.389 E.0247
G1 X99.611 Y102.15 E.55189
G1 X99.611 Y102.799 E.02474
G1 X109.201 Y112.389 E.51691
G1 X108.553 Y112.389 E.0247
G1 X99.611 Y103.447 E.48198
G1 X99.611 Y104.095 E.0247
G1 X107.905 Y112.389 E.44705
G1 X107.257 Y112.389 E.0247
G1 X99.611 Y104.743 E.41212
G1 X99.611 Y105.392 E.02474
G1 X106.608 Y112.389 E.37714
G1 X105.96 Y112.389 E.0247
G1 X99.611 Y106.04 E.34221
G1 X99.611 Y106.688 E.0247
G1 X105.312 Y112.389 E.30729
G1 X104.664 Y112.389 E.0247
G1 X99.611 Y107.336 E.27236
G1 X99.611 Y107.984 E.0247
G1 X104.016 Y112.389 E.23743
G1 X103.367 Y112.389 E.02474
G1 X99.611 Y108.633 E.20245
G1 X99.611 Y109.281 E.0247
G1 X102.719 Y112.389 E.16752
G1 X102.071 Y112.389 E.0247
G1 X99.611 Y109.929 E.1326
G1 X99.611 Y110.577 E.0247
G1 X101.423 Y112.389 E.09767
G1 X100.774 Y112.389 E.02474
G1 X99.611 Y111.226 E.06269
G1 X99.611 Y111.874 E.0247
G1 X100.332 Y112.595 E.03886
M204 P1000
; stop printing object capuchon 30mm alu motedis haut.STL id:0 copy 0
; printing object capuchon 30mm alu motedis haut.STL id:1 copy 0
;WIPE_START
G1 F9600
G1 X99.611 Y111.874 E-.2119
G1 X99.611 Y111.226 E-.13466
G1 X100.774 Y112.389 E-.3418
G1 X101.423 Y112.389 E-.13487
G1 X100.822 Y111.788 E-.17677
;WIPE_END
G1 Z.35 F720
G1 X150.8 Y97.203 F12000
G1 Z.2 F720
G1 E1 F1500
M204 P600
;TYPE:Perimeter
;WIDTH:0.499999
G1 F1200
G1 X150.8 Y112.8 E.59278
G1 X135.2 Y112.8 E.5929
G1 X135.2 Y97.2 E.5929
G1 X150.74 Y97.203 E.59062
M204 P1000
G1 X151.258 Y96.746 F12000
M204 P600
G1 F1200
G1 X151.258 Y113.258 E.62756
G1 X134.742 Y113.258 E.62771
G1 X134.742 Y96.743 E.62767
G1 X151.198 Y96.746 E.62543
M204 P1000
G1 X151.661 Y96.289 F12000
M204 P600
;TYPE:External perimeter
M73 P1 R40
G1 F1200
G1 X151.715 Y96.366 E.00357
G1 X151.715 Y113.631 E.65618
G1 X151.64 Y113.715 E.00428
G1 X134.403 Y113.715 E.65511
M73 P2 R40
G1 X134.332 Y113.697 E.00278
G1 X134.285 Y113.637 E.0029
G1 X134.285 Y96.403 E.655
G1 X134.303 Y96.332 E.00278
G1 X134.363 Y96.285 E.0029
G1 X151.601 Y96.289 E.65515
M204 P1000
G1 X151.65 Y96.382 F12000
;WIPE_START
G1 F9600
G1 X151.715 Y96.366 E-.02859
G1 X151.715 Y101.04 E-.97141
;WIPE_END
G1 Z.35 F720
G1 X149.668 Y97.409 F12000
G1 Z.2 F720
G1 E1 F1500
M204 P600
;TYPE:Solid infill
;WIDTH:0.501288
G1 F1200
G1 X150.389 Y98.13 E.03886
G1 X150.389 Y98.778 E.0247
G1 X149.225 Y97.614 E.06274
G1 X148.577 Y97.614 E.0247
G1 X150.389 Y99.426 E.09767
G1 X150.389 Y100.075 E.02474
G1 X147.928 Y97.614 E.13265
G1 X147.28 Y97.614 E.0247
G1 X150.389 Y100.723 E.16758
G1 X150.389 Y101.371 E.0247
G1 X146.632 Y97.614 E.2025
G1 X145.983 Y97.614 E.02474
G1 X150.389 Y102.019 E.23746
G1 X150.389 Y102.667 E.0247
G1 X145.335 Y97.613 E.27241
G1 X144.687 Y97.613 E.0247
G1 X150.389 Y103.316 E.30737
G1 X150.389 Y103.964 E.0247
G1 X144.038 Y97.613 E.34232
G1 X143.39 Y97.613 E.0247
G1 X150.389 Y104.612 E.37725
G1 X150.389 Y105.26 E.0247
G1 X142.741 Y97.613 E.4122
G1 X142.093 Y97.613 E.0247
G1 X150.389 Y105.909 E.44716
G1 X150.389 Y106.557 E.0247
G1 X141.445 Y97.613 E.48209
G1 X140.796 Y97.612 E.02474
G1 X150.389 Y107.205 E.51707
G1 X150.389 Y107.853 E.0247
G1 X140.148 Y97.612 E.552
G1 X139.5 Y97.612 E.0247
G1 X150.389 Y108.502 E.58695
G1 X150.389 Y109.15 E.0247
G1 X138.851 Y97.612 E.6219
G1 X138.203 Y97.612 E.0247
G1 X150.389 Y109.798 E.65683
G1 X150.389 Y110.446 E.0247
G1 X137.554 Y97.612 E.69179
G1 X136.906 Y97.611 E.0247
G1 X150.389 Y111.094 E.72674
G1 X150.389 Y111.743 E.02474
G1 X136.258 Y97.611 E.7617
G1 X135.611 Y97.611 E.02466
G1 X150.387 Y112.389 E.79649
G1 X149.739 Y112.389 E.0247
G1 X135.611 Y98.261 E.76151
G1 X135.611 Y98.909 E.0247
G1 X149.091 Y112.389 E.72658
G1 X148.443 Y112.389 E.0247
G1 X135.611 Y99.557 E.69165
G1 X135.611 Y100.206 E.02474
G1 X147.794 Y112.389 E.65667
G1 X147.146 Y112.389 E.0247
G1 X135.611 Y100.854 E.62174
G1 X135.611 Y101.502 E.0247
G1 X146.498 Y112.389 E.58682
G1 X145.85 Y112.389 E.0247
G1 X135.611 Y102.15 E.55189
G1 X135.611 Y102.799 E.02474
G1 X145.201 Y112.389 E.51691
G1 X144.553 Y112.389 E.0247
G1 X135.611 Y103.447 E.48198
G1 X135.611 Y104.095 E.0247
M73 P3 R40
G1 X143.905 Y112.389 E.44705
G1 X143.257 Y112.389 E.0247
G1 X135.611 Y104.743 E.41212
G1 X135.611 Y105.392 E.02474
G1 X142.608 Y112.389 E.37714
G1 X141.96 Y112.389 E.0247
G1 X135.611 Y106.04 E.34221
G1 X135.611 Y106.688 E.0247
G1 X141.312 Y112.389 E.30729
G1 X140.664 Y112.389 E.0247
G1 X135.611 Y107.336 E.27236
G1 X135.611 Y107.984 E.0247
G1 X140.016 Y112.389 E.23743
G1 X139.367 Y112.389 E.02474
G1 X135.611 Y108.633 E.20245
G1 X135.611 Y109.281 E.0247
G1 X138.719 Y112.389 E.16752
G1 X138.071 Y112.389 E.0247
G1 X135.611 Y109.929 E.1326
G1 X135.611 Y110.577 E.0247
G1 X137.423 Y112.389 E.09767
G1 X136.774 Y112.389 E.02474
G1 X135.611 Y111.226 E.06269
G1 X135.611 Y111.874 E.0247
G1 X136.332 Y112.595 E.03886
M204 P1000
; stop printing object capuchon 30mm alu motedis haut.STL id:1 copy 0
;LAYER_CHANGE
;Z:0.3
;HEIGHT:0.1
;BEFORE_LAYER_CHANGE
G92 E0.0
;0.3


;WIPE_START
G1 F9600
G1 X135.611 Y111.874 E-.2119
G1 X135.611 Y111.226 E-.13466
G1 X136.774 Y112.389 E-.3418
G1 X137.423 Y112.389 E-.13487
G1 X136.822 Y111.788 E-.17677
;WIPE_END
G1 Z.35 F720
;AFTER_LAYER_CHANGE
;0.3
M104 S240 ; set temperature
M140 S90 ; set bed temperature
; printing object capuchon 30mm alu motedis haut.STL id:0 copy 0
G1 X115.478 Y96.526 F12000
G1 Z.3 F720
G1 E1 F1500
M204 P700
;TYPE:Perimeter
;WIDTH:0.399999
G1 F2700
G1 X115.478 Y113.478 E.26679
G1 X98.522 Y113.478 E.26685
G1 X98.522 Y96.522 E.26685
G1 X115.418 Y96.526 E.26591
M204 P1000
G1 X115.597 Y96.147 F12000
M204 P700
G1 F2700
G1 X115.773 Y96.202 E.0029
G1 X115.857 Y96.358 E.00279
G1 X115.857 Y113.564 E.27078
G1 X115.795 Y113.776 E.00348
G1 X115.644 Y113.857 E.0027
G1 X98.407 Y113.857 E.27127
G1 X98.217 Y113.805 E.0031
G1 X98.143 Y113.641 E.00283
G1 X98.143 Y96.407 E.27123
G1 X98.195 Y96.217 E.0031
G1 X98.359 Y96.143 E.00283
G1 X115.537 Y96.147 E.27034
M204 P1000
G1 X115.612 Y95.77 F12000
M204 P500
;TYPE:External perimeter
G1 F1002.736

G1 X115.92 Y95.83 E.00494
G1 X116.122 Y96.002 E.00418
G1 F988.347
G1 X116.235 Y96.358 E.00588
G1 X116.235 Y97.028 E.01054
G1 X116.235 Y112.894 E.2497
G1 X116.235 Y113.564 E.01054
G1 X116.168 Y113.922 E.00573
G1 F1004.585
G1 X115.998 Y114.122 E.00413
G1 F988.35
G1 X115.659 Y114.235 E.00562
G1 X114.988 Y114.235 E.01056
G1 X99.021 Y114.235 E.25129
G1 X98.35 Y114.235 E.01056
G1 X98.055 Y114.149 E.00484
G1 F997.234
G1 X97.844 Y113.949 E.00458
G1 F988.35
G1 X97.765 Y113.658 E.00475
G1 X97.765 Y112.987 E.01056
G1 X97.765 Y97.021 E.25127
G1 X97.765 Y96.35 E.01056
G1 X97.851 Y96.055 E.00484
G1 F997.237
G1 X98.051 Y95.844 E.00458
G1 F988.355
G1 X98.342 Y95.765 E.00475
G1 X99.013 Y95.765 E.01056
G1 X114.885 Y95.768 E.24979
G1 F999.245
G1 X115.552 Y95.769 E.0105

M204 P1000
G1 X115.734 Y96.06 F12000
;WIPE_START
G1 F9600
G1 X115.92 Y95.83 E-.07752
G1 X116.122 Y96.002 E-.05513
G1 X116.235 Y96.358 E-.07762
G1 X116.235 Y100.158 E-.78973
;WIPE_END
G1 Z.45 F720
G1 X98.965 Y96.893 F12000
G1 Z.3 F720
G1 E1 F1500
M204 P1250
;TYPE:Solid infill
;WIDTH:0.49181
G1 F4800
G1 X98.924 Y96.852 E.00113
G1 X98.867 Y96.867 E.00115
G1 X98.852 Y96.924 E.00115
G1 X98.893 Y96.965 E.00113
G1 X98.95 Y96.95 E.00115
;WIDTH:0.399999
G1 X99.555 Y96.863 E.00962
G1 X98.863 Y97.555 E.0154
G1 X98.863 Y98.09 E.00842
G1 X100.09 Y96.863 E.02731
G1 X100.625 Y96.863 E.00842
G1 X98.863 Y98.625 E.03922
G1 X98.863 Y99.161 E.00844
G1 X101.16 Y96.863 E.05113
G1 X101.695 Y96.863 E.00842
G1 X98.863 Y99.696 E.06304
G1 X98.863 Y100.231 E.00842
G1 X102.231 Y96.863 E.07496
G1 X102.766 Y96.864 E.00842
G1 X98.863 Y100.767 E.08687
G1 X98.863 Y101.302 E.00842
G1 X103.301 Y96.864 E.09877
G1 X103.836 Y96.864 E.00842
G1 X98.863 Y101.837 E.11068
G1 X98.863 Y102.373 E.00844
G1 X104.371 Y96.864 E.1226
G1 X104.907 Y96.864 E.00844
G1 X98.863 Y102.908 E.13452
G1 X98.863 Y103.443 E.00842
G1 X105.442 Y96.864 E.14643
G1 X105.977 Y96.864 E.00842
G1 X98.863 Y103.979 E.15834
G1 X98.863 Y104.514 E.00842
G1 X106.512 Y96.864 E.17025
G1 X107.048 Y96.865 E.00844
G1 X98.863 Y105.049 E.18216
G1 X98.863 Y105.585 E.00844
G1 X107.583 Y96.865 E.19408
G1 X108.118 Y96.865 E.00842
G1 X98.863 Y106.12 E.20599
G1 X98.863 Y106.655 E.00842
G1 X108.653 Y96.865 E.21789
G1 X109.188 Y96.865 E.00842
G1 X98.863 Y107.191 E.22981
G1 X98.863 Y107.726 E.00842
G1 X109.724 Y96.865 E.24173
G1 X110.259 Y96.865 E.00842
G1 X98.863 Y108.262 E.25365
G1 X98.863 Y108.797 E.00842
G1 X110.794 Y96.865 E.26556
G1 X111.329 Y96.865 E.00842
G1 X98.863 Y109.332 E.27746
G1 X98.863 Y109.868 E.00844
G1 X111.865 Y96.866 E.28938
G1 X112.4 Y96.866 E.00842
G1 X98.863 Y110.403 E.30129
G1 X98.863 Y110.938 E.00842
G1 X112.935 Y96.866 E.3132
G1 X113.47 Y96.866 E.00842
G1 X98.863 Y111.474 E.32511
G1 X98.863 Y112.009 E.00842
G1 X114.005 Y96.866 E.33702
G1 X114.541 Y96.866 E.00844
G1 X98.863 Y112.544 E.34894
G1 X98.827 Y113.276 E.01153
;WIDTH:0.36146
G1 X98.73 Y113.27 E.00137
;WIDTH:0.399999
G1 X98.863 Y113.08 E.00365
G1 X115.076 Y96.866 E.36086
G1 X115.137 Y97.34 E.00752
G1 X99.34 Y113.137 E.35159
G1 X99.875 Y113.137 E.00842
G1 X115.137 Y97.875 E.33968
G1 X115.137 Y98.411 E.00844
G1 X100.411 Y113.137 E.32775
G1 X100.946 Y113.137 E.00842
G1 X115.137 Y98.946 E.31584
G1 X115.137 Y99.481 E.00842
G1 X101.481 Y113.137 E.30394
G1 X102.017 Y113.137 E.00844
G1 X115.137 Y100.017 E.29201
G1 X115.137 Y100.552 E.00842
G1 X102.552 Y113.137 E.2801
G1 X103.087 Y113.137 E.00842
G1 X115.137 Y101.087 E.26819
G1 X115.137 Y101.623 E.00844
G1 X103.623 Y113.137 E.25626
M73 P4 R40
G1 X104.158 Y113.137 E.00842
G1 X115.137 Y102.158 E.24436
G1 X115.137 Y102.693 E.00842
G1 X104.693 Y113.137 E.23245
G1 X105.229 Y113.137 E.00844
G1 X115.137 Y103.229 E.22052
G1 X115.137 Y103.764 E.00842
G1 X105.764 Y113.137 E.20861
G1 X106.299 Y113.137 E.00842
G1 X115.137 Y104.299 E.1967
G1 X115.137 Y104.835 E.00844
G1 X106.835 Y113.137 E.18477
G1 X107.37 Y113.137 E.00842
G1 X115.137 Y105.37 E.17287
G1 X115.137 Y105.905 E.00842
G1 X107.905 Y113.137 E.16096
G1 X108.441 Y113.137 E.00844
G1 X115.137 Y106.441 E.14903
G1 X115.137 Y106.976 E.00842
G1 X108.976 Y113.137 E.13712
G1 X109.511 Y113.137 E.00842
G1 X115.137 Y107.511 E.12522
G1 X115.137 Y108.047 E.00844
G1 X110.047 Y113.137 E.11329
G1 X110.582 Y113.137 E.00842
G1 X115.137 Y108.582 E.10138
G1 X115.137 Y109.117 E.00842
G1 X111.117 Y113.137 E.08947
G1 X111.653 Y113.137 E.00844
G1 X115.137 Y109.653 E.07754
G1 X115.137 Y110.188 E.00842
G1 X112.188 Y113.137 E.06563
G1 X112.723 Y113.137 E.00842
G1 X115.137 Y110.723 E.05373
G1 X115.137 Y111.259 E.00844
G1 X113.259 Y113.137 E.0418
G1 X113.794 Y113.137 E.00842
G1 X115.137 Y111.794 E.02989
G1 X115.137 Y112.329 E.00842
G1 X114.329 Y113.137 E.01798
G1 X114.865 Y113.137 E.00844
G1 X115.137 Y112.865 E.00605
M204 P1000
; stop printing object capuchon 30mm alu motedis haut.STL id:0 copy 0
; printing object capuchon 30mm alu motedis haut.STL id:1 copy 0
;WIPE_START
G1 F9600
G1 X114.865 Y113.137 E-.07994
