; generated by PrusaSlicer 2.6.0+win64 on 2023-08-26 at 11:30:36 UTC


;
;

;
;

;
;
; 

; external perimeters extrusion width = 0.40mm
; perimeters extrusion width = 0.40mm
; infill extrusion width = 0.40mm
; solid infill extrusion width = 0.40mm
; top infill extrusion width = 0.40mm
; first layer extrusion width = 0.50mm

; external perimeters extrusion width = 0.40mm
; perimeters extrusion width = 0.40mm
; infill extrusion width = 0.40mm
; solid infill extrusion width = 0.40mm
; top infill extrusion width = 0.40mm
; first layer extrusion width = 0.50mm

M73 P0 R97
M201 X2500 Y2500 Z200 E2500 ; sets maximum accelerations, mm/sec^2
M203 X200 Y200 Z40 E100 ; sets maximum feedrates, mm / sec
M204 P2000 R1200 T2000 ; sets acceleration (P, T) and retract acceleration (R), mm/sec^2
M205 X8.00 Y8.00 Z2.00 E10.00 ; sets the jerk limits, mm/sec
M205 S0 T0 ; sets the minimum extruding and travel feed rate, mm/sec
;TYPE:Custom
M17 ; enable steppers
M862.3 P "MK4" ; printer model check
M862.1 P0.4 ; nozzle diameter check
M555 X93.3929 Y87.3929 W63.2142 H31.2142

G90 ; use absolute coordinates
M83 ; extruder relative mode

M140 S85 ; set bed temp

M104 S170 ; set extruder temp for bed leveling
M109 R170 ; wait for temp


M84 E ; turn off E motor

G28 ; home all without mesh bed level

G1 X42 Y-4 Z5 F4800

M302 S160 ; lower cold extrusion limit to 160C


G1 E-2 F2400 ; retraction


M84 E ; turn off E motor

G29 P9 X10 Y-4 W32 H4



G0 Z40 F10000

M190 S85 ; wait for bed temp

M107

;
; MBL
;
M84 E ; turn off E motor
G29 P1 ; invalidate mbl & probe print area
G29 P1 X0 Y0 W50 H20 C ; probe near purge place
G29 P3.2 ; interpolate mbl probes
G29 P3.13 ; extrapolate mbl outside probe area
G29 A ; activate mbl

; prepare for purge
M104 S230
G0 X0 Y-4 Z15 F4800 ; move away and ready for the purge
M109 S230

G92 E0
M569 S0 E ; set spreadcycle mode for extruder

;
; Extrude purge line
;
G92 E0 ; reset extruder position
G1 E2 F2400 ; deretraction after the initial one before nozzle cleaning
G0 E7 X15 Z0.2 F500 ; purge
G0 X25 E4 F500 ; purge
G0 X35 E4 F650 ; purge
G0 X45 E4 F800 ; purge
G0 X48 Z0.05 F8000 ; wipe, move close to the bed
G0 X51 Z0.2 F8000 ; wipe, move quickly away from the bed

G92 E0
M221 S100 ; set flow to 100%
G21 ; set units to millimeters
G90 ; use absolute coordinates
M83 ; use relative distances for extrusion
M900 K0.07 ; Filament gcode



M142 S36 ; set heatbreak target temp
M107
;LAYER_CHANGE
;Z:0.2
;HEIGHT:0.2
;BEFORE_LAYER_CHANGE
G92 E0.0
;0.2


G1 E-1 F2100
G1 Z.15 F720
G1 Z.2
;AFTER_LAYER_CHANGE
;0.2
; printing object capuchon 30mm alu motedis haut.STL id:0 copy 0
G1 Z.35
G1 X119.243 Y92.757 F12000
G1 Z.2 F720
G1 E1 F1500
M204 P600
;TYPE:Perimeter
;WIDTH:0.499999
G1 F1200
G1 X119.243 Y117.243 E.93062
G1 X94.757 Y117.243 E.93062
G1 X94.757 Y92.757 E.93062
G1 X119.183 Y92.757 E.92834
M204 P1000
G1 X119.7 Y92.3 F12000
M204 P600
G1 F1200
G1 X119.7 Y117.7 E.96536
G1 X94.3 Y117.7 E.96536
G1 X94.3 Y92.3 E.96536
G1 X119.64 Y92.3 E.96308
M204 P1000
G1 X120.088 Y91.884 F12000
M204 P600
;TYPE:External perimeter
G1 F1200
G1 X120.157 Y92.082 E.00797
G1 X120.157 Y117.918 E.98193
G1 X120.133 Y118.068 E.00577
G1 X119.955 Y118.157 E.00756
G1 X94.067 Y118.157 E.98391
G1 X93.925 Y118.128 E.00551
G1 X93.843 Y117.961 E.00707
G1 X93.843 Y92.067 E.98413
G1 X93.872 Y91.925 E.00551
G1 X94.039 Y91.843 E.00707
G1 X119.919 Y91.843 E.9836
G1 X120.03 Y91.87 E.00434
M204 P1000
G1 X120.026 Y92.084 F12000
;WIPE_START
G1 F9600
G1 X120.157 Y92.082 E-.05136
G1 X120.157 Y96.647 E-.94864
;WIPE_END
G1 Z.35 F720
G1 X118.105 Y92.963 F12000
G1 Z.2 F720
G1 E1 F1500
M204 P600
;TYPE:Solid infill
;WIDTH:0.503878
G1 F1200
G1 X118.832 Y93.69 E.03941
G1 X118.832 Y94.341 E.02495
G1 X117.659 Y93.169 E.06356
G1 X117.007 Y93.169 E.02499
G1 X118.832 Y94.993 E.0989
G1 X118.832 Y95.645 E.02499
G1 X116.355 Y93.169 E.13424
G1 X115.703 Y93.169 E.02499
G1 X118.832 Y96.297 E.16958
G1 X118.832 Y96.949 E.02499
G1 X115.051 Y93.169 E.20492
G1 X114.399 Y93.169 E.02499
G1 X118.832 Y97.601 E.24026
G1 X118.832 Y98.253 E.02499
G1 X113.747 Y93.169 E.27561
G1 X113.096 Y93.169 E.02495
G1 X118.832 Y98.905 E.31092
G1 X118.832 Y99.557 E.02499
G1 X112.444 Y93.169 E.34626
G1 X111.792 Y93.169 E.02499
G1 X118.832 Y100.209 E.3816
G1 X118.832 Y100.86 E.02495
G1 X111.14 Y93.169 E.41692
G1 X110.488 Y93.169 E.02499
G1 X118.832 Y101.512 E.45226
G1 X118.832 Y102.164 E.02499
G1 X109.836 Y93.169 E.4876
G1 X109.184 Y93.169 E.02499
G1 X118.832 Y102.816 E.52294
G1 X118.832 Y103.468 E.02499
G1 X108.532 Y93.169 E.55829
G1 X107.88 Y93.169 E.02499
G1 X118.832 Y104.12 E.59363
G1 X118.832 Y104.772 E.02499
M73 P0 R96
G1 X107.228 Y93.169 E.62897
G1 X106.577 Y93.169 E.02495
G1 X118.832 Y105.424 E.66428
G1 X118.832 Y106.076 E.02499
G1 X105.925 Y93.169 E.69963
G1 X105.273 Y93.169 E.02499
G1 X118.832 Y106.727 E.73494
G1 X118.832 Y107.379 E.02499
G1 X104.621 Y93.169 E.77028
G1 X103.969 Y93.169 E.02499
G1 X118.832 Y108.031 E.80562
G1 X118.832 Y108.683 E.02499
G1 X103.317 Y93.169 E.84097
G1 X102.665 Y93.169 E.02499
G1 X118.832 Y109.335 E.87631
G1 X118.832 Y109.987 E.02499
G1 X102.013 Y93.169 E.91165
G1 X101.361 Y93.169 E.02499
G1 X118.832 Y110.639 E.94699
G1 X118.832 Y111.291 E.02499
G1 X100.709 Y93.169 E.98233
G1 X100.057 Y93.169 E.02499
G1 X118.832 Y111.943 E1.01767
G1 X118.832 Y112.594 E.02495
G1 X99.406 Y93.168 E1.05299
G1 X98.754 Y93.168 E.02499
G1 X118.832 Y113.246 E1.08833
G1 X118.832 Y113.898 E.02499
G1 X98.102 Y93.168 E1.12367
G1 X97.45 Y93.168 E.02499
G1 X118.832 Y114.55 E1.15901
G1 X118.832 Y115.202 E.02499
G1 X96.798 Y93.168 E1.19436
G1 X96.146 Y93.168 E.02499
G1 X118.832 Y115.854 E1.2297
G1 X118.832 Y116.506 E.02499
G1 X95.494 Y93.168 E1.26504
G1 X95.168 Y93.168 E.0125
G1 X95.168 Y93.495 E.01253
G1 X118.505 Y116.832 E1.26499
G1 X117.854 Y116.832 E.02495
G1 X95.168 Y94.146 E1.2297
G1 X95.168 Y94.798 E.02499
G1 X117.202 Y116.832 E1.19436
G1 X116.55 Y116.832 E.02499
G1 X95.168 Y95.45 E1.15901
G1 X95.168 Y96.102 E.02499
G1 X115.898 Y116.832 E1.12367
G1 X115.246 Y116.832 E.02499
M73 P1 R96
G1 X95.168 Y96.754 E1.08833
G1 X95.168 Y97.406 E.02499
G1 X114.594 Y116.832 E1.05299
G1 X113.942 Y116.832 E.02499
G1 X95.168 Y98.058 E1.01765
G1 X95.168 Y98.71 E.02499
G1 X113.29 Y116.832 E.98231
G1 X112.638 Y116.832 E.02499
G1 X95.168 Y99.362 E.94696
G1 X95.168 Y100.014 E.02499
G1 X111.986 Y116.832 E.91162
G1 X111.335 Y116.832 E.02495
G1 X95.168 Y100.665 E.87633
G1 X95.168 Y101.317 E.02499
G1 X110.683 Y116.832 E.84099
G1 X110.031 Y116.832 E.02499
G1 X95.168 Y101.969 E.80565
G1 X95.168 Y102.621 E.02499
G1 X109.379 Y116.832 E.77031
G1 X108.727 Y116.832 E.02499
G1 X95.168 Y103.273 E.73497
G1 X95.168 Y103.925 E.02499
G1 X108.075 Y116.832 E.69963
G1 X107.423 Y116.832 E.02499
G1 X95.168 Y104.577 E.66428
G1 X95.168 Y105.229 E.02499
G1 X106.771 Y116.832 E.62894
G1 X106.119 Y116.832 E.02499
G1 X95.168 Y105.881 E.5936
G1 X95.168 Y106.532 E.02495
G1 X105.468 Y116.832 E.55831
G1 X104.816 Y116.832 E.02499
G1 X95.168 Y107.184 E.52297
G1 X95.168 Y107.836 E.02499
G1 X104.164 Y116.832 E.48763
G1 X103.512 Y116.832 E.02499
G1 X95.168 Y108.488 E.45229
G1 X95.168 Y109.14 E.02499
G1 X102.86 Y116.832 E.41695
G1 X102.208 Y116.832 E.02499
G1 X95.168 Y109.792 E.3816
G1 X95.168 Y110.444 E.02499
G1 X101.556 Y116.832 E.34626
G1 X100.904 Y116.832 E.02499
G1 X95.168 Y111.096 E.31092
G1 X95.168 Y111.748 E.02499
G1 X100.252 Y116.832 E.27558
G1 X99.601 Y116.832 E.02495
G1 X95.168 Y112.399 E.24029
G1 X95.168 Y113.051 E.02499
G1 X98.949 Y116.832 E.20495
G1 X98.297 Y116.832 E.02499
G1 X95.168 Y113.703 E.16961
G1 X95.168 Y114.355 E.02499
G1 X97.645 Y116.832 E.13427
G1 X96.993 Y116.832 E.02499
G1 X95.168 Y115.007 E.09892
G1 X95.168 Y115.659 E.02499
G1 X96.341 Y116.832 E.06358
G1 X95.689 Y116.832 E.02499
G1 X94.963 Y116.105 E.03938
M204 P1000
; stop printing object capuchon 30mm alu motedis haut.STL id:0 copy 0
; printing object capuchon 30mm alu motedis haut.STL id:1 copy 0
;WIPE_START
G1 F9600
G1 X95.689 Y116.832 E-.21351
G1 X96.341 Y116.832 E-.13549
G1 X95.168 Y115.659 E-.34473
G1 X95.168 Y115.007 E-.13549
G1 X95.749 Y115.588 E-.17078
;WIPE_END
G1 Z.35 F720
G1 X155.243 Y92.757 F12000
G1 Z.2 F720
M73 P1 R95
G1 E1 F1500
M204 P600
;TYPE:Perimeter
;WIDTH:0.499999
G1 F1200
G1 X155.243 Y117.243 E.93062
G1 X130.757 Y117.243 E.93062
G1 X130.757 Y92.757 E.93062
G1 X155.183 Y92.757 E.92834
M204 P1000
G1 X155.7 Y92.3 F12000
M204 P600
G1 F1200
G1 X155.7 Y117.7 E.96536
G1 X130.3 Y117.7 E.96536
G1 X130.3 Y92.3 E.96536
G1 X155.64 Y92.3 E.96308
M204 P1000
G1 X156.088 Y91.884 F12000
M204 P600
;TYPE:External perimeter
G1 F1200
G1 X156.157 Y92.082 E.00797
G1 X156.157 Y117.918 E.98193
G1 X156.133 Y118.068 E.00577
G1 X155.955 Y118.157 E.00756
G1 X130.067 Y118.157 E.98391
G1 X129.925 Y118.128 E.00551
G1 X129.843 Y117.961 E.00707
G1 X129.843 Y92.067 E.98413
G1 X129.872 Y91.925 E.00551
G1 X130.039 Y91.843 E.00707
G1 X155.919 Y91.843 E.9836
G1 X156.03 Y91.87 E.00434
M204 P1000
G1 X156.026 Y92.084 F12000
;WIPE_START
G1 F9600
G1 X156.157 Y92.082 E-.05136
G1 X156.157 Y96.647 E-.94864
;WIPE_END
G1 Z.35 F720
G1 X154.105 Y92.963 F12000
G1 Z.2 F720
G1 E1 F1500
M204 P600
;TYPE:Solid infill
;WIDTH:0.503878
G1 F1200
G1 X154.832 Y93.69 E.03941
G1 X154.832 Y94.341 E.02495
G1 X153.659 Y93.169 E.06356
G1 X153.007 Y93.169 E.02499
G1 X154.832 Y94.993 E.0989
G1 X154.832 Y95.645 E.02499
G1 X152.355 Y93.169 E.13424
G1 X151.703 Y93.169 E.02499
G1 X154.832 Y96.297 E.16958
G1 X154.832 Y96.949 E.02499
G1 X151.051 Y93.169 E.20492
G1 X150.399 Y93.169 E.02499
G1 X154.832 Y97.601 E.24026
G1 X154.832 Y98.253 E.02499
G1 X149.747 Y93.169 E.27561
G1 X149.096 Y93.169 E.02495
G1 X154.832 Y98.905 E.31092
G1 X154.832 Y99.557 E.02499
G1 X148.444 Y93.169 E.34626
G1 X147.792 Y93.169 E.02499
G1 X154.832 Y100.209 E.3816
G1 X154.832 Y100.86 E.02495
G1 X147.14 Y93.169 E.41692
G1 X146.488 Y93.169 E.02499
G1 X154.832 Y101.512 E.45226
G1 X154.832 Y102.164 E.02499
G1 X145.836 Y93.169 E.4876
G1 X145.184 Y93.169 E.02499
G1 X154.832 Y102.816 E.52294
G1 X154.832 Y103.468 E.02499
G1 X144.532 Y93.169 E.55829
G1 X143.88 Y93.169 E.02499
G1 X154.832 Y104.12 E.59363
G1 X154.832 Y104.772 E.02499
G1 X143.228 Y93.169 E.62897
G1 X142.576 Y93.169 E.02499
G1 X154.832 Y105.424 E.66431
G1 X154.832 Y106.076 E.02499
G1 X141.925 Y93.169 E.69963
G1 X141.273 Y93.169 E.02499
G1 X154.832 Y106.727 E.73494
G1 X154.832 Y107.379 E.02499
G1 X140.621 Y93.169 E.77028
G1 X139.969 Y93.169 E.02499
G1 X154.832 Y108.031 E.80562
G1 X154.832 Y108.683 E.02499
G1 X139.317 Y93.169 E.84097
G1 X138.665 Y93.169 E.02499
G1 X154.832 Y109.335 E.87631
G1 X154.832 Y109.987 E.02499
M73 P2 R95
G1 X138.013 Y93.169 E.91165
G1 X137.361 Y93.169 E.02499
G1 X154.832 Y110.639 E.94699
G1 X154.832 Y111.291 E.02499
G1 X136.709 Y93.169 E.98233
G1 X136.057 Y93.169 E.02499
G1 X154.832 Y111.943 E1.01767
G1 X154.832 Y112.595 E.02499
G1 X135.406 Y93.168 E1.05302
G1 X134.754 Y93.168 E.02499
G1 X154.832 Y113.246 E1.08833
G1 X154.832 Y113.898 E.02499
G1 X134.102 Y93.168 E1.12367
G1 X133.45 Y93.168 E.02499
G1 X154.832 Y114.55 E1.15901
G1 X154.832 Y115.202 E.02499
G1 X132.798 Y93.168 E1.19436
G1 X132.146 Y93.168 E.02499
G1 X154.832 Y115.854 E1.2297
G1 X154.832 Y116.506 E.02499
G1 X131.494 Y93.168 E1.26504
G1 X131.168 Y93.168 E.0125
G1 X131.168 Y93.495 E.01253
G1 X154.505 Y116.832 E1.26499
G1 X153.854 Y116.832 E.02495
G1 X131.168 Y94.146 E1.2297
G1 X131.168 Y94.798 E.02499
G1 X153.202 Y116.832 E1.19436
G1 X152.55 Y116.832 E.02499
G1 X131.168 Y95.45 E1.15901
G1 X131.168 Y96.102 E.02499
G1 X151.898 Y116.832 E1.12367
G1 X151.246 Y116.832 E.02499
G1 X131.168 Y96.754 E1.08833
G1 X131.168 Y97.406 E.02499
G1 X150.594 Y116.832 E1.05299
G1 X149.942 Y116.832 E.02499
G1 X131.168 Y98.058 E1.01765
G1 X131.168 Y98.71 E.02499
G1 X149.29 Y116.832 E.98231
G1 X148.638 Y116.832 E.02499
G1 X131.168 Y99.362 E.94696
G1 X131.168 Y100.014 E.02499
G1 X147.986 Y116.832 E.91162
G1 X147.335 Y116.832 E.02495
G1 X131.168 Y100.665 E.87633
G1 X131.168 Y101.317 E.02499
M73 P2 R94
G1 X146.683 Y116.832 E.84099
G1 X146.031 Y116.832 E.02499
G1 X131.168 Y101.969 E.80565
G1 X131.168 Y102.621 E.02499
G1 X145.379 Y116.832 E.77031
G1 X144.727 Y116.832 E.02499
G1 X131.168 Y103.273 E.73497
G1 X131.168 Y103.925 E.02499
G1 X144.075 Y116.832 E.69963
G1 X143.423 Y116.832 E.02499
G1 X131.168 Y104.577 E.66428
G1 X131.168 Y105.229 E.02499
G1 X142.771 Y116.832 E.62894
G1 X142.119 Y116.832 E.02499
G1 X131.168 Y105.881 E.5936
G1 X131.168 Y106.532 E.02495
G1 X141.468 Y116.832 E.55831
G1 X140.816 Y116.832 E.02499
G1 X131.168 Y107.184 E.52297
G1 X131.168 Y107.836 E.02499
G1 X140.164 Y116.832 E.48763
G1 X139.512 Y116.832 E.02499
G1 X131.168 Y108.488 E.45229
G1 X131.168 Y109.14 E.02499
G1 X138.86 Y116.832 E.41695
G1 X138.208 Y116.832 E.02499
G1 X131.168 Y109.792 E.3816
G1 X131.168 Y110.444 E.02499
G1 X137.556 Y116.832 E.34626
G1 X136.904 Y116.832 E.02499
G1 X131.168 Y111.096 E.31092
G1 X131.168 Y111.748 E.02499
G1 X136.252 Y116.832 E.27558
G1 X135.601 Y116.832 E.02495
G1 X131.168 Y112.399 E.24029
G1 X131.168 Y113.051 E.02499
G1 X134.949 Y116.832 E.20495
G1 X134.297 Y116.832 E.02499
G1 X131.168 Y113.703 E.16961
G1 X131.168 Y114.355 E.02499
G1 X133.645 Y116.832 E.13427
G1 X132.993 Y116.832 E.02499
G1 X131.168 Y115.007 E.09892
G1 X131.168 Y115.659 E.02499
G1 X132.341 Y116.832 E.06358
G1 X131.689 Y116.832 E.02499
G1 X130.963 Y116.105 E.03938
M204 P1000
; stop printing object capuchon 30mm alu motedis haut.STL id:1 copy 0
;LAYER_CHANGE
;Z:0.3
;HEIGHT:0.1
;BEFORE_LAYER_CHANGE
G92 E0.0
;0.3


;WIPE_START
G1 F9600
G1 X131.689 Y116.832 E-.21351
G1 X132.341 Y116.832 E-.13549
G1 X131.168 Y115.659 E-.34473
G1 X131.168 Y115.007 E-.13549
G1 X131.749 Y115.588 E-.17078
;WIPE_END
G1 Z.35 F720
;AFTER_LAYER_CHANGE
;0.3
M104 S240 ; set temperature
M140 S90 ; set bed temperature
; printing object capuchon 30mm alu motedis haut.STL id:0 copy 0
G1 X119.993 Y92.006 F12000
G1 Z.3 F720
G1 E1 F1500
M204 P700
;TYPE:Perimeter
;WIDTH:0.399999
G1 F2700
G1 X120.004 Y92.082 E.00121
G1 X120.004 Y117.918 E.4066
G1 X119.994 Y117.994 E.00121
G1 X119.925 Y118.004 E.0011
G1 X94.092 Y118.004 E.40656
G1 X94.034 Y117.996 E.00092
G1 X93.996 Y117.95 E.00094
G1 X93.996 Y92.092 E.40695
G1 X94.004 Y92.034 E.00092
G1 X94.05 Y91.996 E.00094
G1 X119.934 Y91.998 E.40736
M204 P1000
G1 X120.261 Y91.747 F12000
M204 P700
G1 F2700
G1 X120.333 Y91.835 E.00179
G1 X120.383 Y92.082 E.00397
G1 X120.383 Y117.918 E.4066
G1 X120.357 Y118.116 E.00314
G1 X120.221 Y118.304 E.00365
G1 X119.955 Y118.383 E.00437
G1 X94.092 Y118.383 E.40703
G1 X93.872 Y118.352 E.0035
G1 X93.676 Y118.187 E.00403
G1 X93.617 Y117.975 E.00346
G1 X93.617 Y92.092 E.40734
G1 X93.648 Y91.872 E.0035
G1 X93.813 Y91.676 E.00403
G1 X94.025 Y91.617 E.00346
G1 X119.967 Y91.618 E.40827
G1 X120.223 Y91.7 E.00423
M204 P1000
G1 X120.553 Y91.505 F12000
M204 P500
;TYPE:External perimeter
G1 F900

G1 X120.722 Y91.765 E.00488
G1 X120.762 Y92.082 E.00503
G1 X120.762 Y92.836 E.01187
G1 X120.762 Y117.164 E.38287
G1 X120.762 Y117.918 E.01187
G1 X120.722 Y118.235 E.00503
M73 P3 R94
G1 X120.53 Y118.53 E.00554
G1 X120.235 Y118.722 E.00554
G1 X119.985 Y118.762 E.00398
G1 X119.23 Y118.762 E.01188
G1 X94.846 Y118.762 E.38375
G1 X94.092 Y118.762 E.01187
G1 X93.741 Y118.713 E.00558
G1 X93.512 Y118.581 E.00416
G1 X93.343 Y118.379 E.00414
G1 X93.238 Y117.991 E.00633
G1 X93.238 Y117.237 E.01187
G1 X93.238 Y92.846 E.38386
G1 X93.238 Y92.092 E.01187
G1 X93.287 Y91.741 E.00558
G1 X93.419 Y91.512 E.00416
G1 X93.621 Y91.343 E.00414
G1 X94.009 Y91.238 E.00633
G1 X94.763 Y91.239 E.01187
G1 X119.244 Y91.239 E.38528
G1 X119.997 Y91.24 E.01185
G1 X120.338 Y91.331 E.00555
G1 X120.513 Y91.461 E.00343

M204 P1000
G1 X120.465 Y91.802 F12000
;WIPE_START
G1 F9600
G1 X120.722 Y91.765 E-.07666
G1 X120.762 Y92.082 E-.0664
G1 X120.762 Y96.206 E-.85694
;WIPE_END
G1 Z.45 F720
G1 X94.439 Y92.367 F12000
G1 Z.3 F720
G1 E1 F1500
M204 P1250
;TYPE:Solid infill
;WIDTH:0.491836
G1 F4800
G1 X94.397 Y92.325 E.00116
G1 X94.341 Y92.341 E.00114
G1 X94.325 Y92.397 E.00114
G1 X94.367 Y92.439 E.00116
G1 X94.424 Y92.424 E.00115
;WIDTH:0.399999
G1 X95.028 Y92.336 E.00961
