; generated by PrusaSlicer 2.6.0+win64 on 2023-08-26 at 14:46:10 UTC


;
;

;
;

;
;
; 

; external perimeters extrusion width = 0.45mm
; perimeters extrusion width = 0.45mm
; infill extrusion width = 0.45mm
; solid infill extrusion width = 0.45mm
; top infill extrusion width = 0.40mm
; first layer extrusion width = 0.50mm

; external perimeters extrusion width = 0.45mm
; perimeters extrusion width = 0.45mm
; infill extrusion width = 0.45mm
; solid infill extrusion width = 0.45mm
; top infill extrusion width = 0.40mm
; first layer extrusion width = 0.50mm

M73 P0 R17
M201 X2500 Y2500 Z200 E2500 ; sets maximum accelerations, mm/sec^2
M203 X200 Y200 Z40 E100 ; sets maximum feedrates, mm / sec
M204 P2000 R1200 T2000 ; sets acceleration (P, T) and retract acceleration (R), mm/sec^2
M205 X8.00 Y8.00 Z2.00 E10.00 ; sets the jerk limits, mm/sec
M205 S0 T0 ; sets the minimum extruding and travel feed rate, mm/sec
;TYPE:Custom
M17 ; enable steppers
M862.3 P "MK4" ; printer model check
M862.1 P0.4 ; nozzle diameter check
M555 X97.8354 Y91.8354 W54.3292 H22.3292

G90 ; use absolute coordinates
M83 ; extruder relative mode

M140 S85 ; set bed temp

M104 S170 ; set extruder temp for bed leveling
M109 R170 ; wait for temp


M84 E ; turn off E motor

G28 ; home all without mesh bed level

G1 X42 Y-4 Z5 F4800

M302 S160 ; lower cold extrusion limit to 160C


G1 E-2 F2400 ; retraction


M84 E ; turn off E motor

G29 P9 X10 Y-4 W32 H4



G0 Z40 F10000

M190 S85 ; wait for bed temp

M107

;
; MBL
;
M84 E ; turn off E motor
G29 P1 ; invalidate mbl & probe print area
G29 P1 X0 Y0 W50 H20 C ; probe near purge place
G29 P3.2 ; interpolate mbl probes
G29 P3.13 ; extrapolate mbl outside probe area
G29 A ; activate mbl

; prepare for purge
M104 S230
G0 X0 Y-4 Z15 F4800 ; move away and ready for the purge
M109 S230

G92 E0
M569 S0 E ; set spreadcycle mode for extruder

;
; Extrude purge line
;
G92 E0 ; reset extruder position
G1 E2 F2400 ; deretraction after the initial one before nozzle cleaning
G0 E7 X15 Z0.2 F500 ; purge
G0 X25 E4 F500 ; purge
G0 X35 E4 F650 ; purge
G0 X45 E4 F800 ; purge
G0 X48 Z0.05 F8000 ; wipe, move close to the bed
G0 X51 Z0.2 F8000 ; wipe, move quickly away from the bed

G92 E0
M221 S100 ; set flow to 100%
G21 ; set units to millimeters
G90 ; use absolute coordinates
M83 ; use relative distances for extrusion
M900 K0.07 ; Filament gcode



M142 S36 ; set heatbreak target temp
M107
;LAYER_CHANGE
;Z:0.2
;HEIGHT:0.2
;BEFORE_LAYER_CHANGE
G92 E0.0
;0.2


G1 E-1 F2100
G1 Z.15 F720
G1 Z.2
;AFTER_LAYER_CHANGE
;0.2
; printing object capuchon 30mm alu motedis haut.STL id:0 copy 0
G1 Z.35
G1 X98.742 Y96.743 F12000
G1 Z.2 F720
G1 E1 F1500
M204 P600
;TYPE:Perimeter
;WIDTH:0.499999
G1 F1200
G1 X115.258 Y96.746 E.62771
G1 X115.258 Y113.258 E.62756
G1 X98.742 Y113.258 E.62771
G1 X98.742 Y96.803 E.62539
M204 P1000
G1 X98.303 Y96.332 F12000
M204 P600
;TYPE:External perimeter
G1 F1200
G1 X98.363 Y96.285 E.0029
G1 X115.61 Y96.289 E.65549
G1 X115.665 Y96.304 E.00217
G1 X115.715 Y96.394 E.00391
G1 X115.715 Y113.589 E.65352
M73 P1 R17
G1 X115.706 Y113.636 E.00182
G1 X115.613 Y113.715 E.00464
G1 X98.403 Y113.715 E.65409
G1 X98.332 Y113.697 E.00278
G1 X98.285 Y113.637 E.0029
G1 X98.288 Y96.39 E.65549
M204 P1000
G1 X98.379 Y96.338 F12000
;WIPE_START
G1 F9600
G1 X98.363 Y96.285 E-.02682
G1 X103.046 Y96.286 E-.97318
;WIPE_END
G1 Z.35 F720
G1 X114.109 Y96.952 F12000
G1 Z.2 F720
G1 E1 F1500
M204 P600
;TYPE:Solid infill
;WIDTH:0.508962
G1 F1200
G1 X114.846 Y97.689 E.04039
G1 X114.846 Y98.348 E.02554
G1 X113.655 Y97.157 E.06527
G1 X112.996 Y97.157 E.02554
G1 X114.846 Y99.007 E.10139
G1 X114.846 Y99.666 E.02554
G1 X112.337 Y97.157 E.1375
G1 X111.677 Y97.157 E.02558
G1 X114.846 Y100.326 E.17367
G1 X114.846 Y100.985 E.02554
G1 X111.018 Y97.157 E.20979
G1 X110.359 Y97.157 E.02554
G1 X114.846 Y101.644 E.2459
G1 X114.846 Y102.303 E.02554
G1 X109.7 Y97.156 E.28204
G1 X109.041 Y97.156 E.02554
G1 X114.846 Y102.962 E.31816
G1 X114.846 Y103.621 E.02554
G1 X108.381 Y97.156 E.3543
G1 X107.722 Y97.156 E.02554
G1 X114.846 Y104.28 E.39042
G1 X114.846 Y104.939 E.02554
G1 X107.063 Y97.156 E.42653
G1 X106.404 Y97.156 E.02554
G1 X114.846 Y105.598 E.46265
G1 X114.846 Y106.257 E.02554
G1 X105.744 Y97.155 E.49882
G1 X105.085 Y97.155 E.02554
G1 X114.846 Y106.916 E.53493
G1 X114.846 Y107.575 E.02554
G1 X104.426 Y97.155 E.57105
G1 X103.767 Y97.155 E.02554
G1 X114.846 Y108.235 E.60719
G1 X114.846 Y108.894 E.02554
G1 X103.107 Y97.155 E.64333
G1 X102.448 Y97.155 E.02554
M73 P2 R17
G1 X114.846 Y109.553 E.67945
G1 X114.846 Y110.212 E.02554
G1 X101.789 Y97.155 E.71556
G1 X101.13 Y97.154 E.02554
G1 X114.846 Y110.871 E.7517
G1 X114.846 Y111.53 E.02554
G1 X100.471 Y97.154 E.78782
G1 X99.811 Y97.154 E.02558
G1 X114.846 Y112.189 E.82396
G1 X114.846 Y112.846 E.02546
G1 X99.154 Y97.156 E.85991
G1 X99.154 Y97.815 E.02554
G1 X114.185 Y112.846 E.82374
G1 X113.526 Y112.846 E.02554
G1 X99.154 Y98.474 E.78763
G1 X99.154 Y99.133 E.02554
G1 X112.867 Y112.846 E.75151
G1 X112.208 Y112.846 E.02554
G1 X99.154 Y99.792 E.7154
G1 X99.154 Y100.451 E.02554
G1 X111.549 Y112.846 E.67928
G1 X110.89 Y112.846 E.02554
M73 P3 R17
G1 X99.154 Y101.11 E.64317
G1 X99.154 Y101.769 E.02554
G1 X110.231 Y112.846 E.60705
G1 X109.572 Y112.846 E.02554
G1 X99.154 Y102.428 E.57094
G1 X99.154 Y103.088 E.02558
G1 X108.912 Y112.846 E.53477
G1 X108.253 Y112.846 E.02554
G1 X99.154 Y103.747 E.49865
G1 X99.154 Y104.406 E.02554
G1 X107.594 Y112.846 E.46254
G1 X106.935 Y112.846 E.02554
G1 X99.154 Y105.065 E.42642
G1 X99.154 Y105.724 E.02554
G1 X106.276 Y112.846 E.39031
G1 X105.617 Y112.846 E.02554
G1 X99.154 Y106.383 E.35419
G1 X99.154 Y107.042 E.02554
G1 X104.958 Y112.846 E.31808
G1 X104.299 Y112.846 E.02554
G1 X99.154 Y107.701 E.28196
G1 X99.154 Y108.36 E.02554
G1 X103.64 Y112.846 E.24585
G1 X102.981 Y112.846 E.02554
G1 X99.154 Y109.019 E.20973
G1 X99.154 Y109.678 E.02554
G1 X102.322 Y112.846 E.17362
G1 X101.663 Y112.846 E.02554
M73 P4 R17
G1 X99.154 Y110.337 E.1375
G1 X99.154 Y110.997 E.02558
G1 X101.004 Y112.846 E.10136
G1 X100.344 Y112.846 E.02558
G1 X99.154 Y111.656 E.06522
G1 X99.154 Y112.315 E.02554
G1 X99.891 Y113.052 E.04039
M204 P1000
; stop printing object capuchon 30mm alu motedis haut.STL id:0 copy 0
; printing object capuchon 30mm alu motedis haut.STL id:1 copy 0
;WIPE_START
G1 F9600
G1 X99.154 Y112.315 E-.2166
G1 X99.154 Y111.656 E-.13695
G1 X100.344 Y112.846 E-.34973
G1 X101.004 Y112.846 E-.13716
G1 X100.461 Y112.303 E-.15956
;WIPE_END
G1 Z.35 F720
G1 X134.742 Y96.743 F12000
G1 Z.2 F720
G1 E1 F1500
M204 P600
;TYPE:Perimeter
;WIDTH:0.499999
G1 F1200
G1 X151.258 Y96.746 E.62771
G1 X151.258 Y113.258 E.62756
G1 X134.742 Y113.258 E.62771
G1 X134.742 Y96.803 E.62539
M204 P1000
G1 X134.303 Y96.332 F12000
M204 P600
;TYPE:External perimeter
G1 F1200
G1 X134.363 Y96.285 E.0029
G1 X151.61 Y96.289 E.65549
G1 X151.665 Y96.304 E.00217
G1 X151.715 Y96.394 E.00391
G1 X151.715 Y113.589 E.65352
G1 X151.706 Y113.636 E.00182
G1 X151.613 Y113.715 E.00464
G1 X134.403 Y113.715 E.65409
G1 X134.332 Y113.697 E.00278
G1 X134.285 Y113.637 E.0029
G1 X134.288 Y96.39 E.65549
M204 P1000
G1 X134.379 Y96.338 F12000
;WIPE_START
G1 F9600
G1 X134.363 Y96.285 E-.02682
G1 X139.046 Y96.286 E-.97318
;WIPE_END
G1 Z.35 F720
G1 X150.109 Y96.952 F12000
G1 Z.2 F720
G1 E1 F1500
M204 P600
;TYPE:Solid infill
;WIDTH:0.508962
G1 F1200
G1 X150.846 Y97.689 E.04039
G1 X150.846 Y98.348 E.02554
G1 X149.655 Y97.157 E.06527
G1 X148.996 Y97.157 E.02554
G1 X150.846 Y99.007 E.10139
G1 X150.846 Y99.666 E.02554
G1 X148.337 Y97.157 E.1375
G1 X147.677 Y97.157 E.02558
G1 X150.846 Y100.326 E.17367
G1 X150.846 Y100.985 E.02554
G1 X147.018 Y97.157 E.20979
G1 X146.359 Y97.157 E.02554
G1 X150.846 Y101.644 E.2459
G1 X150.846 Y102.303 E.02554
G1 X145.7 Y97.156 E.28204
G1 X145.041 Y97.156 E.02554
M73 P5 R17
G1 X150.846 Y102.962 E.31816
G1 X150.846 Y103.621 E.02554
G1 X144.381 Y97.156 E.3543
G1 X143.722 Y97.156 E.02554
G1 X150.846 Y104.28 E.39042
G1 X150.846 Y104.939 E.02554
G1 X143.063 Y97.156 E.42653
G1 X142.404 Y97.156 E.02554
G1 X150.846 Y105.598 E.46265
G1 X150.846 Y106.257 E.02554
G1 X141.744 Y97.155 E.49882
G1 X141.085 Y97.155 E.02554
G1 X150.846 Y106.916 E.53493
G1 X150.846 Y107.575 E.02554
G1 X140.426 Y97.155 E.57105
G1 X139.767 Y97.155 E.02554
G1 X150.846 Y108.235 E.60719
G1 X150.846 Y108.894 E.02554
G1 X139.107 Y97.155 E.64333
G1 X138.448 Y97.155 E.02554
M73 P5 R16
G1 X150.846 Y109.553 E.67945
G1 X150.846 Y110.212 E.02554
G1 X137.789 Y97.155 E.71556
G1 X137.13 Y97.154 E.02554
G1 X150.846 Y110.871 E.7517
G1 X150.846 Y111.53 E.02554
G1 X136.471 Y97.154 E.78782
G1 X135.811 Y97.154 E.02558
G1 X150.846 Y112.189 E.82396
G1 X150.846 Y112.846 E.02546
G1 X135.154 Y97.156 E.85991
G1 X135.154 Y97.815 E.02554
G1 X150.185 Y112.846 E.82374
G1 X149.526 Y112.846 E.02554
M73 P6 R16
G1 X135.154 Y98.474 E.78763
G1 X135.154 Y99.133 E.02554
G1 X148.867 Y112.846 E.75151
G1 X148.208 Y112.846 E.02554
G1 X135.154 Y99.792 E.7154
G1 X135.154 Y100.451 E.02554
G1 X147.549 Y112.846 E.67928
G1 X146.89 Y112.846 E.02554
G1 X135.154 Y101.11 E.64317
G1 X135.154 Y101.769 E.02554
G1 X146.231 Y112.846 E.60705
G1 X145.572 Y112.846 E.02554
G1 X135.154 Y102.428 E.57094
G1 X135.154 Y103.088 E.02558
G1 X144.912 Y112.846 E.53477
G1 X144.253 Y112.846 E.02554
G1 X135.154 Y103.747 E.49865
G1 X135.154 Y104.406 E.02554
G1 X143.594 Y112.846 E.46254
G1 X142.935 Y112.846 E.02554
G1 X135.154 Y105.065 E.42642
G1 X135.154 Y105.724 E.02554
M73 P7 R16
G1 X142.276 Y112.846 E.39031
G1 X141.617 Y112.846 E.02554
G1 X135.154 Y106.383 E.35419
G1 X135.154 Y107.042 E.02554
G1 X140.958 Y112.846 E.31808
G1 X140.299 Y112.846 E.02554
G1 X135.154 Y107.701 E.28196
G1 X135.154 Y108.36 E.02554
G1 X139.64 Y112.846 E.24585
G1 X138.981 Y112.846 E.02554
G1 X135.154 Y109.019 E.20973
G1 X135.154 Y109.678 E.02554
G1 X138.322 Y112.846 E.17362
G1 X137.663 Y112.846 E.02554
G1 X135.154 Y110.337 E.1375
G1 X135.154 Y110.997 E.02558
G1 X137.003 Y112.846 E.10133
G1 X136.344 Y112.846 E.02554
G1 X135.154 Y111.656 E.06522
G1 X135.154 Y112.315 E.02554
G1 X135.891 Y113.052 E.04039
M204 P1000
; stop printing object capuchon 30mm alu motedis haut.STL id:1 copy 0
;LAYER_CHANGE
;Z:0.4
;HEIGHT:0.2
;BEFORE_LAYER_CHANGE
G92 E0.0
;0.4


;WIPE_START
G1 F9600
G1 X135.154 Y112.315 E-.2166
G1 X135.154 Y111.656 E-.13695
G1 X136.344 Y112.846 E-.34973
G1 X137.003 Y112.846 E-.13695
G1 X136.459 Y112.302 E-.15977
;WIPE_END
G1 Z.35 F720
G1 Z.4
;AFTER_LAYER_CHANGE
;0.4
M104 S240 ; set temperature
M140 S90 ; set bed temperature
; printing object capuchon 30mm alu motedis haut.STL id:0 copy 0
G1 Z.55
G1 X98.15 Y96.324 F12000
G1 Z.4 F720
G1 E1 F1500
M204 P900
;TYPE:Perimeter
;WIDTH:0.449999
G1 F2700
G1 X98.181 Y96.206 E.00413
G1 X98.361 Y96.126 E.00667
G1 X115.597 Y96.126 E.58342
G1 X115.697 Y96.138 E.00341
G1 X115.829 Y96.216 E.00519
G1 X115.874 Y96.404 E.00654
G1 X115.874 Y113.618 E.58267
G1 X115.806 Y113.806 E.00677
G1 X115.618 Y113.874 E.00677
G1 X98.413 Y113.874 E.58237
G1 X98.206 Y113.819 E.00725
G1 X98.126 Y113.639 E.00667
G1 X98.126 Y96.413 E.58308
G1 X98.134 Y96.382 E.00108
M204 P1000
G1 X97.755 Y96.21 F12000
M204 P700
;TYPE:External perimeter
G1 F921.486

G1 X97.812 Y96.032 E.00633
G1 F900
G1 X98.028 Y95.804 E.01063
G1 X98.343 Y95.718 E.01105
G1 X99.135 Y95.718 E.02681
G1 X114.805 Y95.719 E.53041
G1 X115.597 Y95.719 E.02681
G1 X115.856 Y95.751 E.00883
G1 X116.094 Y95.906 E.00961
G1 X116.249 Y96.144 E.00961
G1 X116.282 Y96.404 E.00887
G1 X116.282 Y97.196 E.02681
G1 X116.282 Y112.804 E.52831
G1 X116.282 Y113.596 E.02681
G1 X116.264 Y113.761 E.00562
G1 X116.162 Y114.027 E.00964
G1 X115.941 Y114.205 E.00961
G1 X115.65 Y114.282 E.01019
G1 X114.858 Y114.282 E.02681
G1 X99.205 Y114.282 E.52983
G1 X98.413 Y114.282 E.02681
G1 X98.292 Y114.271 E.00411
M73 P8 R16
G1 F907.698
G1 X98.032 Y114.188 E.00924
G1 F900
G1 X97.804 Y113.972 E.01063
G1 X97.718 Y113.657 E.01105
G1 X97.718 Y112.865 E.02681
G1 X97.718 Y97.205 E.53007
G1 X97.718 Y96.413 E.02681
G1 X97.737 Y96.267 E.00498
G1 F922.999

M204 P1000
G1 X97.933 Y96.152 F12000
G1 X98.602 Y96.525
M204 P1500
;TYPE:Solid infill
;WIDTH:0.548758
G1 F5400
G1 X98.558 Y96.48 E.00265
G1 X98.497 Y96.497 E.00266
G1 X98.48 Y96.558 E.00266
G1 X98.525 Y96.602 E.00265
G1 X98.586 Y96.586 E.00265
;WIDTH:0.449999
G1 X99.236 Y96.492 E.02223
G1 X98.426 Y97.309 E.03894
;WIDTH:0.41646
G1 X98.359 Y97.381 E.00305
;WIDTH:0.38292
G1 X98.288 Y97.362 E.00208
G1 X98.307 Y97.434 E.00211
G1 X98.348 Y97.423 E.0012
;WIDTH:0.449999
G1 X98.492 Y97.812 E.01404
G1 X99.812 Y96.492 E.06319
G1 X100.387 Y96.492 E.01946
G1 X98.492 Y98.388 E.09074
G1 X98.492 Y98.963 E.01946
G1 X100.963 Y96.492 E.11829
G1 X101.539 Y96.492 E.0195
G1 X98.492 Y99.539 E.14586
G1 X98.492 Y100.115 E.0195
G1 X102.115 Y96.492 E.17343
G1 X102.69 Y96.492 E.01946
G1 X98.492 Y100.69 E.20096
G1 X98.492 Y101.266 E.0195
G1 X103.266 Y96.492 E.22853
G1 X103.842 Y96.492 E.0195
G1 X98.492 Y101.842 E.2561
G1 X98.492 Y102.417 E.01946
G1 X104.417 Y96.492 E.28363
G1 X104.993 Y96.492 E.0195
G1 X98.492 Y102.993 E.3112
G1 X98.492 Y103.569 E.0195
G1 X105.569 Y96.492 E.33877
G1 X106.144 Y96.492 E.01946
G1 X98.492 Y104.145 E.36632
G1 X98.492 Y104.72 E.01946
G1 X106.72 Y96.492 E.39387
G1 X107.296 Y96.492 E.0195
G1 X98.492 Y105.296 E.42144
G1 X98.492 Y105.872 E.0195
G1 X107.871 Y96.492 E.44899
G1 X108.447 Y96.492 E.0195
G1 X98.492 Y106.447 E.47654
G1 X98.492 Y107.023 E.0195
G1 X109.023 Y96.492 E.50411
G1 X109.598 Y96.492 E.01946
G1 X98.492 Y107.599 E.53166
G1 X98.492 Y108.174 E.01946
G1 X110.174 Y96.492 E.55921
G1 X110.75 Y96.492 E.0195
G1 X98.492 Y108.75 E.58678
G1 X98.492 Y109.326 E.0195
G1 X111.325 Y96.492 E.61433
G1 X111.901 Y96.492 E.0195
G1 X98.492 Y109.902 E.6419
G1 X98.492 Y110.477 E.01946
G1 X112.477 Y96.492 E.66945
G1 X113.052 Y96.493 E.01946
G1 X98.492 Y111.053 E.69698
G1 X98.492 Y111.629 E.0195
G1 X113.628 Y96.493 E.72455
G1 X114.204 Y96.493 E.0195
G1 X98.492 Y112.204 E.7521
G1 X98.492 Y112.78 E.0195
G1 X114.779 Y96.493 E.77965
G1 X115.355 Y96.493 E.0195
G1 X98.492 Y113.356 E.80722
G1 X98.453 Y113.501 E.00508
;WIDTH:0.41646
G1 X98.415 Y113.645 E.00463
;WIDTH:0.38292
G1 X98.374 Y113.656 E.0012
G1 X98.355 Y113.585 E.00208
G1 X98.426 Y113.604 E.00208
;WIDTH:0.449999
G1 X98.915 Y113.508 E.01687
G1 X115.508 Y96.915 E.7943
G1 X115.508 Y97.491 E.0195
G1 X99.491 Y113.508 E.76672
G1 X100.067 Y113.508 E.0195
G1 X115.508 Y98.067 E.73915
G1 X115.508 Y98.642 E.01946
G1 X100.642 Y113.508 E.71163
G1 X101.218 Y113.508 E.0195
G1 X115.508 Y99.218 E.68405
G1 X115.508 Y99.794 E.0195
G1 X101.794 Y113.508 E.65648
G1 X102.369 Y113.508 E.01946
G1 X115.508 Y100.369 E.62896
G1 X115.508 Y100.945 E.0195
G1 X102.945 Y113.508 E.60138
G1 X103.521 Y113.508 E.0195
M73 P9 R16
G1 X115.508 Y101.521 E.57381
G1 X115.508 Y102.096 E.01946
G1 X104.096 Y113.508 E.54629
G1 X104.672 Y113.508 E.0195
G1 X115.508 Y102.672 E.51871
G1 X115.508 Y103.248 E.0195
G1 X105.248 Y113.508 E.49114
G1 X105.824 Y113.508 E.0195
G1 X115.508 Y103.824 E.46357
G1 X115.508 Y104.399 E.01946
G1 X106.399 Y113.508 E.43604
G1 X106.975 Y113.508 E.0195
G1 X115.508 Y104.975 E.40847
G1 X115.508 Y105.551 E.0195
G1 X107.551 Y113.508 E.3809
G1 X108.126 Y113.508 E.01946
G1 X115.508 Y106.126 E.35337
G1 X115.508 Y106.702 E.0195
G1 X108.702 Y113.508 E.3258
G1 X109.278 Y113.508 E.0195
G1 X115.508 Y107.278 E.29823
G1 X115.508 Y107.853 E.01946
G1 X109.853 Y113.508 E.2707
G1 X110.429 Y113.508 E.0195
G1 X115.508 Y108.429 E.24313
G1 X115.508 Y109.005 E.0195
G1 X111.005 Y113.508 E.21556
G1 X111.58 Y113.508 E.01946
G1 X115.508 Y109.58 E.18803
G1 X115.508 Y110.156 E.0195
G1 X112.156 Y113.508 E.16046
G1 X112.732 Y113.508 E.0195
G1 X115.508 Y110.732 E.13289
G1 X115.508 Y111.308 E.0195
G1 X113.308 Y113.508 E.10531
G1 X113.883 Y113.508 E.01946
G1 X115.508 Y111.883 E.07779
G1 X115.508 Y112.459 E.0195
G1 X114.459 Y113.508 E.05021
G1 X114.919 Y113.671 E.01652
;WIDTH:0.38292
G1 X114.848 Y113.652 E.00208
G1 X114.867 Y113.723 E.00208
G1 X114.908 Y113.712 E.0012
;WIDTH:0.41646
G1 X114.972 Y113.61 E.00374
;WIDTH:0.449999
G1 X115.035 Y113.508 E.00406
G1 X115.508 Y113.035 E.02264
