; generated by PrusaSlicer 2.6.0+win64 on 2023-08-26 at 07:29:56 UTC


;
;

;
;

;
;
; 

; external perimeters extrusion width = 0.45mm
; perimeters extrusion width = 0.45mm
; infill extrusion width = 0.45mm
; solid infill extrusion width = 0.45mm
; top infill extrusion width = 0.40mm
; first layer extrusion width = 0.50mm

M73 P0 R11
M201 X2500 Y2500 Z200 E2500 ; sets maximum accelerations, mm/sec^2
M203 X200 Y200 Z40 E100 ; sets maximum feedrates, mm / sec
M204 P2000 R1200 T2000 ; sets acceleration (P, T) and retract acceleration (R), mm/sec^2
M205 X8.00 Y8.00 Z2.00 E10.00 ; sets the jerk limits, mm/sec
M205 S0 T0 ; sets the minimum extruding and travel feed rate, mm/sec
;TYPE:Custom
M17 ; enable steppers
M862.3 P "MK4" ; printer model check
M862.1 P0.4 ; nozzle diameter check
M555 X115.835 Y91.8354 W32 H22.3292

G90 ; use absolute coordinates
M83 ; extruder relative mode

M140 S85 ; set bed temp

M104 S170 ; set extruder temp for bed leveling
M109 R170 ; wait for temp


M84 E ; turn off E motor

G28 ; home all without mesh bed level

G1 X42 Y-4 Z5 F4800

M302 S160 ; lower cold extrusion limit to 160C


G1 E-2 F2400 ; retraction


M84 E ; turn off E motor

G29 P9 X10 Y-4 W32 H4



G0 Z40 F10000

M190 S85 ; wait for bed temp

M107

;
; MBL
;
M84 E ; turn off E motor
G29 P1 ; invalidate mbl & probe print area
G29 P1 X0 Y0 W50 H20 C ; probe near purge place
G29 P3.2 ; interpolate mbl probes
G29 P3.13 ; extrapolate mbl outside probe area
G29 A ; activate mbl

; prepare for purge
M104 S230
G0 X0 Y-4 Z15 F4800 ; move away and ready for the purge
M109 S230

G92 E0
M569 S0 E ; set spreadcycle mode for extruder

;
; Extrude purge line
;
G92 E0 ; reset extruder position
G1 E2 F2400 ; deretraction after the initial one before nozzle cleaning
G0 E7 X15 Z0.2 F500 ; purge
G0 X25 E4 F500 ; purge
G0 X35 E4 F650 ; purge
G0 X45 E4 F800 ; purge
G0 X48 Z0.05 F8000 ; wipe, move close to the bed
G0 X51 Z0.2 F8000 ; wipe, move quickly away from the bed

G92 E0
M221 S100 ; set flow to 100%
G21 ; set units to millimeters
G90 ; use absolute coordinates
M83 ; use relative distances for extrusion
M900 K0.07 ; Filament gcode



M142 S36 ; set heatbreak target temp
M107
;LAYER_CHANGE
;Z:0.2
;HEIGHT:0.2
;BEFORE_LAYER_CHANGE
G92 E0.0
;0.2


G1 E-1 F2100
G1 Z.15 F720
G1 Z.2
;AFTER_LAYER_CHANGE
;0.2
; printing object capuchon 30mm alu motedis.STL id:0 copy 0
G1 Z.35
G1 X116.742 Y96.743 F12000
M73 P1 R11
G1 Z.2 F720
M73 P1 R10
G1 E1 F1500
M204 P600
;TYPE:Perimeter
;WIDTH:0.499999
G1 F1200
G1 X133.258 Y96.746 E.62771
G1 X133.258 Y113.258 E.62756
G1 X116.742 Y113.258 E.62771
G1 X116.742 Y96.803 E.62539
M204 P1000
G1 X116.303 Y96.332 F12000
M204 P600
;TYPE:External perimeter
G1 F1200
G1 X116.363 Y96.285 E.0029
G1 X133.61 Y96.289 E.65549
G1 X133.665 Y96.304 E.00217
G1 X133.715 Y96.394 E.00391
G1 X133.715 Y113.589 E.65352
G1 X133.706 Y113.636 E.00182
G1 X133.613 Y113.715 E.00464
G1 X116.403 Y113.715 E.65409
G1 X116.332 Y113.697 E.00278
G1 X116.285 Y113.637 E.0029
G1 X116.288 Y96.39 E.65549
M204 P1000
M73 P2 R10
G1 X116.379 Y96.338 F12000
;WIPE_START
G1 F9600
G1 X116.363 Y96.285 E-.02682
G1 X121.046 Y96.286 E-.97318
;WIPE_END
G1 Z.35 F720
G1 X132.109 Y96.952 F12000
G1 Z.2 F720
G1 E1 F1500
M204 P600
;TYPE:Solid infill
;WIDTH:0.508962
G1 F1200
G1 X132.846 Y97.689 E.04039
G1 X132.846 Y98.348 E.02554
G1 X131.655 Y97.157 E.06527
G1 X130.996 Y97.157 E.02554
G1 X132.846 Y99.007 E.10139
G1 X132.846 Y99.666 E.02554
G1 X130.337 Y97.157 E.1375
G1 X129.677 Y97.157 E.02558
G1 X132.846 Y100.326 E.17367
G1 X132.846 Y100.985 E.02554
G1 X129.018 Y97.157 E.20979
G1 X128.359 Y97.157 E.02554
G1 X132.846 Y101.644 E.2459
G1 X132.846 Y102.303 E.02554
G1 X127.7 Y97.156 E.28204
G1 X127.041 Y97.156 E.02554
G1 X132.846 Y102.962 E.31816
G1 X132.846 Y103.621 E.02554
G1 X126.381 Y97.156 E.3543
G1 X125.722 Y97.156 E.02554
G1 X132.846 Y104.28 E.39042
G1 X132.846 Y104.939 E.02554
G1 X125.063 Y97.156 E.42653
G1 X124.404 Y97.156 E.02554
G1 X132.846 Y105.598 E.46265
G1 X132.846 Y106.257 E.02554
G1 X123.744 Y97.155 E.49882
G1 X123.085 Y97.155 E.02554
G1 X132.846 Y106.916 E.53493
G1 X132.846 Y107.575 E.02554
M73 P3 R10
G1 X122.426 Y97.155 E.57105
G1 X121.767 Y97.155 E.02554
G1 X132.846 Y108.235 E.60719
G1 X132.846 Y108.894 E.02554
G1 X121.107 Y97.155 E.64333
G1 X120.448 Y97.155 E.02554
G1 X132.846 Y109.553 E.67945
G1 X132.846 Y110.212 E.02554
G1 X119.789 Y97.155 E.71556
G1 X119.13 Y97.154 E.02554
G1 X132.846 Y110.871 E.7517
G1 X132.846 Y111.53 E.02554
G1 X118.471 Y97.154 E.78782
G1 X117.811 Y97.154 E.02558
G1 X132.846 Y112.189 E.82396
G1 X132.846 Y112.846 E.02546
G1 X117.154 Y97.156 E.85991
G1 X117.154 Y97.815 E.02554
M73 P4 R10
G1 X132.185 Y112.846 E.82374
G1 X131.526 Y112.846 E.02554
G1 X117.154 Y98.474 E.78763
G1 X117.154 Y99.133 E.02554
G1 X130.867 Y112.846 E.75151
G1 X130.208 Y112.846 E.02554
G1 X117.154 Y99.792 E.7154
G1 X117.154 Y100.451 E.02554
G1 X129.549 Y112.846 E.67928
G1 X128.89 Y112.846 E.02554
G1 X117.154 Y101.11 E.64317
G1 X117.154 Y101.769 E.02554
M73 P5 R10
G1 X128.231 Y112.846 E.60705
G1 X127.572 Y112.846 E.02554
G1 X117.154 Y102.428 E.57094
G1 X117.154 Y103.088 E.02558
G1 X126.912 Y112.846 E.53477
G1 X126.253 Y112.846 E.02554
G1 X117.154 Y103.747 E.49865
G1 X117.154 Y104.406 E.02554
G1 X125.594 Y112.846 E.46254
G1 X124.935 Y112.846 E.02554
G1 X117.154 Y105.065 E.42642
G1 X117.154 Y105.724 E.02554
G1 X124.276 Y112.846 E.39031
G1 X123.617 Y112.846 E.02554
M73 P6 R10
G1 X117.154 Y106.383 E.35419
G1 X117.154 Y107.042 E.02554
G1 X122.958 Y112.846 E.31808
G1 X122.299 Y112.846 E.02554
G1 X117.154 Y107.701 E.28196
G1 X117.154 Y108.36 E.02554
G1 X121.64 Y112.846 E.24585
G1 X120.981 Y112.846 E.02554
G1 X117.154 Y109.019 E.20973
G1 X117.154 Y109.678 E.02554
G1 X120.322 Y112.846 E.17362
G1 X119.663 Y112.846 E.02554
G1 X117.154 Y110.337 E.1375
G1 X117.154 Y110.997 E.02558
G1 X119.003 Y112.846 E.10133
G1 X118.344 Y112.846 E.02554
G1 X117.154 Y111.656 E.06522
G1 X117.154 Y112.315 E.02554
G1 X117.891 Y113.052 E.04039
M204 P1000
; stop printing object capuchon 30mm alu motedis.STL id:0 copy 0
;LAYER_CHANGE
;Z:0.4
;HEIGHT:0.2
;BEFORE_LAYER_CHANGE
G92 E0.0
;0.4


;WIPE_START
G1 F9600
G1 X117.154 Y112.315 E-.2166
G1 X117.154 Y111.656 E-.13695
G1 X118.344 Y112.846 E-.34973
G1 X119.003 Y112.846 E-.13695
G1 X118.459 Y112.302 E-.15977
;WIPE_END
G1 Z.35 F720
G1 Z.4
;AFTER_LAYER_CHANGE
;0.4
M104 S240 ; set temperature
M140 S90 ; set bed temperature
; printing object capuchon 30mm alu motedis.STL id:0 copy 0
G1 Z.55
G1 X116.15 Y96.324 F12000
G1 Z.4 F720
G1 E1 F1500
M204 P900
;TYPE:Perimeter
;WIDTH:0.449999
G1 F2700
G1 X116.181 Y96.206 E.00413
G1 X116.361 Y96.126 E.00667
G1 X133.597 Y96.126 E.58342
G1 X133.697 Y96.138 E.00341
G1 X133.829 Y96.216 E.00519
G1 X133.874 Y96.404 E.00654
G1 X133.874 Y113.618 E.58267
G1 X133.806 Y113.806 E.00677
G1 X133.618 Y113.874 E.00677
G1 X116.413 Y113.874 E.58237
G1 X116.206 Y113.819 E.00725
G1 X116.126 Y113.639 E.00667
G1 X116.126 Y96.413 E.58308
G1 X116.134 Y96.382 E.00108
M204 P1000
G1 X115.755 Y96.21 F12000
M204 P700
;TYPE:External perimeter
G1 F921.486

M73 P7 R10
G1 X115.812 Y96.032 E.00633
G1 F900
G1 X116.028 Y95.804 E.01063
G1 X116.343 Y95.718 E.01105
G1 X117.135 Y95.718 E.02681
G1 X132.805 Y95.719 E.53041
G1 X133.597 Y95.719 E.02681
G1 X133.856 Y95.751 E.00883
G1 X134.094 Y95.906 E.00961
G1 X134.249 Y96.144 E.00961
G1 X134.282 Y96.404 E.00887
G1 X134.282 Y97.196 E.02681
G1 X134.282 Y112.804 E.52831
G1 X134.282 Y113.596 E.02681
G1 X134.264 Y113.761 E.00562
G1 X134.162 Y114.027 E.00964
G1 X133.941 Y114.205 E.00961
G1 X133.65 Y114.282 E.01019
G1 X132.858 Y114.282 E.02681
G1 X117.205 Y114.282 E.52983
G1 X116.413 Y114.282 E.02681
G1 X116.292 Y114.271 E.00411
G1 F907.698
G1 X116.032 Y114.188 E.00924
G1 F900
G1 X115.804 Y113.972 E.01063
G1 X115.718 Y113.657 E.01105
G1 X115.718 Y112.865 E.02681
G1 X115.718 Y97.205 E.53007
G1 X115.718 Y96.413 E.02681
G1 X115.737 Y96.267 E.00498
G1 F922.999

M204 P1000
G1 X115.933 Y96.152 F12000
G1 X116.602 Y96.525
M204 P1500
;TYPE:Solid infill
;WIDTH:0.548758
G1 F5400
G1 X116.558 Y96.48 E.00265
G1 X116.497 Y96.497 E.00266
G1 X116.48 Y96.558 E.00266
G1 X116.525 Y96.602 E.00265
G1 X116.586 Y96.586 E.00265
;WIDTH:0.449999
G1 X117.236 Y96.492 E.02223
G1 X116.426 Y97.309 E.03894
;WIDTH:0.41646
G1 X116.359 Y97.381 E.00305
;WIDTH:0.38292
G1 X116.288 Y97.362 E.00208
G1 X116.307 Y97.434 E.00211
G1 X116.348 Y97.423 E.0012
;WIDTH:0.449999
G1 X116.492 Y97.812 E.01404
G1 X117.812 Y96.492 E.06319
G1 X118.387 Y96.492 E.01946
G1 X116.492 Y98.388 E.09074
G1 X116.492 Y98.963 E.01946
G1 X118.963 Y96.492 E.11829
G1 X119.539 Y96.492 E.0195
G1 X116.492 Y99.539 E.14586
G1 X116.492 Y100.115 E.0195
G1 X120.115 Y96.492 E.17343
G1 X120.69 Y96.492 E.01946
G1 X116.492 Y100.69 E.20096
G1 X116.492 Y101.266 E.0195
G1 X121.266 Y96.492 E.22853
G1 X121.842 Y96.492 E.0195
G1 X116.492 Y101.842 E.2561
G1 X116.492 Y102.417 E.01946
G1 X122.417 Y96.492 E.28363
G1 X122.993 Y96.492 E.0195
M73 P8 R10
G1 X116.492 Y102.993 E.3112
G1 X116.492 Y103.569 E.0195
G1 X123.569 Y96.492 E.33877
G1 X124.144 Y96.492 E.01946
G1 X116.492 Y104.145 E.36632
G1 X116.492 Y104.72 E.01946
G1 X124.72 Y96.492 E.39387
G1 X125.296 Y96.492 E.0195
G1 X116.492 Y105.296 E.42144
G1 X116.492 Y105.872 E.0195
G1 X125.871 Y96.492 E.44899
G1 X126.447 Y96.492 E.0195
G1 X116.492 Y106.447 E.47654
G1 X116.492 Y107.023 E.0195
G1 X127.023 Y96.492 E.50411
G1 X127.598 Y96.492 E.01946
G1 X116.492 Y107.599 E.53166
G1 X116.492 Y108.174 E.01946
G1 X128.174 Y96.492 E.55921
G1 X128.75 Y96.492 E.0195
G1 X116.492 Y108.75 E.58678
G1 X116.492 Y109.326 E.0195
G1 X129.325 Y96.492 E.61433
G1 X129.901 Y96.492 E.0195
G1 X116.492 Y109.902 E.6419
G1 X116.492 Y110.477 E.01946
G1 X130.477 Y96.492 E.66945
G1 X131.052 Y96.493 E.01946
G1 X116.492 Y111.053 E.69698
G1 X116.492 Y111.629 E.0195
G1 X131.628 Y96.493 E.72455
G1 X132.204 Y96.493 E.0195
G1 X116.492 Y112.204 E.7521
G1 X116.492 Y112.78 E.0195
G1 X132.779 Y96.493 E.77965
G1 X133.355 Y96.493 E.0195
G1 X116.492 Y113.356 E.80722
G1 X116.453 Y113.501 E.00508
;WIDTH:0.41646
G1 X116.415 Y113.645 E.00463
;WIDTH:0.38292
G1 X116.374 Y113.656 E.0012
G1 X116.355 Y113.585 E.00208
G1 X116.426 Y113.604 E.00208
;WIDTH:0.449999
G1 X116.915 Y113.508 E.01687
G1 X133.508 Y96.915 E.7943
G1 X133.508 Y97.491 E.0195
G1 X117.491 Y113.508 E.76672
G1 X118.067 Y113.508 E.0195
G1 X133.508 Y98.067 E.73915
G1 X133.508 Y98.642 E.01946
G1 X118.642 Y113.508 E.71163
G1 X119.218 Y113.508 E.0195
G1 X133.508 Y99.218 E.68405
G1 X133.508 Y99.794 E.0195
G1 X119.794 Y113.508 E.65648
G1 X120.369 Y113.508 E.01946
G1 X133.508 Y100.369 E.62896
G1 X133.508 Y100.945 E.0195
G1 X120.945 Y113.508 E.60138
G1 X121.521 Y113.508 E.0195
M73 P9 R10
G1 X133.508 Y101.521 E.57381
G1 X133.508 Y102.096 E.01946
G1 X122.096 Y113.508 E.54629
G1 X122.672 Y113.508 E.0195
G1 X133.508 Y102.672 E.51871
G1 X133.508 Y103.248 E.0195
G1 X123.248 Y113.508 E.49114
G1 X123.824 Y113.508 E.0195
G1 X133.508 Y103.824 E.46357
G1 X133.508 Y104.399 E.01946
G1 X124.399 Y113.508 E.43604
G1 X124.975 Y113.508 E.0195
G1 X133.508 Y104.975 E.40847
G1 X133.508 Y105.551 E.0195
G1 X125.551 Y113.508 E.3809
G1 X126.126 Y113.508 E.01946
G1 X133.508 Y106.126 E.35337
G1 X133.508 Y106.702 E.0195
G1 X126.702 Y113.508 E.3258
G1 X127.278 Y113.508 E.0195
G1 X133.508 Y107.278 E.29823
G1 X133.508 Y107.853 E.01946
G1 X127.853 Y113.508 E.2707
G1 X128.429 Y113.508 E.0195
G1 X133.508 Y108.429 E.24313
G1 X133.508 Y109.005 E.0195
G1 X129.005 Y113.508 E.21556
G1 X129.58 Y113.508 E.01946
G1 X133.508 Y109.58 E.18803
G1 X133.508 Y110.156 E.0195
G1 X130.156 Y113.508 E.16046
G1 X130.732 Y113.508 E.0195
G1 X133.508 Y110.732 E.13289
G1 X133.508 Y111.308 E.0195
G1 X131.308 Y113.508 E.10531
G1 X131.883 Y113.508 E.01946
G1 X133.508 Y111.883 E.07779
G1 X133.508 Y112.459 E.0195
G1 X132.459 Y113.508 E.05021
G1 X132.919 Y113.671 E.01652
;WIDTH:0.38292
G1 X132.848 Y113.652 E.00208
G1 X132.867 Y113.723 E.00208
G1 X132.908 Y113.712 E.0012
;WIDTH:0.41646
G1 X132.972 Y113.61 E.00374
;WIDTH:0.449999
G1 X133.035 Y113.508 E.00406
G1 X133.508 Y113.035 E.02264
G1 X133.61 Y112.972 E.00406
;WIDTH:0.41646
G1 X133.712 Y112.908 E.00374
;WIDTH:0.38292
G1 X133.671 Y112.919 E.0012
G1 X133.652 Y112.848 E.00208
G1 X133.723 Y112.867 E.00208
M204 P1000
; stop printing object capuchon 30mm alu motedis.STL id:0 copy 0
;LAYER_CHANGE
;Z:0.6
;HEIGHT:0.2
;BEFORE_LAYER_CHANGE
G92 E0.0
;0.6


;WIPE_START
G1 F9600
G1 X133.652 Y112.848 E-.01527
G1 X133.671 Y112.919 E-.01527
G1 X133.712 Y112.908 E-.00882
G1 X133.61 Y112.972 E-.02502
G1 X133.508 Y113.035 E-.02491
G1 X133.035 Y113.508 E-.13901
G1 X132.972 Y113.61 E-.02491
G1 X132.908 Y113.712 E-.02502
G1 X132.867 Y113.723 E-.00882
G1 X132.848 Y113.652 E-.01527
G1 X132.919 Y113.671 E-.01527
G1 X132.459 Y113.508 E-.10142
G1 X133.508 Y112.459 E-.30829
G1 X133.508 Y111.883 E-.1197
G1 X132.987 Y112.404 E-.153
;WIPE_END
G1 Z.55 F720
G1 Z.6
;AFTER_LAYER_CHANGE
;0.6
; printing object capuchon 30mm alu motedis.STL id:0 copy 0
G1 Z.75
G1 X115.961 Y96.198 F12000
G1 Z.6 F720
G1 E1 F1500
M204 P900
;TYPE:Perimeter
;WIDTH:0.449999
G1 F2700
G1 X116.135 Y95.99 E.00918
G1 X116.361 Y95.928 E.00793
G1 X133.618 Y95.928 E.58413
G1 X133.901 Y96.011 E.00998
G1 X134.017 Y96.155 E.00626
G1 X134.072 Y96.421 E.00919
G1 X134.072 Y113.579 E.58078
G1 X134.045 Y113.79 E.0072
G1 X133.901 Y113.989 E.00831
G1 X133.618 Y114.072 E.00998
G1 X116.432 Y114.072 E.58172
G1 X116.198 Y114.039 E.008
G1 X115.99 Y113.865 E.00918
G1 X115.928 Y113.639 E.00793
G1 X115.928 Y96.432 E.58244
G1 X115.952 Y96.257 E.00598
M204 P1000
G1 X115.609 Y95.993 F12000
M204 P700
;TYPE:External perimeter
G1 F1280.286

G1 X115.713 Y95.813 E.00704
G1 X115.929 Y95.632 E.00954
M73 P10 R10
G1 F1271.995
G1 X116.343 Y95.52 E.01452
G1 X116.991 Y95.52 E.02193
M73 P10 R9
G1 X132.931 Y95.52 E.53955
G1 X133.579 Y95.52 E.02193
G1 X133.917 Y95.563 E.01153
G1 F1278.697
G1 X134.143 Y95.678 E.00858
G1 X134.322 Y95.857 E.00857
G1 X134.437 Y96.083 E.00858
G1 F1272
G1 X134.48 Y96.421 E.01153
G1 X134.48 Y97.069 E.02193
G1 X134.48 Y112.931 E.53691
G1 X134.48 Y113.579 E.02193
G1 X134.437 Y113.917 E.01153
G1 F1278.697
G1 X134.322 Y114.143 E.00858
G1 X134.143 Y114.322 E.00857
G1 X133.917 Y114.437 E.00858
G1 F1272.003
G1 X133.65 Y114.48 E.00915
G1 X133.002 Y114.48 E.02193
G1 X117.08 Y114.48 E.53894
G1 X116.432 Y114.48 E.02193
G1 X116.056 Y114.428 E.01285
G1 F1280.286
G1 X115.813 Y114.287 E.00951
G1 X115.632 Y114.071 E.00954
G1 F1271.997
G1 X115.52 Y113.657 E.01452
G1 X115.52 Y113.009 E.02193
G1 X115.52 Y97.08 E.53918
G1 X115.52 Y96.432 E.02193
G1 X115.579 Y96.045 E.01325
G1 F1283.283

M204 P1000
G1 X115.814 Y95.957 F12000
;WIPE_START
G1 F9600
G1 X115.713 Y95.813 E-.05568
G1 X115.929 Y95.632 E-.05856
G1 X116.343 Y95.52 E-.08913
G1 X120.176 Y95.52 E-.79663
;WIPE_END
G1 Z.75 F720
G1 X116.292 Y113.794 F12000
G1 Z.6 F720
G1 E1 F1500
M204 P1500
;TYPE:Solid infill
;WIDTH:0.38292
G1 F5400
G1 X116.223 Y113.731 E.00264
;WIDTH:0.41646
G1 X116.259 Y113.554 E.00561
;WIDTH:0.449999
G1 X116.294 Y113.377 E.00611
G1 X116.623 Y113.706 E.01575
G1 X117.199 Y113.706 E.0195
G1 X116.294 Y112.801 E.04332
G1 X116.294 Y112.225 E.0195
G1 X117.775 Y113.706 E.07089
G1 X118.35 Y113.706 E.01946
G1 X116.294 Y111.65 E.09842
G1 X116.294 Y111.074 E.0195
G1 X118.926 Y113.706 E.12599
G1 X119.502 Y113.706 E.0195
G1 X116.294 Y110.498 E.15356
G1 X116.294 Y109.923 E.01946
G1 X120.077 Y113.706 E.18109
G1 X120.653 Y113.706 E.0195
G1 X116.294 Y109.347 E.20866
G1 X116.294 Y108.771 E.0195
G1 X121.229 Y113.706 E.23624
G1 X121.804 Y113.706 E.01946
G1 X116.294 Y108.196 E.26376
G1 X116.294 Y107.62 E.0195
G1 X122.38 Y113.706 E.29133
G1 X122.956 Y113.706 E.0195
G1 X116.294 Y107.044 E.31891
G1 X116.294 Y106.469 E.01946
G1 X123.531 Y113.706 E.34643
G1 X124.107 Y113.706 E.0195
G1 X116.294 Y105.893 E.374
G1 X116.294 Y105.317 E.0195
G1 X124.683 Y113.706 E.40158
G1 X125.259 Y113.706 E.0195
G1 X116.294 Y104.741 E.42915
G1 X116.294 Y104.166 E.01946
G1 X125.834 Y113.706 E.45667
G1 X126.41 Y113.706 E.0195
G1 X116.294 Y103.59 E.48425
G1 X116.294 Y103.014 E.0195
G1 X126.986 Y113.706 E.51182
G1 X127.561 Y113.706 E.01946
