; generated by PrusaSlicer 2.6.0+win64 on 2023-08-26 at 11:29:19 UTC


;
;

;
;

;
;
; 

; external perimeters extrusion width = 0.45mm
; perimeters extrusion width = 0.45mm
; infill extrusion width = 0.45mm
; solid infill extrusion width = 0.45mm
; top infill extrusion width = 0.40mm
; first layer extrusion width = 0.50mm

M73 P0 R21
M201 X2500 Y2500 Z200 E2500 ; sets maximum accelerations, mm/sec^2
M203 X200 Y200 Z40 E100 ; sets maximum feedrates, mm / sec
M204 P2000 R1200 T2000 ; sets acceleration (P, T) and retract acceleration (R), mm/sec^2
M205 X8.00 Y8.00 Z2.00 E10.00 ; sets the jerk limits, mm/sec
M205 S0 T0 ; sets the minimum extruding and travel feed rate, mm/sec
;TYPE:Custom
M17 ; enable steppers
M862.3 P "MK4" ; printer model check
M862.1 P0.4 ; nozzle diameter check
M555 X111.393 Y87.3929 W32 H31.2142

G90 ; use absolute coordinates
M83 ; extruder relative mode

M140 S85 ; set bed temp

M104 S170 ; set extruder temp for bed leveling
M109 R170 ; wait for temp


M84 E ; turn off E motor

G28 ; home all without mesh bed level

G1 X42 Y-4 Z5 F4800

M302 S160 ; lower cold extrusion limit to 160C


G1 E-2 F2400 ; retraction


M84 E ; turn off E motor

G29 P9 X10 Y-4 W32 H4



G0 Z40 F10000

M190 S85 ; wait for bed temp

M107

;
; MBL
;
M84 E ; turn off E motor
G29 P1 ; invalidate mbl & probe print area
G29 P1 X0 Y0 W50 H20 C ; probe near purge place
G29 P3.2 ; interpolate mbl probes
G29 P3.13 ; extrapolate mbl outside probe area
G29 A ; activate mbl

; prepare for purge
M104 S230
G0 X0 Y-4 Z15 F4800 ; move away and ready for the purge
M109 S230

G92 E0
M569 S0 E ; set spreadcycle mode for extruder

;
; Extrude purge line
;
G92 E0 ; reset extruder position
G1 E2 F2400 ; deretraction after the initial one before nozzle cleaning
G0 E7 X15 Z0.2 F500 ; purge
G0 X25 E4 F500 ; purge
G0 X35 E4 F650 ; purge
G0 X45 E4 F800 ; purge
G0 X48 Z0.05 F8000 ; wipe, move close to the bed
G0 X51 Z0.2 F8000 ; wipe, move quickly away from the bed

G92 E0
M221 S100 ; set flow to 100%
G21 ; set units to millimeters
G90 ; use absolute coordinates
M83 ; use relative distances for extrusion
M900 K0.07 ; Filament gcode



M142 S36 ; set heatbreak target temp
M107
;LAYER_CHANGE
;Z:0.2
;HEIGHT:0.2
;BEFORE_LAYER_CHANGE
G92 E0.0
;0.2


G1 E-1 F2100
G1 Z.15 F720
G1 Z.2
;AFTER_LAYER_CHANGE
;0.2
; printing object capuchon 30mm alu motedis haut.STL id:0 copy 0
G1 Z.35
G1 X112.3 Y92.3 F12000
G1 Z.2 F720
G1 E1 F1500
M204 P600
;TYPE:Perimeter
;WIDTH:0.499999
G1 F1200
G1 X137.7 Y92.3 E.96536
G1 X137.7 Y117.7 E.96536
G1 X112.3 Y117.7 E.96536
G1 X112.3 Y92.36 E.96308
M204 P1000
G1 X111.897 Y91.898 F12000
M204 P600
;TYPE:External perimeter
G1 F1200
G1 X112.03 Y91.843 E.00547
G1 X137.919 Y91.843 E.98394
G1 X138.088 Y91.884 E.00661
G1 X138.157 Y92.082 E.00797
G1 X138.157 Y117.918 E.98193
G1 X138.133 Y118.068 E.00577
M73 P1 R21
G1 X137.955 Y118.157 E.00756
G1 X112.093 Y118.157 E.98292
G1 X111.898 Y118.103 E.00769
G1 X111.843 Y117.97 E.00547
G1 X111.843 Y92.093 E.98349
G1 X111.881 Y91.956 E.0054
M204 P1000
G1 X112.036 Y91.935 F12000
;WIPE_START
G1 F9600
M73 P1 R20
G1 X112.03 Y91.843 E-.03886
G1 X116.655 Y91.843 E-.96114
;WIPE_END
G1 Z.35 F720
G1 X136.565 Y92.506 F12000
G1 Z.2 F720
G1 E1 F1500
M204 P600
;TYPE:Solid infill
;WIDTH:0.502708
G1 F1200
G1 X137.289 Y93.23 E.03914
G1 X137.289 Y93.88 E.02485
G1 X136.12 Y92.712 E.06318
G1 X135.47 Y92.712 E.02485
G1 X137.289 Y94.531 E.09835
G1 X137.289 Y95.181 E.02485
G1 X134.82 Y92.712 E.13349
G1 X134.169 Y92.712 E.02489
G1 X137.289 Y95.831 E.16866
G1 X137.289 Y96.481 E.02485
G1 X133.519 Y92.712 E.20381
G1 X132.869 Y92.712 E.02485
G1 X137.289 Y97.131 E.23895
G1 X137.289 Y97.782 E.02489
G1 X132.219 Y92.712 E.27412
G1 X131.568 Y92.712 E.02489
G1 X137.289 Y98.432 E.30929
G1 X137.289 Y99.082 E.02485
G1 X130.918 Y92.712 E.34444
G1 X130.268 Y92.712 E.02485
G1 X137.289 Y99.732 E.37958
G1 X137.289 Y100.383 E.02489
G1 X129.618 Y92.712 E.41475
G1 X128.967 Y92.712 E.02489
G1 X137.289 Y101.033 E.44992
G1 X137.289 Y101.683 E.02485
G1 X128.317 Y92.712 E.48507
G1 X127.667 Y92.712 E.02485
G1 X137.289 Y102.333 E.52021
G1 X137.289 Y102.984 E.02489
G1 X127.017 Y92.712 E.55538
G1 X126.366 Y92.712 E.02489
G1 X137.289 Y103.634 E.59055
G1 X137.289 Y104.284 E.02485
G1 X125.716 Y92.712 E.6257
G1 X125.066 Y92.712 E.02485
M73 P2 R20
G1 X137.289 Y104.934 E.66084
G1 X137.289 Y105.585 E.02489
G1 X124.416 Y92.712 E.69601
G1 X123.765 Y92.712 E.02489
G1 X137.289 Y106.235 E.73118
G1 X137.289 Y106.885 E.02485
G1 X123.115 Y92.711 E.76635
G1 X122.465 Y92.711 E.02485
G1 X137.289 Y107.535 E.8015
G1 X137.289 Y108.186 E.02489
G1 X121.815 Y92.711 E.83667
G1 X121.164 Y92.711 E.02489
G1 X137.289 Y108.836 E.87184
G1 X137.289 Y109.486 E.02485
G1 X120.514 Y92.711 E.90698
G1 X119.864 Y92.711 E.02485
G1 X137.289 Y110.136 E.94213
G1 X137.289 Y110.786 E.02485
G1 X119.214 Y92.711 E.97727
G1 X118.563 Y92.711 E.02489
G1 X137.289 Y111.437 E1.01247
G1 X137.289 Y112.087 E.02485
G1 X117.913 Y92.711 E1.04761
G1 X117.263 Y92.711 E.02485
G1 X137.289 Y112.737 E1.08276
G1 X137.289 Y113.387 E.02485
M73 P3 R20
G1 X116.613 Y92.711 E1.1179
G1 X115.962 Y92.711 E.02489
G1 X137.289 Y114.038 E1.1531
G1 X137.289 Y114.688 E.02485
G1 X115.312 Y92.711 E1.18824
G1 X114.662 Y92.711 E.02485
G1 X137.289 Y115.338 E1.22339
G1 X137.289 Y115.988 E.02485
G1 X114.012 Y92.711 E1.25853
G1 X113.361 Y92.711 E.02489
G1 X137.289 Y116.639 E1.29373
G1 X137.289 Y117.289 E.02485
G1 X112.711 Y92.712 E1.32884
G1 X112.711 Y93.362 E.02485
G1 X136.638 Y117.289 E1.29367
G1 X135.988 Y117.289 E.02485
G1 X112.711 Y94.012 E1.25853
G1 X112.711 Y94.662 E.02485
M73 P4 R20
G1 X135.338 Y117.289 E1.22339
G1 X134.687 Y117.289 E.02489
G1 X112.711 Y95.313 E1.18819
G1 X112.711 Y95.963 E.02485
G1 X134.037 Y117.289 E1.15304
G1 X133.387 Y117.289 E.02485
G1 X112.711 Y96.613 E1.1179
G1 X112.711 Y97.263 E.02485
G1 X132.737 Y117.289 E1.08276
G1 X132.087 Y117.289 E.02485
G1 X112.711 Y97.913 E1.04761
G1 X112.711 Y98.564 E.02489
G1 X131.436 Y117.289 E1.01241
G1 X130.786 Y117.289 E.02485
M73 P5 R20
G1 X112.711 Y99.214 E.97727
G1 X112.711 Y99.864 E.02485
G1 X130.136 Y117.289 E.94213
G1 X129.486 Y117.289 E.02485
G1 X112.711 Y100.514 E.90698
G1 X112.711 Y101.165 E.02489
G1 X128.835 Y117.289 E.87179
G1 X128.185 Y117.289 E.02485
G1 X112.711 Y101.815 E.83664
G1 X112.711 Y102.465 E.02485
G1 X127.535 Y117.289 E.8015
G1 X126.885 Y117.289 E.02485
G1 X112.711 Y103.115 E.76635
G1 X112.711 Y103.766 E.02489
G1 X126.234 Y117.289 E.73116
G1 X125.584 Y117.289 E.02485
G1 X112.711 Y104.416 E.69601
G1 X112.711 Y105.066 E.02485
G1 X124.934 Y117.289 E.66087
G1 X124.284 Y117.289 E.02485
M73 P6 R19
G1 X112.711 Y105.716 E.62572
G1 X112.711 Y106.367 E.02489
G1 X123.633 Y117.289 E.59053
G1 X122.983 Y117.289 E.02485
G1 X112.711 Y107.017 E.55538
G1 X112.711 Y107.667 E.02485
G1 X122.333 Y117.289 E.52024
G1 X121.683 Y117.289 E.02485
G1 X112.711 Y108.317 E.48509
G1 X112.711 Y108.968 E.02489
G1 X121.032 Y117.289 E.4499
G1 X120.382 Y117.289 E.02485
G1 X112.711 Y109.618 E.41475
G1 X112.711 Y110.268 E.02485
G1 X119.732 Y117.289 E.37961
G1 X119.082 Y117.289 E.02485
G1 X112.711 Y110.918 E.34446
G1 X112.711 Y111.568 E.02485
G1 X118.432 Y117.289 E.30932
G1 X117.781 Y117.289 E.02489
G1 X112.711 Y112.219 E.27412
G1 X112.711 Y112.869 E.02485
G1 X117.131 Y117.289 E.23898
G1 X116.481 Y117.289 E.02485
G1 X112.711 Y113.519 E.20383
G1 X112.711 Y114.169 E.02485
G1 X115.831 Y117.289 E.16869
G1 X115.18 Y117.289 E.02489
G1 X112.711 Y114.82 E.13349
G1 X112.711 Y115.47 E.02485
G1 X114.53 Y117.289 E.09835
G1 X113.88 Y117.289 E.02485
G1 X112.711 Y116.12 E.0632
G1 X112.711 Y116.77 E.02485
G1 X113.435 Y117.494 E.03914
M204 P1000
; stop printing object capuchon 30mm alu motedis haut.STL id:0 copy 0
;LAYER_CHANGE
;Z:0.4
;HEIGHT:0.2
;BEFORE_LAYER_CHANGE
G92 E0.0
;0.4


;WIPE_START
G1 F9600
G1 X112.711 Y116.77 E-.21278
G1 X112.711 Y116.12 E-.13508
M73 P7 R19
G1 X113.88 Y117.289 E-.34356
G1 X114.53 Y117.289 E-.13508
G1 X113.94 Y116.699 E-.1735
;WIPE_END
G1 Z.35 F720
G1 Z.4
;AFTER_LAYER_CHANGE
;0.4
M104 S240 ; set temperature
M140 S90 ; set bed temperature
; printing object capuchon 30mm alu motedis haut.STL id:0 copy 0
G1 Z.55
G1 X111.754 Y91.702 F12000
G1 Z.4 F720
G1 E1 F1500
M204 P900
;TYPE:Perimeter
;WIDTH:0.449999
G1 F2456.234

G1 X111.798 Y91.65 E.00231
G1 F2363.043
G1 X112.028 Y91.586 E.00808
G1 X112.509 Y91.586 E.01628
G1 X137.47 Y91.586 E.8449
G1 X137.951 Y91.586 E.01628
G1 X138.239 Y91.672 E.01017
G1 F2438.268
G1 X138.357 Y91.818 E.00635
G1 F2363.043
G1 X138.414 Y92.088 E.00934
G1 X138.414 Y92.57 E.01632
G1 X138.414 Y117.43 E.84148
G1 X138.414 Y117.912 E.01632
G1 X138.386 Y118.126 E.00731
G1 F2438.32
G1 X138.239 Y118.328 E.00846
G1 F2363.053
G1 X137.951 Y118.414 E.01017
G1 X137.47 Y118.414 E.01628
G1 X112.581 Y118.414 E.84246
G1 X112.099 Y118.414 E.01632
G1 X111.862 Y118.38 E.0081
G1 F2456.175
G1 X111.65 Y118.202 E.00937
G1 F2363.053
G1 X111.586 Y117.972 E.00808
G1 X111.586 Y117.491 E.01628
G1 X111.586 Y92.581 E.84317
G1 X111.586 Y92.099 E.01632
G1 X111.62 Y91.862 E.0081
G1 F2456.233
G1 X111.716 Y91.748 E.00504
G1 F2700

M204 P1000
G1 X111.438 Y91.436 F12000
M204 P700
;TYPE:External perimeter
G1 F900

G1 X111.482 Y91.383 E.00233
G1 X111.725 Y91.243 E.00949
G1 X111.922 Y91.199 E.00683

M204 P1000
;TYPE:Overhang perimeter

G1 X112.01 Y91.179 E.00305
G1 X112.898 Y91.179 E.03006
G1 X137.023 Y91.179 E.8166
G1 X137.912 Y91.179 E.03009
G1 X138.043 Y91.196 E.00447

M204 P700
;TYPE:External perimeter

G1 X138.16 Y91.21 E.00399

M204 P1000
;TYPE:Overhang perimeter

G1 X138.253 Y91.222 E.00317
G1 X138.481 Y91.338 E.00866
G1 X138.662 Y91.519 E.00866
G1 X138.778 Y91.747 E.00866
G1 X138.79 Y91.84 E.00317

M204 P700
;TYPE:External perimeter

G1 X138.804 Y91.957 E.00399

M204 P1000
;TYPE:Overhang perimeter

G1 X138.821 Y92.088 E.00447


G1 X138.821 Y92.977 E.03009
G1 X138.821 Y117.023 E.81393
G1 X138.821 Y117.912 E.03009
G1 X138.804 Y118.043 E.00447

M204 P700
;TYPE:External perimeter

G1 X138.79 Y118.16 E.00399

M204 P1000
;TYPE:Overhang perimeter

G1 X138.778 Y118.253 E.00317
G1 X138.662 Y118.481 E.00866
G1 X138.481 Y118.662 E.00866
G1 X138.253 Y118.778 E.00866
G1 X137.983 Y118.821 E.00925
G1 X137.095 Y118.821 E.03006
G1 X112.988 Y118.821 E.81599
G1 X112.099 Y118.821 E.03009
G1 X111.955 Y118.804 E.00491

M204 P700
;TYPE:External perimeter

G1 X111.86 Y118.793 E.00324
G1 X111.597 Y118.697 E.00948
G1 X111.383 Y118.518 E.00944
G1 X111.243 Y118.275 E.00949
G1 X111.199 Y118.078 E.00683

M204 P1000
;TYPE:Overhang perimeter

G1 X111.179 Y117.99 E.00305
G1 X111.179 Y117.102 E.03006
G1 X111.179 Y92.988 E.81623
G1 X111.179 Y92.099 E.03009
G1 X111.196 Y91.955 E.00491

M204 P700
;TYPE:External perimeter

G1 X111.207 Y91.86 E.00324
G1 X111.303 Y91.597 E.00948
G1 X111.399 Y91.482 E.00507

M204 P1000
G1 X111.507 Y91.444 F12000
G1 X111.865 Y91.956
M204 P1500
;TYPE:Solid infill
;WIDTH:0.38292
G1 F5400
G1 X111.932 Y91.883 E.0028
;WIDTH:0.41646
G1 X112.109 Y91.918 E.0056
;WIDTH:0.449999
G1 X112.287 Y91.953 E.00614
G1 X111.953 Y92.287 E.01599
G1 X111.881 Y92.38 E.00398
;WIDTH:0.41646
G1 X111.809 Y92.473 E.00365
;WIDTH:0.38292
G1 X111.768 Y92.484 E.0012
G1 X111.749 Y92.413 E.00208
G1 X111.82 Y92.432 E.00208
;WIDTH:0.449999
G1 X111.953 Y92.862 E.01524
G1 X112.862 Y91.953 E.04351
G1 X113.438 Y91.953 E.0195
G1 X111.953 Y93.438 E.07109
G1 X111.953 Y94.014 E.0195
G1 X114.014 Y91.953 E.09866
G1 X114.589 Y91.953 E.01946
G1 X111.953 Y94.589 E.12618
G1 X111.953 Y95.165 E.0195
G1 X115.165 Y91.953 E.15376
G1 X115.741 Y91.953 E.0195
G1 X111.953 Y95.741 E.18133
G1 X111.953 Y96.316 E.01946
G1 X116.316 Y91.953 E.20885
G1 X116.892 Y91.953 E.0195
G1 X111.953 Y96.892 E.23643
G1 X111.953 Y97.468 E.0195
G1 X117.468 Y91.953 E.264
G1 X118.043 Y91.953 E.01946
G1 X111.953 Y98.043 E.29152
G1 X111.953 Y98.619 E.0195
G1 X118.619 Y91.953 E.3191
G1 X119.195 Y91.953 E.0195
G1 X111.953 Y99.195 E.34667
G1 X111.953 Y99.771 E.0195
G1 X119.771 Y91.953 E.37424
G1 X120.346 Y91.953 E.01946
G1 X111.953 Y100.346 E.40177
G1 X111.953 Y100.922 E.0195
G1 X120.922 Y91.953 E.42934
G1 X121.498 Y91.953 E.0195
G1 X111.953 Y101.498 E.45691
M73 P8 R19
G1 X111.953 Y102.073 E.01946
G1 X122.073 Y91.953 E.48444
G1 X122.649 Y91.953 E.0195
G1 X111.953 Y102.649 E.51201
G1 X111.953 Y103.225 E.0195
G1 X123.225 Y91.953 E.53958
G1 X123.8 Y91.953 E.01946
G1 X111.953 Y103.8 E.56711
G1 X111.953 Y104.376 E.0195
G1 X124.376 Y91.953 E.59468
G1 X124.952 Y91.953 E.0195
G1 X111.953 Y104.952 E.62225
G1 X111.953 Y105.528 E.0195
G1 X125.528 Y91.953 E.64983
G1 X126.103 Y91.953 E.01946
G1 X111.953 Y106.103 E.67735
G1 X111.953 Y106.679 E.0195
G1 X126.679 Y91.953 E.70492
G1 X127.255 Y91.953 E.0195
G1 X111.953 Y107.255 E.7325
G1 X111.953 Y107.83 E.01946
G1 X127.83 Y91.953 E.76002
G1 X128.406 Y91.953 E.0195
G1 X111.953 Y108.406 E.78759
G1 X111.953 Y108.982 E.0195
G1 X128.982 Y91.953 E.81517
G1 X129.557 Y91.953 E.01946
G1 X111.953 Y109.557 E.84269
G1 X111.953 Y110.133 E.0195
G1 X130.133 Y91.953 E.87027
G1 X130.709 Y91.953 E.0195
G1 X111.953 Y110.709 E.89784
G1 X111.953 Y111.285 E.0195
G1 X131.285 Y91.953 E.92541
G1 X131.86 Y91.953 E.01946
G1 X111.953 Y111.86 E.95294
G1 X111.953 Y112.436 E.0195
G1 X132.436 Y91.953 E.98051
G1 X133.012 Y91.953 E.0195
G1 X111.953 Y113.012 E1.00808
G1 X111.953 Y113.587 E.01946
G1 X133.587 Y91.953 E1.03561
G1 X134.163 Y91.953 E.0195
G1 X111.953 Y114.163 E1.06318
G1 X111.953 Y114.739 E.0195
G1 X134.739 Y91.953 E1.09075
G1 X135.314 Y91.953 E.01946
G1 X111.953 Y115.314 E1.11828
G1 X111.953 Y115.89 E.0195
G1 X135.89 Y91.953 E1.14585
G1 X136.466 Y91.953 E.0195
G1 X111.953 Y116.466 E1.17342
G1 X111.953 Y117.041 E.01946
G1 X137.041 Y91.953 E1.20095
G1 X137.617 Y91.953 E.0195
G1 X111.953 Y117.617 E1.22852
G1 X112.098 Y118.047 E.01536
G1 X138.047 Y92.098 E1.24216
G1 X138.047 Y92.674 E.0195
G1 X112.674 Y118.047 E1.21459
G1 X113.25 Y118.047 E.0195
G1 X138.047 Y93.25 E1.18702
G1 X138.047 Y93.825 E.01946
G1 X113.825 Y118.047 E1.15949
G1 X114.401 Y118.047 E.0195
G1 X138.047 Y94.401 E1.13192
G1 X138.047 Y94.977 E.0195
G1 X114.977 Y118.047 E1.10435
G1 X115.552 Y118.047 E.01946
G1 X138.047 Y95.552 E1.07682
G1 X138.047 Y96.128 E.0195
G1 X116.128 Y118.047 E1.04925
G1 X116.704 Y118.047 E.0195
M73 P9 R19
G1 X138.047 Y96.704 E1.02168
G1 X138.047 Y97.28 E.0195
G1 X117.279 Y118.047 E.99413
G1 X117.855 Y118.047 E.0195
G1 X138.047 Y97.855 E.96658
G1 X138.047 Y98.431 E.0195
G1 X118.431 Y118.047 E.93901
G1 X119.007 Y118.047 E.0195
G1 X138.047 Y99.007 E.91143
G1 X138.047 Y99.582 E.01946
G1 X119.582 Y118.047 E.88391
G1 X120.158 Y118.047 E.0195
G1 X138.047 Y100.158 E.85634
G1 X138.047 Y100.734 E.0195
G1 X120.734 Y118.047 E.82876
G1 X121.309 Y118.047 E.01946
G1 X138.047 Y101.309 E.80124
G1 X138.047 Y101.885 E.0195
G1 X121.885 Y118.047 E.77366
G1 X122.461 Y118.047 E.0195
G1 X138.047 Y102.461 E.74609
G1 X138.047 Y103.036 E.01946
G1 X123.036 Y118.047 E.71857
G1 X123.612 Y118.047 E.0195
G1 X138.047 Y103.612 E.69099
G1 X138.047 Y104.188 E.0195
G1 X124.188 Y118.047 E.66342
G1 X124.764 Y118.047 E.0195
G1 X138.047 Y104.764 E.63585
G1 X138.047 Y105.339 E.01946
G1 X125.339 Y118.047 E.60832
G1 X125.915 Y118.047 E.0195
G1 X138.047 Y105.915 E.58075
G1 X138.047 Y106.491 E.0195
G1 X126.491 Y118.047 E.55318
G1 X127.066 Y118.047 E.01946
G1 X138.047 Y107.066 E.52565
G1 X138.047 Y107.642 E.0195
G1 X127.642 Y118.047 E.49808
G1 X128.218 Y118.047 E.0195
G1 X138.047 Y108.218 E.47051
G1 X138.047 Y108.793 E.01946
G1 X128.793 Y118.047 E.44298
G1 X129.369 Y118.047 E.0195
G1 X138.047 Y109.369 E.41541
G1 X138.047 Y109.945 E.0195
G1 X129.945 Y118.047 E.38784
G1 X130.521 Y118.047 E.0195
G1 X138.047 Y110.521 E.36026
G1 X138.047 Y111.096 E.01946
G1 X131.096 Y118.047 E.33274
G1 X131.672 Y118.047 E.0195
G1 X138.047 Y111.672 E.30517
G1 X138.047 Y112.248 E.0195
G1 X132.248 Y118.047 E.27759
G1 X132.823 Y118.047 E.01946
G1 X138.047 Y112.823 E.25007
G1 X138.047 Y113.399 E.0195
G1 X133.399 Y118.047 E.2225
G1 X133.975 Y118.047 E.0195
G1 X138.047 Y113.975 E.19492
G1 X138.047 Y114.55 E.01946
G1 X134.55 Y118.047 E.1674
G1 X135.126 Y118.047 E.0195
G1 X138.047 Y115.126 E.13983
G1 X138.047 Y115.702 E.0195
