; generated by PrusaSlicer 2.6.0+win64 on 2023-08-26 at 05:39:19 UTC


;
;

;
;

;
;
; 

; external perimeters extrusion width = 0.45mm
; perimeters extrusion width = 0.45mm
; infill extrusion width = 0.45mm
; solid infill extrusion width = 0.45mm
; top infill extrusion width = 0.40mm
; first layer extrusion width = 0.50mm

M73 P0 R3
M201 X2500 Y2500 Z200 E2500 ; sets maximum accelerations, mm/sec^2
M203 X200 Y200 Z40 E100 ; sets maximum feedrates, mm / sec
M204 P2000 R1200 T2000 ; sets acceleration (P, T) and retract acceleration (R), mm/sec^2
M205 X8.00 Y8.00 Z2.00 E10.00 ; sets the jerk limits, mm/sec
M205 S0 T0 ; sets the minimum extruding and travel feed rate, mm/sec
;TYPE:Custom
M17 ; enable steppers
M862.3 P "MK4" ; printer model check
M862.1 P0.4 ; nozzle diameter check
M555 X120.318 Y96.3181 W32 H13.3638

G90 ; use absolute coordinates
M83 ; extruder relative mode

M140 S85 ; set bed temp

M104 S170 ; set extruder temp for bed leveling
M109 R170 ; wait for temp


M84 E ; turn off E motor

G28 ; home all without mesh bed level

G1 X42 Y-4 Z5 F4800

M302 S160 ; lower cold extrusion limit to 160C


G1 E-2 F2400 ; retraction


M84 E ; turn off E motor

G29 P9 X10 Y-4 W32 H4



G0 Z40 F10000

M190 S85 ; wait for bed temp

M107

;
; MBL
;
M84 E ; turn off E motor
G29 P1 ; invalidate mbl & probe print area
G29 P1 X0 Y0 W50 H20 C ; probe near purge place
G29 P3.2 ; interpolate mbl probes
G29 P3.13 ; extrapolate mbl outside probe area
G29 A ; activate mbl

; prepare for purge
M104 S230
G0 X0 Y-4 Z15 F4800 ; move away and ready for the purge
M109 S230

G92 E0
M569 S0 E ; set spreadcycle mode for extruder

;
; Extrude purge line
;
G92 E0 ; reset extruder position
M73 P0 R2
G1 E2 F2400 ; deretraction after the initial one before nozzle cleaning
G0 E7 X15 Z0.2 F500 ; purge
G0 X25 E4 F500 ; purge
G0 X35 E4 F650 ; purge
G0 X45 E4 F800 ; purge
G0 X48 Z0.05 F8000 ; wipe, move close to the bed
G0 X51 Z0.2 F8000 ; wipe, move quickly away from the bed

G92 E0
M221 S100 ; set flow to 100%
G21 ; set units to millimeters
G90 ; use absolute coordinates
M83 ; use relative distances for extrusion
M900 K0.07 ; Filament gcode



M142 S36 ; set heatbreak target temp
M107
;LAYER_CHANGE
;Z:0.2
;HEIGHT:0.2
;BEFORE_LAYER_CHANGE
G92 E0.0
;0.2


G1 E-1 F2100
M73 P1 R2
G1 Z.15 F720
G1 Z.2
;AFTER_LAYER_CHANGE
;0.2
; printing object capuchon 30mm alu motedis.STL id:0 copy 0
G1 Z.35
M73 P3 R2
G1 X121.225 Y101.225 F12000
G1 Z.2 F720
M73 P4 R2
G1 E1 F1500
M204 P600
;TYPE:Perimeter
;WIDTH:0.499999
G1 F1200
G1 X128.775 Y101.227 E.28695
G1 X128.775 Y108.775 E.28687
G1 X121.225 Y108.775 E.28695
G1 X121.225 Y101.285 E.28467
M204 P1000
G1 X120.768 Y100.768 F12000
M204 P600
;TYPE:External perimeter
G1 F1200
M73 P5 R2
G1 X129.232 Y100.77 E.32169
G1 X129.232 Y109.232 E.32161
G1 X120.768 Y109.232 E.32169
G1 X120.768 Y100.828 E.3194
M204 P1000
G1 X121.154 Y100.872 F12000
;WIPE_START
G1 F9600
G1 X125.58 Y100.795 E-1
;WIPE_END
M73 P6 R2
G1 Z.35 F720
G1 X127.635 Y101.433 F12000
G1 Z.2 F720
G1 E1 F1500
M204 P600
;TYPE:Solid infill
;WIDTH:0.504654
G1 F1200
G1 X128.363 Y102.161 E.03953
M73 P7 R2
G1 X128.363 Y102.814 E.02507
G1 X127.188 Y101.638 E.06383
G1 X126.534 Y101.638 E.02511
G1 X128.363 Y103.467 E.09931
G1 X128.363 Y104.12 E.02507
G1 X125.881 Y101.638 E.13476
G1 X125.228 Y101.638 E.02507
G1 X128.363 Y104.773 E.17022
G1 X128.363 Y105.426 E.02507
G1 X124.575 Y101.638 E.20567
G1 X123.922 Y101.637 E.02507
G1 X128.363 Y106.079 E.24116
G1 X128.363 Y106.732 E.02507
G1 X123.269 Y101.637 E.27661
G1 X122.615 Y101.637 E.02511
G1 X128.363 Y107.385 E.3121
G1 X128.363 Y108.038 E.02507
G1 X121.962 Y101.637 E.34755
G1 X121.637 Y101.637 E.01248
G1 X121.637 Y101.964 E.01255
G1 X128.036 Y108.363 E.34744
M73 P8 R2
G1 X127.383 Y108.363 E.02507
G1 X121.637 Y102.617 E.31199
G1 X121.637 Y103.27 E.02507
G1 X126.73 Y108.363 E.27653
G1 X126.077 Y108.363 E.02507
G1 X121.637 Y103.923 E.24108
G1 X121.637 Y104.576 E.02507
G1 X125.424 Y108.363 E.20562
G1 X124.771 Y108.363 E.02507
M73 P9 R2
G1 X121.637 Y105.229 E.17016
G1 X121.637 Y105.882 E.02507
G1 X124.118 Y108.363 E.13471
G1 X123.465 Y108.363 E.02507
G1 X121.637 Y106.535 E.09925
G1 X121.637 Y107.188 E.02507
G1 X122.812 Y108.363 E.0638
G1 X122.159 Y108.363 E.02507
M73 P10 R2
G1 X121.431 Y107.635 E.03953
M204 P1000
; stop printing object capuchon 30mm alu motedis.STL id:0 copy 0
;LAYER_CHANGE
;Z:0.4
;HEIGHT:0.2
;BEFORE_LAYER_CHANGE
G92 E0.0
;0.4


;WIPE_START
G1 F9600
G1 X122.159 Y108.363 E-.21395
G1 X122.812 Y108.363 E-.1357
G1 X121.637 Y107.188 E-.34532
G1 X121.637 Y106.535 E-.1357
G1 X122.213 Y107.111 E-.16933
;WIPE_END
G1 Z.35 F720
G1 Z.4
;AFTER_LAYER_CHANGE
;0.4
M104 S240 ; set temperature
M140 S90 ; set bed temperature
; printing object capuchon 30mm alu motedis.STL id:0 copy 0
G1 Z.55
G1 X120.748 Y100.748 F12000
G1 Z.4 F720
G1 E1 F1500
M204 P900
;TYPE:Perimeter
;WIDTH:0.449999
G1 X129.255 Y100.747 E.28795
G1 X129.255 Y109.239 E.28744
G1 X129.242 Y109.255 E.0007
G1 X120.748 Y109.252 E.28751
G1 X120.748 Y100.808 E.28582
M204 P1000
G1 X120.359 Y100.615 F12000
M204 P700
;TYPE:External perimeter
G1 F1262.757

G1 X120.451 Y100.425 E.00715
G1 F1252.221
G1 X120.676 Y100.338 E.00817
M73 P11 R2
G1 X121.332 Y100.338 E.0222
G1 X128.632 Y100.34 E.2471
G1 F1257.599
G1 X129.286 Y100.34 E.02214
G1 F1258.04
G1 X129.406 Y100.358 E.00411
G1 F1267.741
G1 X129.595 Y100.477 E.00756
G1 F1252.213
G1 X129.662 Y100.684 E.00736
G1 X129.662 Y101.34 E.0222
G1 X129.662 Y108.584 E.2452
G1 X129.662 Y109.239 E.02217
G1 X129.622 Y109.476 E.00814
G1 F1269.117
G1 X129.511 Y109.599 E.00561
G1 F1252.213
G1 X129.302 Y109.662 E.00739
G1 X128.646 Y109.662 E.0222
G1 X121.404 Y109.662 E.24513
G1 X120.748 Y109.662 E.0222
M73 P12 R2
G1 X120.506 Y109.612 E.00836
G1 F1271.336
G1 X120.388 Y109.494 E.00565
G1 F1252.216
G1 X120.338 Y109.306 E.00658
G1 X120.338 Y108.65 E.0222
G1 X120.338 Y101.404 E.24527
G1 X120.338 Y100.748 E.0222
G1 X120.349 Y100.674 E.00253
G1 F1283.485

M204 P1000
G1 X120.565 Y100.568 F12000
G1 X121.222 Y101.144
M204 P1500
;TYPE:Solid infill
;WIDTH:0.548728
G1 F1749
G1 X121.177 Y101.1 E.00265
G1 X121.116 Y101.116 E.00265
G1 X121.099 Y101.177 E.00266
G1 X121.144 Y101.222 E.00268
G1 X121.205 Y101.205 E.00266
;WIDTH:0.449999
G1 X121.855 Y101.111 E.02223
G1 X121.045 Y101.928 E.03894
;WIDTH:0.41646
G1 X120.978 Y102.001 E.00308
;WIDTH:0.38292
G1 X120.907 Y101.982 E.00208
G1 X120.926 Y102.053 E.00208
G1 X120.967 Y102.042 E.0012
;WIDTH:0.449999
G1 X121.111 Y102.431 E.01404
G1 X122.431 Y101.112 E.06316
G1 X123.006 Y101.112 E.01946
G1 X121.111 Y103.007 E.09071
G1 X121.111 Y103.583 E.0195
G1 X123.582 Y101.112 E.11829
G1 X124.157 Y101.112 E.01946
G1 X121.111 Y104.158 E.14581
G1 X121.111 Y104.734 E.0195
G1 X124.733 Y101.112 E.17338
G1 X125.308 Y101.112 E.01946
G1 X121.111 Y105.31 E.20093
G1 X121.111 Y105.885 E.01946
G1 X125.884 Y101.112 E.22848
G1 X126.46 Y101.113 E.0195
G1 X121.111 Y106.461 E.25603
G1 X121.111 Y107.037 E.0195
M73 P13 R2
G1 X127.035 Y101.113 E.28358
G1 X127.611 Y101.113 E.0195
G1 X121.111 Y107.612 E.31113
G1 X121.111 Y108.188 E.0195
G1 X128.186 Y101.113 E.33868
G1 X128.762 Y101.113 E.0195
G1 X121.111 Y108.764 E.36625
G1 X121.073 Y108.879 E.0041
;WIDTH:0.41646
G1 X121.036 Y108.995 E.00378
;WIDTH:0.38292
G1 X120.964 Y108.975 E.00211
G1 X120.983 Y109.047 E.00211
G1 X121.025 Y109.036 E.00123
;WIDTH:0.449999
G1 X121.562 Y108.889 E.01885
G1 X128.889 Y101.562 E.35074
M73 P14 R2
G1 X128.889 Y102.137 E.01946
G1 X122.137 Y108.889 E.32321
G1 X122.713 Y108.889 E.0195
G1 X128.889 Y102.713 E.29564
G1 X128.889 Y103.289 E.0195
G1 X123.289 Y108.889 E.26807
G1 X123.865 Y108.889 E.0195
G1 X128.889 Y103.865 E.2405
G1 X128.889 Y104.44 E.01946
G1 X124.44 Y108.889 E.21297
G1 X125.016 Y108.889 E.0195
G1 X128.889 Y105.016 E.1854
G1 X128.889 Y105.592 E.0195
M73 P15 R2
G1 X125.592 Y108.889 E.15783
G1 X126.167 Y108.889 E.01946
G1 X128.889 Y106.167 E.1303
G1 X128.889 Y106.743 E.0195
G1 X126.743 Y108.889 E.10273
G1 X127.319 Y108.889 E.0195
G1 X128.889 Y107.319 E.07515
G1 X128.889 Y107.894 E.01946
G1 X127.894 Y108.889 E.04763
G1 X128.47 Y108.889 E.0195
G1 X128.889 Y108.47 E.02006
G1 X128.991 Y108.407 E.00406
;WIDTH:0.41646
G1 X129.093 Y108.344 E.00372
;WIDTH:0.38292
G1 X129.052 Y108.355 E.0012
G1 X129.033 Y108.284 E.00208
G1 X129.104 Y108.303 E.00208
M204 P1000
; stop printing object capuchon 30mm alu motedis.STL id:0 copy 0
;LAYER_CHANGE
;Z:0.6
;HEIGHT:0.2
;BEFORE_LAYER_CHANGE
G92 E0.0
;0.6


;WIPE_START
G1 F9600
G1 X129.033 Y108.284 E-.01527
M73 P16 R2
G1 X129.052 Y108.355 E-.01527
G1 X129.093 Y108.344 E-.00882
G1 X128.991 Y108.407 E-.02491
G1 X128.889 Y108.47 E-.02491
G1 X128.47 Y108.889 E-.12314
G1 X127.894 Y108.889 E-.1197
G1 X128.889 Y107.894 E-.29242
G1 X128.889 Y107.319 E-.11949
G1 X128.018 Y108.19 E-.25607
;WIPE_END
G1 Z.55 F720
G1 Z.6
;AFTER_LAYER_CHANGE
;0.6
; printing object capuchon 30mm alu motedis.STL id:0 copy 0
G1 Z.75
G1 X129.344 Y100.71 F12000
G1 Z.6 F720
G1 E1 F1500
M204 P900
;TYPE:Perimeter
;WIDTH:0.449999
G1 X129.344 Y109.26 E.28941
G1 X129.33 Y109.329 E.00238
G1 X129.269 Y109.344 E.00213
G1 X120.727 Y109.344 E.28914
G1 X120.656 Y109.306 E.00273
G1 X120.656 Y100.749 E.28964
G1 X120.667 Y100.676 E.0025
G1 X120.739 Y100.656 E.00253
G1 X129.281 Y100.659 E.28914
G1 X129.297 Y100.673 E.00072
M204 P1000
G1 X129.666 Y100.424 F12000
M204 P700
;TYPE:External perimeter
G1 F1500
G1 X129.751 Y100.687 E.00936
G1 X129.751 Y109.26 E.29019
G1 X129.716 Y109.487 E.00777
G1 X129.558 Y109.671 E.00821
G1 X129.311 Y109.751 E.00879
G1 X120.727 Y109.751 E.29056
M73 P17 R2
G1 X120.462 Y109.687 E.00923
G1 X120.308 Y109.541 E.00718
G1 X120.249 Y109.324 E.00761
G1 X120.249 Y100.727 E.291
G1 X120.31 Y100.469 E.00897
G1 X120.488 Y100.297 E.00838
G1 X120.691 Y100.249 E.00706
G1 X129.281 Y100.252 E.29076
G1 X129.518 Y100.297 E.00817
G1 X129.621 Y100.385 E.00459
M204 P1000
G1 X129.545 Y100.672 F12000
G1 X128.439 Y100.84
M204 P800
;TYPE:Top solid infill
;WIDTH:0.401228
G1 F2264
G1 X129.163 Y101.564 E.03051
M204 P1000
G1 X129.163 Y102.071 F12000
M204 P800
G1 F2264
G1 X127.932 Y100.839 E.05189
M204 P1000
G1 X127.425 Y100.839 F12000
M204 P800
G1 F2264
G1 X129.163 Y102.578 E.07325
M204 P1000
G1 X129.163 Y103.085 F12000
M204 P800
M73 P18 R2
G1 F2264
G1 X126.918 Y100.839 E.09461
M204 P1000
G1 X126.411 Y100.839 F12000
M204 P800
G1 F2264
G1 X129.163 Y103.591 E.11595
M204 P1000
G1 X128.902 Y103.837 F12000
M204 P800
G1 F2264
G1 X126.173 Y101.108 E.11498
M204 P1000
G1 X125.928 Y101.369 F12000
M204 P800
G1 F2264
G1 X128.636 Y104.077 E.1141
M204 P1000
G1 X128.485 Y104.433 F12000
M204 P800
G1 F2264
G1 X125.567 Y101.515 E.12295
M204 P1000
G1 X125.06 Y101.515 F12000
M204 P800
G1 F2264
G1 X128.485 Y104.94 E.14431
M204 P1000
G1 X128.485 Y105.446 F12000
M204 P800
G1 F2264
G1 X124.554 Y101.515 E.16563
M204 P1000
G1 X123.369 Y100.838 F12000
M204 P800
G1 F2264
G1 X129.163 Y106.632 E.24413
M204 P1000
G1 X129.163 Y107.138 F12000
M204 P800
G1 F2264
G1 X122.863 Y100.837 E.26547
M204 P1000
G1 X122.356 Y100.837 F12000
M204 P800
G1 F2264
G1 X129.163 Y107.645 E.28683
M204 P1000
G1 X129.163 Y108.152 F12000
M204 P800
G1 F2264
G1 X121.849 Y100.837 E.30819
M204 P1000
G1 X121.342 Y100.837 F12000
M204 P800
G1 F2264
G1 X129.163 Y108.659 E.32955
M204 P1000
M73 P19 R2
G1 X129.162 Y109.163 F12000
M204 P800
G1 F2264
G1 X120.837 Y100.838 E.35077
M204 P1000
G1 X120.837 Y101.345 F12000
M204 P800
G1 F2264
G1 X128.655 Y109.163 E.32941
M204 P1000
G1 X128.148 Y109.163 F12000
M204 P800
G1 F2264
G1 X120.837 Y101.852 E.30804
M204 P1000
G1 X120.837 Y102.358 F12000
M204 P800
G1 F2264
G1 X127.642 Y109.163 E.28672
M204 P1000
G1 X127.135 Y109.163 F12000
M204 P800
G1 F2264
G1 X120.837 Y102.865 E.26536
M204 P1000
M73 P20 R2
G1 X120.837 Y103.372 F12000
M204 P800
G1 F2264
G1 X126.628 Y109.163 E.244
M204 P1000
G1 X125.443 Y108.485 F12000
M204 P800
G1 F2264
G1 X121.515 Y104.557 E.1655
M204 P1000
G1 X121.515 Y105.064 F12000
M204 P800
G1 F2264
G1 X124.936 Y108.485 E.14414
M204 P1000
G1 X124.429 Y108.485 F12000
M204 P800
G1 F2264
G1 X121.515 Y105.571 E.12278
M204 P1000
G1 X121.363 Y105.925 F12000
M204 P800
G1 F2264
G1 X124.07 Y108.633 E.11408
M204 P1000
G1 X123.837 Y108.906 F12000
M204 P800
G1 F2264
G1 X121.094 Y106.163 E.11557
M204 P1000
G1 X120.837 Y106.412 F12000
M204 P800
G1 F2264
G1 X123.588 Y109.163 E.11591
M204 P1000
M73 P21 R2
G1 X123.081 Y109.163 F12000
M204 P800
G1 F2264
G1 X120.837 Y106.919 E.09455
M204 P1000
G1 X120.837 Y107.426 F12000
M204 P800
G1 F2264
G1 X122.574 Y109.163 E.07319
M204 P1000
G1 X122.068 Y109.163 F12000
M204 P800
G1 F2264
G1 X120.837 Y107.932 E.05187
M204 P1000
G1 X120.837 Y108.439 F12000
M204 P800
G1 F2264
G1 X121.561 Y109.163 E.03051
M204 P1000
;WIPE_START
G1 F9600
G1 X120.837 Y108.439 E-.21278
;WIPE_END
G1 E-.78722 F2100
G1 Z.75 F720
G1 X124.02 Y109.012 F12000
G1 Z.6 F720
G1 E1 F1500
M204 P1500
;TYPE:Solid infill
;WIDTH:0.382129
G1 F2264
G1 X125.98 Y109.012 E.05528
G1 X125.967 Y108.942 E.00201
G1 X125.694 Y108.673 E.01081
G1 X124.296 Y108.673 E.03943
G1 X124.128 Y108.851 E.0069
M204 P1000
;WIPE_START
G1 F9600
G1 X124.296 Y108.673 E-.05086
G1 X125.694 Y108.673 E-.29052
G1 X125.743 Y108.721 E-.01425
G1 X125.967 Y108.942 E-.06539
G1 X125.98 Y109.012 E-.0148
G1 X124.02 Y109.012 E-.40731
;WIPE_END
G1 E-.15687 F2100
G1 Z.75 F720
G1 X120.988 Y105.98 F12000
G1 Z.6 F720
G1 E1 F1500
M204 P1500
;WIDTH:0.38213
G1 F2264
G1 X121.058 Y105.967 E.00201
G1 X121.327 Y105.694 E.01081
G1 X121.327 Y104.296 E.03943
G1 X121.06 Y104.028 E.01067
G1 X120.988 Y104.016 E.00206
G1 X120.988 Y105.776 E.04964
M204 P1000
;WIPE_START
G1 F9600
G1 X120.988 Y104.016 E-.36575
G1 X121.06 Y104.028 E-.01517
G1 X121.327 Y104.296 E-.07862
G1 X121.327 Y105.694 E-.29052
G1 X121.058 Y105.967 E-.07965
G1 X120.988 Y105.98 E-.0148
;WIPE_END
G1 E-.15549 F2100
G1 Z.75 F720
M73 P22 R2
G1 X124.019 Y100.989 F12000
G1 Z.6 F720
G1 E1 F1500
M204 P1500
;WIDTH:0.381382
G1 F2264
G1 X124.031 Y101.057 E.00194
G1 X124.306 Y101.328 E.01087
G1 X125.705 Y101.328 E.03937
;WIDTH:0.38113
G1 X125.988 Y101.029 E.01158
G1 X125.989 Y100.99 E.0011
;WIDTH:0.381356
G1 X124.223 Y100.989 E.0497
M204 P1000
;WIPE_START
G1 F9600
G1 X125.989 Y100.99 E-.367
G1 X125.988 Y101.029 E-.00811
G1 X125.705 Y101.328 E-.08555
G1 X124.306 Y101.328 E-.29073
G1 X124.031 Y101.057 E-.08023
G1 X124.019 Y100.989 E-.01435
;WIPE_END
G1 E-.15403 F2100
G1 Z.75 F720
G1 X128.673 Y104.306 F12000
G1 Z.6 F720
G1 E1 F1500
M204 P1500
;WIDTH:0.382129
G1 F2264
G1 X128.673 Y105.704 E.03943
G1 X128.966 Y105.979 E.01133
G1 X129.012 Y105.98 E.0013
G1 X129.012 Y104.02 E.05528
G1 X128.971 Y104.021 E.00116
G1 X128.82 Y104.166 E.0059
M204 P1000
; stop printing object capuchon 30mm alu motedis.STL id:0 copy 0
M106 S63.75
;LAYER_CHANGE
;Z:0.8
;HEIGHT:0.2
;BEFORE_LAYER_CHANGE
G92 E0.0
;0.8


;WIPE_START
G1 F9600
G1 X128.971 Y104.021 E-.0435
G1 X129.012 Y104.02 E-.00852
G1 X129.012 Y105.98 E-.40731
G1 X128.966 Y105.979 E-.00956
G1 X128.673 Y105.704 E-.08351
G1 X128.673 Y104.306 E-.29052
;WIPE_END
G1 E-.15708 F2100
G1 Z.75 F720
G1 Z.8
;AFTER_LAYER_CHANGE
;0.8
; printing object capuchon 30mm alu motedis.STL id:0 copy 0
G1 Z.95
G1 X122.334 Y103.971 F12000
G1 Z.8 F720
G1 E1 F1500
M204 P900
;TYPE:Perimeter
;WIDTH:0.449999
G1 F900
G1 X122.331 Y106.111 E.07244
G1 X121.399 Y107.049 E.04476
G1 X121.403 Y102.969 E.1381
G1 X121.415 Y102.96 E.00051
G1 X122.334 Y103.883 E.04409
G1 X122.334 Y103.911 E.00095
M204 P1000
G1 X122.741 Y103.972 F12000
M204 P700
;TYPE:External perimeter
G1 F900

G1 X122.738 Y106.162 E.07413
G1 X122.687 Y106.33 E.00594
G1 X121.671 Y107.353 E.0488
M73 P23 R2
G1 X121.519 Y107.471 E.00651
G1 X121.07 Y107.452 E.01521
G1 X120.992 Y107.329 E.00493
G1 X120.996 Y102.644 E.15858
G1 X121.067 Y102.542 E.00421
G1 X121.601 Y102.569 E.0181
G1 X122.706 Y103.68 E.05304
G1 X122.742 Y103.834 E.00535
G1 X122.741 Y103.912 E.00264

M204 P1000
G1 X122.403 Y104.185 F12000
;WIPE_START
G1 F9600
G1 X122.738 Y106.162 E-.46758
G1 X122.687 Y106.33 E-.03649
G1 X121.671 Y107.353 E-.29962
G1 X121.519 Y107.471 E-.03999
G1 X121.07 Y107.452 E-.09339
G1 X120.992 Y107.329 E-.03027
G1 X120.992 Y107.172 E-.03266
;WIPE_END
G1 Z.95 F720
