; generated by PrusaSlicer 2.6.0+win64 on 2023-08-26 at 07:48:12 UTC


;
;

;
;

;
;
; 

; external perimeters extrusion width = 0.45mm
; perimeters extrusion width = 0.45mm
; infill extrusion width = 0.45mm
; solid infill extrusion width = 0.45mm
; top infill extrusion width = 0.40mm
; first layer extrusion width = 0.50mm

; external perimeters extrusion width = 0.45mm
; perimeters extrusion width = 0.45mm
; infill extrusion width = 0.45mm
; solid infill extrusion width = 0.45mm
; top infill extrusion width = 0.40mm
; first layer extrusion width = 0.50mm

M73 P0 R61
M201 X2500 Y2500 Z200 E2500 ; sets maximum accelerations, mm/sec^2
M203 X200 Y200 Z40 E100 ; sets maximum feedrates, mm / sec
M204 P2000 R1200 T2000 ; sets acceleration (P, T) and retract acceleration (R), mm/sec^2
M205 X8.00 Y8.00 Z2.00 E10.00 ; sets the jerk limits, mm/sec
M205 S0 T0 ; sets the minimum extruding and travel feed rate, mm/sec
;TYPE:Custom
M17 ; enable steppers
M862.3 P "MK4" ; printer model check
M862.1 P0.4 ; nozzle diameter check
M555 X89.8445 Y78.8355 W70.3101 H48.329

G90 ; use absolute coordinates
M83 ; extruder relative mode

M140 S85 ; set bed temp

M104 S170 ; set extruder temp for bed leveling
M109 R170 ; wait for temp


M84 E ; turn off E motor

G28 ; home all without mesh bed level

G1 X42 Y-4 Z5 F4800

M302 S160 ; lower cold extrusion limit to 160C


G1 E-2 F2400 ; retraction


M84 E ; turn off E motor

G29 P9 X10 Y-4 W32 H4



G0 Z40 F10000

M190 S85 ; wait for bed temp

M107

;
; MBL
;
M84 E ; turn off E motor
G29 P1 ; invalidate mbl & probe print area
G29 P1 X0 Y0 W50 H20 C ; probe near purge place
G29 P3.2 ; interpolate mbl probes
G29 P3.13 ; extrapolate mbl outside probe area
G29 A ; activate mbl

; prepare for purge
M104 S230
G0 X0 Y-4 Z15 F4800 ; move away and ready for the purge
M109 S230

G92 E0
M569 S0 E ; set spreadcycle mode for extruder

;
; Extrude purge line
;
G92 E0 ; reset extruder position
G1 E2 F2400 ; deretraction after the initial one before nozzle cleaning
G0 E7 X15 Z0.2 F500 ; purge
G0 X25 E4 F500 ; purge
G0 X35 E4 F650 ; purge
G0 X45 E4 F800 ; purge
G0 X48 Z0.05 F8000 ; wipe, move close to the bed
G0 X51 Z0.2 F8000 ; wipe, move quickly away from the bed

G92 E0
M221 S100 ; set flow to 100%
G21 ; set units to millimeters
G90 ; use absolute coordinates
M83 ; use relative distances for extrusion
M900 K0.07 ; Filament gcode



M142 S36 ; set heatbreak target temp
M107
;LAYER_CHANGE
;Z:0.2
;HEIGHT:0.2
;BEFORE_LAYER_CHANGE
G92 E0.0
;0.2


G1 E-1 F2100
G1 Z.15 F720
G1 Z.2
;AFTER_LAYER_CHANGE
;0.2
; printing object capuchon 30mm alu motedis.STL id:0 copy 2
G1 Z.35
G1 X142.732 Y83.743 F12000
G1 Z.2 F720
G1 E1 F1500
M204 P600
;TYPE:Perimeter
;WIDTH:0.499999
G1 F1200
G1 X159.247 Y83.746 E.62767
G1 X159.247 Y100.258 E.62756
G1 X142.732 Y100.258 E.62767
G1 X142.732 Y83.803 E.62539
M204 P1000
G1 X142.293 Y83.332 F12000
M204 P600
;TYPE:External perimeter
G1 F1200
G1 X142.353 Y83.285 E.0029
G1 X159.6 Y83.289 E.65549
G1 X159.655 Y83.304 E.00217
G1 X159.705 Y83.394 E.00391
G1 X159.705 Y100.589 E.65352
G1 X159.695 Y100.636 E.00183
G1 X159.603 Y100.715 E.00461
G1 X142.393 Y100.715 E.65409
G1 X142.322 Y100.697 E.00278
G1 X142.275 Y100.637 E.0029
G1 X142.278 Y83.391 E.65546
M204 P1000
G1 X142.369 Y83.339 F12000
;WIPE_START
G1 F9600
G1 X142.353 Y83.285 E-.02698
G1 X147.035 Y83.286 E-.97302
;WIPE_END
G1 Z.35 F720
G1 X158.099 Y83.952 F12000
G1 Z.2 F720
G1 E1 F1500
M204 P600
;TYPE:Solid infill
;WIDTH:0.508962
G1 F1200
G1 X158.836 Y84.689 E.04039
G1 X158.836 Y85.348 E.02554
G1 X157.645 Y84.157 E.06527
G1 X156.986 Y84.157 E.02554
G1 X158.836 Y86.007 E.10139
G1 X158.836 Y86.667 E.02558
G1 X156.327 Y84.157 E.13753
G1 X155.667 Y84.157 E.02558
G1 X158.836 Y87.326 E.17367
G1 X158.836 Y87.985 E.02554
G1 X155.008 Y84.157 E.20979
G1 X154.349 Y84.157 E.02554
G1 X158.836 Y88.644 E.2459
G1 X158.836 Y89.303 E.02554
G1 X153.69 Y84.156 E.28204
G1 X153.03 Y84.156 E.02558
G1 X158.836 Y89.962 E.31819
G1 X158.836 Y90.621 E.02554
G1 X152.371 Y84.156 E.3543
G1 X151.712 Y84.156 E.02554
G1 X158.836 Y91.28 E.39042
G1 X158.836 Y91.939 E.02554
G1 X151.053 Y84.156 E.42653
G1 X150.394 Y84.156 E.02554
G1 X158.836 Y92.598 E.46265
G1 X158.836 Y93.257 E.02554
G1 X149.734 Y84.156 E.49879
G1 X149.075 Y84.155 E.02554
G1 X158.836 Y93.916 E.53493
G1 X158.836 Y94.576 E.02558
G1 X148.416 Y84.155 E.57107
G1 X147.757 Y84.155 E.02554
G1 X158.836 Y95.235 E.60719
G1 X158.836 Y95.894 E.02554
G1 X147.097 Y84.155 E.64333
G1 X146.438 Y84.155 E.02554
G1 X158.836 Y96.553 E.67945
G1 X158.836 Y97.212 E.02554
G1 X145.779 Y84.155 E.71556
G1 X145.12 Y84.155 E.02554
G1 X158.836 Y97.871 E.75168
G1 X158.836 Y98.53 E.02554
G1 X144.46 Y84.154 E.78785
G1 X143.801 Y84.154 E.02554
G1 X158.836 Y99.189 E.82396
G1 X158.836 Y99.846 E.02546
G1 X143.144 Y84.156 E.85991
G1 X143.144 Y84.815 E.02554
G1 X158.175 Y99.846 E.82374
G1 X157.516 Y99.846 E.02554
G1 X143.144 Y85.474 E.78763
G1 X143.144 Y86.133 E.02554
G1 X156.857 Y99.846 E.75151
G1 X156.198 Y99.846 E.02554
G1 X143.144 Y86.792 E.7154
G1 X143.144 Y87.451 E.02554
G1 X155.539 Y99.846 E.67928
G1 X154.88 Y99.846 E.02554
G1 X143.144 Y88.11 E.64317
G1 X143.144 Y88.769 E.02554
G1 X154.221 Y99.846 E.60705
G1 X153.561 Y99.846 E.02558
G1 X143.144 Y89.429 E.57088
G1 X143.144 Y90.088 E.02554
G1 X152.902 Y99.846 E.53477
G1 X152.243 Y99.846 E.02554
G1 X143.144 Y90.747 E.49865
G1 X143.144 Y91.406 E.02554
M73 P1 R61
G1 X151.584 Y99.846 E.46254
G1 X150.925 Y99.846 E.02554
G1 X143.144 Y92.065 E.42642
G1 X143.144 Y92.724 E.02554
G1 X150.266 Y99.846 E.39031
G1 X149.607 Y99.846 E.02554
G1 X143.144 Y93.383 E.35419
G1 X143.144 Y94.042 E.02554
G1 X148.948 Y99.846 E.31808
G1 X148.289 Y99.846 E.02554
G1 X143.144 Y94.701 E.28196
G1 X143.144 Y95.36 E.02554
G1 X147.63 Y99.846 E.24585
G1 X146.971 Y99.846 E.02554
G1 X143.144 Y96.019 E.20973
G1 X143.144 Y96.678 E.02554
G1 X146.312 Y99.846 E.17362
G1 X145.652 Y99.846 E.02558
G1 X143.144 Y97.338 E.13745
G1 X143.144 Y97.997 E.02554
G1 X144.993 Y99.846 E.10133
G1 X144.334 Y99.846 E.02554
G1 X143.144 Y98.656 E.06522
G1 X143.144 Y99.315 E.02554
M73 P1 R60
G1 X143.881 Y100.052 E.04039
M204 P1000
; stop printing object capuchon 30mm alu motedis.STL id:0 copy 2
; printing object capuchon 30mm alu motedis.STL id:0 copy 1
;WIPE_START
G1 F9600
G1 X143.144 Y99.315 E-.2166
G1 X143.144 Y98.656 E-.13695
G1 X144.334 Y99.846 E-.34973
G1 X144.993 Y99.846 E-.13695
G1 X144.449 Y99.302 E-.15977
;WIPE_END
G1 Z.35 F720
G1 X142.732 Y109.742 F12000
G1 Z.2 F720
G1 E1 F1500
M204 P600
;TYPE:Perimeter
;WIDTH:0.499999
G1 F1200
G1 X159.247 Y109.746 E.62767
G1 X159.247 Y126.257 E.62752
G1 X142.732 Y126.257 E.62767
G1 X142.732 Y109.802 E.62539
M204 P1000
G1 X142.293 Y109.332 F12000
M204 P600
;TYPE:External perimeter
G1 F1200
G1 X142.353 Y109.285 E.0029
G1 X159.6 Y109.289 E.65549
G1 X159.655 Y109.303 E.00216
G1 X159.705 Y109.393 E.00391
G1 X159.705 Y126.589 E.65356
G1 X159.695 Y126.635 E.00179
G1 X159.603 Y126.715 E.00463
G1 X142.393 Y126.715 E.65409
G1 X142.322 Y126.697 E.00278
G1 X142.275 Y126.637 E.0029
G1 X142.278 Y109.39 E.65549
M204 P1000
G1 X142.369 Y109.338 F12000
;WIPE_START
G1 F9600
G1 X142.353 Y109.285 E-.02682
G1 X147.036 Y109.286 E-.97318
;WIPE_END
G1 Z.35 F720
G1 X158.099 Y109.952 F12000
G1 Z.2 F720
G1 E1 F1500
M204 P600
;TYPE:Solid infill
;WIDTH:0.508962
G1 F1200
G1 X158.836 Y110.689 E.04039
G1 X158.836 Y111.348 E.02554
G1 X157.645 Y110.157 E.06527
G1 X156.986 Y110.157 E.02554
G1 X158.836 Y112.007 E.10139
G1 X158.836 Y112.666 E.02554
G1 X156.327 Y110.157 E.1375
G1 X155.667 Y110.157 E.02558
G1 X158.836 Y113.325 E.17364
G1 X158.836 Y113.984 E.02554
G1 X155.008 Y110.157 E.20976
G1 X154.349 Y110.156 E.02554
G1 X158.836 Y114.644 E.24593
G1 X158.836 Y115.303 E.02554
G1 X153.69 Y110.156 E.28204
G1 X153.03 Y110.156 E.02558
G1 X158.836 Y115.962 E.31819
G1 X158.836 Y116.621 E.02554
G1 X152.371 Y110.156 E.3543
G1 X151.712 Y110.156 E.02554
G1 X158.836 Y117.28 E.39042
G1 X158.836 Y117.939 E.02554
G1 X151.053 Y110.156 E.42653
G1 X150.394 Y110.156 E.02554
G1 X158.836 Y118.598 E.46265
G1 X158.836 Y119.257 E.02554
G1 X149.734 Y110.155 E.49882
G1 X149.075 Y110.155 E.02554
G1 X158.836 Y119.916 E.53493
G1 X158.836 Y120.575 E.02554
G1 X148.416 Y110.155 E.57105
G1 X147.757 Y110.155 E.02554
G1 X158.836 Y121.234 E.60716
G1 X158.836 Y121.893 E.02554
G1 X147.097 Y110.155 E.6433
G1 X146.438 Y110.155 E.02554
G1 X158.836 Y122.553 E.67945
G1 X158.836 Y123.212 E.02554
G1 X145.779 Y110.155 E.71556
G1 X145.12 Y110.154 E.02554
G1 X158.836 Y123.871 E.7517
G1 X158.836 Y124.53 E.02554
G1 X144.46 Y110.154 E.78785
G1 X143.801 Y110.154 E.02554
G1 X158.836 Y125.189 E.82396
G1 X158.836 Y125.846 E.02546
G1 X143.144 Y110.156 E.85991
G1 X143.144 Y110.815 E.02554
G1 X158.175 Y125.846 E.82374
G1 X157.516 Y125.846 E.02554
G1 X143.144 Y111.474 E.78763
G1 X143.144 Y112.133 E.02554
G1 X156.857 Y125.846 E.75151
G1 X156.198 Y125.846 E.02554
G1 X143.144 Y112.792 E.7154
G1 X143.144 Y113.451 E.02554
G1 X155.539 Y125.846 E.67928
G1 X154.88 Y125.846 E.02554
G1 X143.144 Y114.11 E.64317
G1 X143.144 Y114.769 E.02554
G1 X154.221 Y125.846 E.60705
G1 X153.561 Y125.846 E.02558
G1 X143.144 Y115.428 E.57091
G1 X143.144 Y116.087 E.02554
G1 X152.902 Y125.846 E.53479
G1 X152.243 Y125.846 E.02554
G1 X143.144 Y116.746 E.49868
G1 X143.144 Y117.406 E.02558
M73 P2 R60
G1 X151.584 Y125.846 E.46254
G1 X150.925 Y125.846 E.02554
G1 X143.144 Y118.065 E.42642
G1 X143.144 Y118.724 E.02554
G1 X150.266 Y125.846 E.39031
G1 X149.607 Y125.846 E.02554
G1 X143.144 Y119.383 E.35419
G1 X143.144 Y120.042 E.02554
G1 X148.948 Y125.846 E.31808
G1 X148.289 Y125.846 E.02554
G1 X143.144 Y120.701 E.28196
G1 X143.144 Y121.36 E.02554
G1 X147.63 Y125.846 E.24585
G1 X146.971 Y125.846 E.02554
G1 X143.144 Y122.019 E.20973
G1 X143.144 Y122.678 E.02554
G1 X146.312 Y125.846 E.17362
G1 X145.652 Y125.846 E.02558
G1 X143.144 Y123.337 E.13747
G1 X143.144 Y123.996 E.02554
G1 X144.993 Y125.846 E.10136
G1 X144.334 Y125.846 E.02554
G1 X143.144 Y124.655 E.06524
G1 X143.144 Y125.315 E.02558
G1 X143.881 Y126.052 E.04039
M204 P1000
; stop printing object capuchon 30mm alu motedis.STL id:0 copy 1
; printing object capuchon 30mm alu motedis.STL id:0 copy 3
;WIPE_START
G1 F9600
G1 X143.144 Y125.315 E-.2166
G1 X143.144 Y124.655 E-.13716
G1 X144.334 Y125.846 E-.34988
G1 X144.993 Y125.846 E-.13695
G1 X144.451 Y125.303 E-.15941
;WIPE_END
G1 Z.35 F720
G1 X116.733 Y109.742 F12000
G1 Z.2 F720
G1 E1 F1500
M204 P600
;TYPE:Perimeter
;WIDTH:0.499999
G1 F1200
G1 X133.248 Y109.746 E.62767
G1 X133.248 Y126.257 E.62752
G1 X116.733 Y126.257 E.62767
G1 X116.733 Y109.802 E.62539
M204 P1000
G1 X116.293 Y109.332 F12000
M204 P600
;TYPE:External perimeter
G1 F1200
G1 X116.353 Y109.285 E.0029
G1 X133.6 Y109.289 E.65549
G1 X133.655 Y109.303 E.00216
G1 X133.705 Y109.393 E.00391
G1 X133.705 Y126.589 E.65356
G1 X133.696 Y126.635 E.00178
G1 X133.603 Y126.715 E.00466
G1 X116.393 Y126.715 E.65409
G1 X116.322 Y126.697 E.00278
G1 X116.276 Y126.637 E.00287
G1 X116.279 Y109.39 E.65549
M204 P1000
G1 X116.369 Y109.338 F12000
;WIPE_START
G1 F9600
G1 X116.353 Y109.285 E-.02669
G1 X121.037 Y109.286 E-.97331
;WIPE_END
G1 Z.35 F720
G1 X132.099 Y109.952 F12000
G1 Z.2 F720
G1 E1 F1500
M204 P600
;TYPE:Solid infill
;WIDTH:0.508962
G1 F1200
G1 X132.836 Y110.689 E.04039
G1 X132.836 Y111.348 E.02554
G1 X131.645 Y110.157 E.06527
G1 X130.986 Y110.157 E.02554
G1 X132.836 Y112.007 E.10139
G1 X132.836 Y112.666 E.02554
G1 X130.327 Y110.157 E.1375
G1 X129.668 Y110.157 E.02554
G1 X132.836 Y113.325 E.17362
G1 X132.836 Y113.985 E.02558
G1 X129.008 Y110.157 E.20979
G1 X128.349 Y110.156 E.02554
G1 X132.836 Y114.644 E.24593
G1 X132.836 Y115.303 E.02554
G1 X127.69 Y110.156 E.28204
G1 X127.031 Y110.156 E.02554
G1 X132.836 Y115.962 E.31816
G1 X132.836 Y116.621 E.02554
G1 X126.371 Y110.156 E.3543
G1 X125.712 Y110.156 E.02554
G1 X132.836 Y117.28 E.39042
G1 X132.836 Y117.939 E.02554
G1 X125.053 Y110.156 E.42653
G1 X124.394 Y110.156 E.02554
G1 X132.836 Y118.598 E.46265
G1 X132.836 Y119.257 E.02554
G1 X123.735 Y110.155 E.49879
G1 X123.075 Y110.155 E.02558
G1 X132.836 Y119.916 E.53493
G1 X132.836 Y120.575 E.02554
G1 X122.416 Y110.155 E.57105
G1 X121.757 Y110.155 E.02554
G1 X132.836 Y121.234 E.60716
G1 X132.836 Y121.894 E.02558
G1 X121.098 Y110.155 E.6433
G1 X120.438 Y110.155 E.02558
G1 X132.836 Y122.553 E.67945
G1 X132.836 Y123.212 E.02554
G1 X119.779 Y110.155 E.71556
G1 X119.12 Y110.154 E.02554
G1 X132.836 Y123.871 E.7517
G1 X132.836 Y124.53 E.02554
G1 X118.461 Y110.154 E.78782
G1 X117.801 Y110.154 E.02558
G1 X132.836 Y125.189 E.82396
G1 X132.836 Y125.846 E.02546
G1 X117.144 Y110.156 E.85991
G1 X117.144 Y110.815 E.02554
G1 X132.175 Y125.846 E.82374
G1 X131.516 Y125.846 E.02554
G1 X117.144 Y111.474 E.78763
G1 X117.144 Y112.133 E.02554
G1 X130.857 Y125.846 E.75151
G1 X130.198 Y125.846 E.02554
G1 X117.144 Y112.792 E.7154
G1 X117.144 Y113.451 E.02554
M73 P2 R59
G1 X129.539 Y125.846 E.67928
G1 X128.88 Y125.846 E.02554
G1 X117.144 Y114.11 E.64317
G1 X117.144 Y114.769 E.02554
G1 X128.221 Y125.846 E.60705
G1 X127.562 Y125.846 E.02554
G1 X117.144 Y115.428 E.57094
G1 X117.144 Y116.087 E.02554
G1 X126.903 Y125.846 E.53482
G1 X126.244 Y125.846 E.02554
G1 X117.144 Y116.746 E.49871
G1 X117.144 Y117.406 E.02558
G1 X125.584 Y125.846 E.46254
G1 X124.925 Y125.846 E.02554
M73 P3 R59
G1 X117.144 Y118.065 E.42642
G1 X117.144 Y118.724 E.02554
G1 X124.266 Y125.846 E.39031
G1 X123.607 Y125.846 E.02554
G1 X117.144 Y119.383 E.35419
G1 X117.144 Y120.042 E.02554
G1 X122.948 Y125.846 E.31808
G1 X122.289 Y125.846 E.02554
G1 X117.144 Y120.701 E.28196
G1 X117.144 Y121.36 E.02554
G1 X121.63 Y125.846 E.24585
G1 X120.971 Y125.846 E.02554
G1 X117.144 Y122.019 E.20973
G1 X117.144 Y122.678 E.02554
G1 X120.312 Y125.846 E.17362
G1 X119.653 Y125.846 E.02554
G1 X117.144 Y123.337 E.1375
G1 X117.144 Y123.996 E.02554
G1 X118.994 Y125.846 E.10139
G1 X118.335 Y125.846 E.02554
G1 X117.144 Y124.655 E.06527
G1 X117.144 Y125.315 E.02558
G1 X117.881 Y126.052 E.04039
M204 P1000
; stop printing object capuchon 30mm alu motedis.STL id:0 copy 3
; printing object capuchon 30mm alu motedis haut.STL id:1 copy 1
;WIPE_START
G1 F9600
G1 X117.144 Y125.315 E-.2166
G1 X117.144 Y124.655 E-.13716
G1 X118.335 Y125.846 E-.35002
G1 X118.994 Y125.846 E-.13695
G1 X118.452 Y125.304 E-.15927
;WIPE_END
G1 Z.35 F720
G1 X90.752 Y109.74 F12000
G1 Z.2 F720
G1 E1 F1500
M204 P600
;TYPE:Perimeter
;WIDTH:0.499999
G1 F1200
G1 X107.249 Y109.744 E.62699
G1 X107.249 Y126.238 E.62688
G1 X90.752 Y126.238 E.62699
G1 X90.752 Y109.8 E.62475
M204 P1000
G1 X90.312 Y109.33 F12000
M204 P600
;TYPE:External perimeter
G1 F1200
G1 X90.372 Y109.283 E.0029
G1 X107.602 Y109.287 E.65485
G1 X107.657 Y109.301 E.00216
G1 X107.706 Y109.391 E.00389
G1 X107.706 Y126.569 E.65287
G1 X107.697 Y126.616 E.00182
G1 X107.605 Y126.695 E.00461
G1 X90.412 Y126.695 E.65344
G1 X90.341 Y126.677 E.00278
G1 X90.294 Y126.617 E.0029
G1 X90.298 Y109.388 E.65481
M204 P1000
G1 X90.388 Y109.336 F12000
;WIPE_START
G1 F9600
G1 X90.372 Y109.283 E-.02669
G1 X95.056 Y109.284 E-.97331
;WIPE_END
G1 Z.35 F720
G1 X106.101 Y109.949 F12000
G1 Z.2 F720
G1 E1 F1500
M204 P600
;TYPE:Solid infill
;WIDTH:0.508451
G1 F1200
G1 X106.838 Y110.686 E.04035
G1 X106.838 Y111.344 E.02547
G1 X105.648 Y110.155 E.06512
G1 X104.99 Y110.155 E.02547
G1 X106.838 Y112.003 E.10116
G1 X106.838 Y112.661 E.02547
G1 X104.331 Y110.155 E.13721
G1 X103.673 Y110.155 E.02547
G1 X106.838 Y113.319 E.17323
G1 X106.838 Y113.978 E.02551
G1 X103.014 Y110.154 E.20934
G1 X102.356 Y110.154 E.02547
G1 X106.838 Y114.636 E.24536
G1 X106.838 Y115.294 E.02547
G1 X101.697 Y110.154 E.28141
G1 X101.039 Y110.154 E.02547
G1 X106.838 Y115.953 E.31745
G1 X106.838 Y116.611 E.02547
G1 X100.38 Y110.154 E.3535
G1 X99.722 Y110.154 E.02547
G1 X106.838 Y117.269 E.38952
G1 X106.838 Y117.928 E.02551
G1 X99.063 Y110.154 E.4256
G1 X98.405 Y110.153 E.02547
G1 X106.838 Y118.586 E.46165
G1 X106.838 Y119.245 E.02551
G1 X97.746 Y110.153 E.49772
G1 X97.088 Y110.153 E.02547
G1 X106.838 Y119.903 E.53374
G1 X106.838 Y120.561 E.02547
G1 X96.429 Y110.153 E.56979
G1 X95.771 Y110.153 E.02547
G1 X106.838 Y121.22 E.60584
