; generated by PrusaSlicer 2.6.0+win64 on 2023-08-28 at 20:06:11 UTC


;
;

;
;

;
;
; 

; external perimeters extrusion width = 0.50mm
; perimeters extrusion width = 0.50mm
; infill extrusion width = 0.50mm
; solid infill extrusion width = 0.50mm
; top infill extrusion width = 0.45mm
; first layer extrusion width = 0.50mm

M73 P0 R276
M201 X2500 Y2500 Z200 E2500 ; sets maximum accelerations, mm/sec^2
M203 X200 Y200 Z40 E100 ; sets maximum feedrates, mm / sec
M204 P2000 R1200 T2000 ; sets acceleration (P, T) and retract acceleration (R), mm/sec^2
M205 X8.00 Y8.00 Z2.00 E10.00 ; sets the jerk limits, mm/sec
M205 S0 T0 ; sets the minimum extruding and travel feed rate, mm/sec
;TYPE:Custom
M17 ; enable steppers
M862.3 P "MK4" ; printer model check
M862.1 P0.4 ; nozzle diameter check
M555 X33.953 Y15.8839 W211.43 H173.706

G90 ; use absolute coordinates
M83 ; extruder relative mode

M140 S60 ; set bed temp

M104 S170 ; set extruder temp for bed leveling
M109 R170 ; wait for temp


M84 E ; turn off E motor

G28 ; home all without mesh bed level

G1 X42 Y-4 Z5 F4800

M302 S160 ; lower cold extrusion limit to 160C


G1 E-2 F2400 ; retraction


M84 E ; turn off E motor

G29 P9 X10 Y-4 W32 H4

M106 S100

G0 Z40 F10000

M190 S60 ; wait for bed temp

M107

;
; MBL
;
M84 E ; turn off E motor
G29 P1 ; invalidate mbl & probe print area
G29 P1 X0 Y0 W50 H20 C ; probe near purge place
G29 P3.2 ; interpolate mbl probes
G29 P3.13 ; extrapolate mbl outside probe area
G29 A ; activate mbl

; prepare for purge
M104 S215
G0 X0 Y-4 Z15 F4800 ; move away and ready for the purge
M109 S215

G92 E0
M569 S0 E ; set spreadcycle mode for extruder

;
; Extrude purge line
;
G92 E0 ; reset extruder position
G1 E2 F2400 ; deretraction after the initial one before nozzle cleaning
G0 E7 X15 Z0.2 F500 ; purge
G0 X25 E4 F500 ; purge
G0 X35 E4 F650 ; purge
G0 X45 E4 F800 ; purge
G0 X48 Z0.05 F8000 ; wipe, move close to the bed
G0 X51 Z0.2 F8000 ; wipe, move quickly away from the bed

G92 E0
M221 S100 ; set flow to 100%
G21 ; set units to millimeters
G90 ; use absolute coordinates
M83 ; use relative distances for extrusion
M900 K0.05 ; Filament gcode



M142 S36 ; set heatbreak target temp
M107
;LAYER_CHANGE
;Z:0.2
;HEIGHT:0.2
;BEFORE_LAYER_CHANGE
G92 E0.0
;0.2


G1 E-.8 F2100
G1 Z.2 F720
;AFTER_LAYER_CHANGE
;0.2
; printing object Pieges harpe.STL id:0 copy 0
G1 Z.4
G1 X91.906 Y86.348 F12000
G1 Z.2 F720
G1 E.8 F1500
M204 P600
;TYPE:Perimeter
;WIDTH:0.499999
G1 F1200
G1 X91.886 Y86.138 E.00802
G1 X91.722 Y85.872 E.01188
G1 X35.169 Y29.319 E3.03967
G1 X38.884 Y25.651 E.19842
G1 X43.732 Y20.791 E.2609
G1 X140.14 Y20.793 E3.66411
G1 X148.994 Y21.568 E.33779
G1 X157.671 Y23.265 E.33603
G1 X166.198 Y25.89 E.33909
G1 X174.396 Y29.405 E.33901
G1 X182.144 Y33.75 E.33762
G1 X189.418 Y38.911 E.33897
M73 P0 R275
G1 X196.077 Y44.788 E.33755
G1 X202.079 Y51.335 E.33757
G1 X207.354 Y58.479 E.33751
G1 X211.866 Y66.176 E.33909
G1 X215.519 Y74.27 E.3375
G1 X218.315 Y82.762 E.33979
G1 X218.736 Y84.375 E.06336
G1 X218.946 Y84.978 E.02427
G1 X219.218 Y85.492 E.0221
G1 X219.535 Y85.928 E.02049
G1 X219.937 Y86.34 E.02188
G1 X220.395 Y86.688 E.02186
G1 X220.899 Y86.965 E.02186
G1 X221.438 Y87.165 E.02185
G1 X222.001 Y87.283 E.02186
G1 X222.516 Y87.319 E.01962
G1 X242.269 Y87.32 E.75074
G1 X242.528 Y87.334 E.00986
G1 X243.027 Y87.423 E.01926
G1 X243.619 Y87.722 E.02521
G1 X243.969 Y88.053 E.01831
G1 X244.253 Y88.464 E.01899
G1 X244.415 Y88.921 E.01843
G1 X244.476 Y89.484 E.02152
G1 X244.475 Y119.72 E1.14916
G1 X244.397 Y120.285 E.02168
G1 X244.2 Y120.773 E.02
G1 X243.861 Y121.201 E.02075
G1 X243.436 Y121.537 E.02059
G1 X242.929 Y121.739 E.02074
G1 X242.351 Y121.821 E.02219
G1 X222.546 Y121.829 E.75271
G1 X221.979 Y121.878 E.02163
G1 X221.418 Y122.012 E.02192
G1 X220.883 Y122.227 E.02191
G1 X220.386 Y122.519 E.02191
G1 X219.918 Y122.901 E.02296
G1 X219.487 Y123.394 E.02489
G1 X219.207 Y123.808 E.019
G1 X218.97 Y124.3 E.02076
G1 X218.814 Y124.782 E.01925
G1 X218.315 Y126.713 E.0758
G1 X215.533 Y135.169 E.33833
G1 X211.866 Y143.297 E.3389
G1 X207.376 Y150.962 E.33762
G1 X202.079 Y158.138 E.33899
G1 X196.078 Y164.685 E.33754
G1 X189.417 Y170.564 E.33766
G1 X182.176 Y175.703 E.33747
G1 X174.396 Y180.069 E.33907
G1 X166.198 Y183.583 E.33899
G1 X157.712 Y186.199 E.3375
G1 X148.992 Y187.905 E.3377
G1 X140.111 Y188.682 E.33882
G1 X43.73 Y188.682 E3.66308
G1 X35.166 Y180.156 E.45929
G1 X86.833 Y128.49 E2.77702
G1 X87.282 Y127.947 E.02678
G1 X87.607 Y127.377 E.02494
G1 X87.832 Y126.76 E.02496
G1 X87.951 Y126.115 E.02493
G1 X87.96 Y125.459 E.02493
G1 X87.859 Y124.81 E.02496
G1 X87.651 Y124.189 E.02489
G1 X87.341 Y123.609 E.02499
G1 X86.94 Y123.091 E.0249
G1 X86.457 Y122.647 E.02493
G1 X85.907 Y122.29 E.02492
G1 X85.304 Y122.03 E.02496
G1 X84.665 Y121.874 E.025
G1 X84.076 Y121.827 E.02246
G1 X68.123 Y121.821 E.60631
G1 X67.862 Y121.807 E.00993
G1 X67.355 Y121.716 E.01958
G1 X66.932 Y121.517 E.01777
G1 X66.443 Y121.112 E.02413
G1 X66.139 Y120.677 E.02017
G1 X65.977 Y120.222 E.01836
G1 X65.916 Y119.713 E.01948
G1 X65.917 Y89.431 E1.15091
G1 X65.993 Y88.866 E.02167
G1 X66.192 Y88.369 E.02035
G1 X66.53 Y87.941 E.02073
G1 X66.956 Y87.604 E.02064
G1 X67.463 Y87.403 E.02073
G1 X68.041 Y87.32 E.02219
G1 X90.267 Y87.316 E.84473
G1 X91.271 Y87.3 E.03816
G1 X91.546 Y87.17 E.01156
G1 X91.743 Y86.924 E.01198
G1 X91.915 Y86.454 E.01902
G1 X91.911 Y86.408 E.00175
M204 P1000
G1 X91.465 Y86.362 F12000
M204 P600
;TYPE:External perimeter
G1 F1200
G1 X91.398 Y86.195 E.00684
G1 X34.762 Y29.56 E3.0441
G1 X34.544 Y29.294 E.01307
G1 X38.563 Y25.325 E.21468
G1 X43.542 Y20.334 E.26794
G1 X140.16 Y20.336 E3.67209
G1 X149.058 Y21.115 E.33947
G1 X157.782 Y22.821 E.33785
G1 X166.356 Y25.461 E.34096
G1 X174.598 Y28.994 E.34081
G1 X182.389 Y33.363 E.33949
G1 X189.702 Y38.552 E.3408
G1 X196.398 Y44.461 E.33941
G1 X202.432 Y51.044 E.3394
G1 X207.736 Y58.227 E.33936
G1 X212.272 Y65.966 E.34093
G1 X215.946 Y74.104 E.33935
G1 X218.754 Y82.633 E.34127
G1 X219.178 Y84.26 E.0639
G1 X219.341 Y84.747 E.01952
G1 X219.571 Y85.199 E.01927
G1 X219.866 Y85.613 E.01932
G1 X220.218 Y85.979 E.0193
G1 X220.613 Y86.286 E.01901
G1 X221.049 Y86.532 E.01903
G1 X221.516 Y86.713 E.01904
G1 X222.014 Y86.825 E.0194
G1 X222.516 Y86.862 E.01913
G1 X242.269 Y86.863 E.75074
G1 X242.608 Y86.882 E.0129
G1 X243.175 Y86.989 E.02193
G1 X243.627 Y87.191 E.01882
G1 X244.048 Y87.487 E.01956
G1 X244.453 Y87.915 E.02239
G1 X244.74 Y88.446 E.02294
G1 X244.908 Y89.015 E.02255
G1 X244.933 Y89.484 E.01785
G1 X244.932 Y119.6 E1.1446
G1 X244.922 Y119.858 E.00981
G1 X244.838 Y120.403 E.02096
G1 X244.598 Y121.002 E.02453
G1 X244.343 Y121.366 E.01689
G1 X244.029 Y121.68 E.01688
G1 X243.665 Y121.935 E.01689
G1 X243.262 Y122.123 E.0169
G1 X242.833 Y122.238 E.01688
G1 X242.371 Y122.278 E.01762
G1 X222.596 Y122.284 E.75157
G1 X222.092 Y122.322 E.01921
G1 X221.594 Y122.435 E.01941
G1 X221.124 Y122.617 E.01916
G1 X220.689 Y122.864 E.01901
G1 X220.293 Y123.172 E.01907
G1 X220.097 Y123.39 E.01114
G1 X219.637 Y123.972 E.02819
G1 X219.413 Y124.419 E.019
G1 X219.257 Y124.895 E.01904
G1 X218.754 Y126.842 E.07643
G1 X215.96 Y135.335 E.33981
G1 X212.272 Y143.507 E.34075
G1 X207.758 Y151.214 E.33946
G1 X202.432 Y158.429 E.34083
G1 X196.399 Y165.011 E.33934
G1 X189.701 Y170.922 E.33952
G1 X182.421 Y176.089 E.33929
G1 X174.598 Y180.479 E.34094
G1 X166.356 Y184.013 E.34083
G1 X157.823 Y186.643 E.33936
G1 X149.056 Y188.359 E.33952
G1 X140.131 Y189.14 E.3405
G1 X43.541 Y189.14 E3.67103
G1 X34.543 Y180.181 E.48259
G1 X34.75 Y179.926 E.01248
G1 X86.51 Y128.167 E2.78202
G1 X86.888 Y127.714 E.02242
G1 X87.18 Y127.213 E.02204
M73 P0 R274
G1 X87.384 Y126.671 E.02201
G1 X87.494 Y126.102 E.02203
G1 X87.507 Y125.522 E.02205
G1 X87.423 Y124.949 E.02201
G1 X87.245 Y124.398 E.02201
G1 X86.975 Y123.883 E.0221
G1 X86.626 Y123.423 E.02195
G1 X86.203 Y123.027 E.02202
G1 X85.719 Y122.707 E.02205
G1 X85.189 Y122.472 E.02203
G1 X84.626 Y122.33 E.02207
G1 X84.076 Y122.284 E.02098
G1 X68.123 Y122.278 E.60631
G1 X67.602 Y122.245 E.01984
G1 X67.007 Y122.066 E.02361
G1 X66.507 Y121.792 E.02167
G1 X66.038 Y121.342 E.0247
G1 X65.73 Y120.885 E.02095
G1 X65.532 Y120.328 E.02247
G1 X65.459 Y119.728 E.02297
G1 X65.46 Y89.51 E1.14847
G1 X65.492 Y88.97 E.02056
G1 X65.606 Y88.542 E.01683
G1 X65.794 Y88.139 E.0169
G1 X66.049 Y87.775 E.01689
G1 X66.363 Y87.461 E.01688
G1 X66.727 Y87.206 E.01689
G1 X67.129 Y87.019 E.01685
G1 X67.559 Y86.904 E.01692
G1 X68.021 Y86.863 E.01763
G1 X91.133 Y86.859 E.8784
G1 X91.294 Y86.782 E.00678
G1 X91.443 Y86.418 E.01495
M204 P1000
G1 X91.615 Y86.263 F12000
G1 E-.64 F2100
;WIPE_START
G1 F9600
G1 X91.398 Y86.195 E-.04728
G1 X91.014 Y85.811 E-.11272
;WIPE_END
G1 Z.4 F720
G1 X227.411 Y106.528 F12000
G1 Z.2 F720
G1 E.8 F1500
M204 P600
;TYPE:Perimeter
G1 F1200
G1 X227.077 Y106.072 E.02148
G1 X226.861 Y105.609 E.01942
G1 X226.726 Y105.115 E.01946
G1 X226.677 Y104.611 E.01925
G1 X226.714 Y104.108 E.01917
G1 X226.839 Y103.599 E.01992
G1 X227.111 Y103.016 E.02445
G1 X227.42 Y102.593 E.01991
G1 X227.798 Y102.23 E.01992
G1 X228.233 Y101.938 E.01991
G1 X228.712 Y101.726 E.01991
G1 X229.221 Y101.601 E.01992
G1 X229.706 Y101.567 E.01848
G1 X230.205 Y101.608 E.01903
G1 X230.713 Y101.744 E.01999
G1 X231.188 Y101.966 E.01993
G1 X231.617 Y102.266 E.0199
G1 X231.987 Y102.636 E.01989
G1 X232.288 Y103.066 E.01995
G1 X232.528 Y103.599 E.02222
G1 X232.654 Y104.108 E.01993
G1 X232.689 Y104.63 E.01988
G1 X232.633 Y105.151 E.01992
G1 X232.487 Y105.655 E.01994
G1 X232.257 Y106.125 E.01989
G1 X231.948 Y106.548 E.01991
G1 X231.57 Y106.911 E.01992
G1 X231.135 Y107.203 E.01991
G1 X230.655 Y107.415 E.01994
G1 X230.147 Y107.541 E.01989
G1 X229.624 Y107.576 E.01992
G1 X229.103 Y107.52 E.01992
G1 X228.6 Y107.374 E.01991
G1 X228.129 Y107.143 E.01994
G1 X227.706 Y106.834 E.01991
G1 X227.453 Y106.571 E.01387
M204 P1000
G1 X227.725 Y106.196 F12000
M204 P600
;TYPE:External perimeter
G1 F1200
G1 X227.466 Y105.829 E.01707
G1 X227.281 Y105.424 E.01692
G1 X227.169 Y104.994 E.01689
G1 X227.134 Y104.551 E.01689
G1 X227.176 Y104.108 E.01691
G1 X227.294 Y103.68 E.01687
G1 X227.485 Y103.278 E.01692
G1 X227.743 Y102.916 E.01689
G1 X228.06 Y102.604 E.0169
G1 X228.426 Y102.352 E.01689
G1 X228.83 Y102.168 E.01687
G1 X229.261 Y102.056 E.01692
G1 X229.671 Y102.023 E.01563
G1 X230.146 Y102.063 E.01812
G1 X230.575 Y102.181 E.01691
G1 X230.976 Y102.372 E.01688
G1 X231.338 Y102.63 E.01689
G1 X231.65 Y102.947 E.0169
G1 X231.902 Y103.313 E.01689
G1 X232.087 Y103.717 E.01689
G1 X232.198 Y104.147 E.01688
G1 X232.234 Y104.591 E.01693
G1 X232.192 Y105.033 E.01687
G1 X232.073 Y105.462 E.01692
G1 X231.882 Y105.863 E.01688
G1 X231.624 Y106.225 E.01689
G1 X231.308 Y106.537 E.01688
G1 X230.942 Y106.789 E.01689
G1 X230.537 Y106.974 E.01692
G1 X230.107 Y107.085 E.01688
G1 X229.664 Y107.121 E.01689
G1 X229.221 Y107.078 E.01692
G1 X228.793 Y106.96 E.01687
G1 X228.392 Y106.769 E.01688
G1 X228 Y106.481 E.01849
G1 X227.764 Y106.242 E.01277
M204 P1000
G1 X227.331 Y106.265 F12000
G1 E-.64 F2100
;WIPE_START
G1 F9600
G1 X227.466 Y105.829 E-.10584
G1 X227.358 Y105.592 E-.05416
;WIPE_END
G1 Z.4 F720
G1 X81.34 Y107.526 F12000
G1 Z.2 F720
G1 E.8 F1500
M204 P600
;TYPE:Perimeter
G1 F1200
G1 X80.88 Y107.576 E.01759
G1 X80.357 Y107.541 E.01992
G1 X79.848 Y107.415 E.01993
G1 X79.369 Y107.203 E.01991
G1 X78.934 Y106.911 E.01991
G1 X78.556 Y106.548 E.01992
G1 X78.247 Y106.125 E.01991
G1 X78.016 Y105.655 E.0199
G1 X77.871 Y105.151 E.01993
G1 X77.815 Y104.63 E.01992
G1 X77.85 Y104.108 E.01988
G1 X77.975 Y103.599 E.01992
G1 X78.187 Y103.12 E.01991
G1 X78.479 Y102.685 E.01991
G1 X78.842 Y102.307 E.01992
G1 X79.265 Y101.998 E.01991
G1 X79.736 Y101.767 E.01994
G1 X80.239 Y101.621 E.01991
G1 X80.786 Y101.565 E.0209
G1 X81.338 Y101.608 E.02104
G1 X81.849 Y101.744 E.0201
G1 X82.324 Y101.966 E.01993
G1 X82.754 Y102.267 E.01995
G1 X83.124 Y102.637 E.01989
G1 X83.426 Y103.07 E.02006
G1 X83.648 Y103.547 E.02
G1 X83.781 Y104.041 E.01944
G1 X83.826 Y104.523 E.0184
G1 X83.79 Y105.034 E.01947
G1 X83.664 Y105.542 E.01989
G1 X83.452 Y106.022 E.01994
G1 X83.16 Y106.457 E.01991
G1 X82.797 Y106.834 E.01989
G1 X82.374 Y107.143 E.01991
G1 X81.904 Y107.374 E.0199
G1 X81.399 Y107.52 E.01998
M204 P1000
G1 X81.261 Y107.08 F12000
M204 P600
;TYPE:External perimeter
G1 F1200
G1 X80.8 Y107.121 E.01759
G1 X80.357 Y107.078 E.01692
G1 X79.929 Y106.96 E.01687
G1 X79.528 Y106.769 E.01688
G1 X79.165 Y106.511 E.01693
G1 X78.854 Y106.194 E.01688
G1 X78.602 Y105.828 E.01689
G1 X78.417 Y105.424 E.01689
G1 X78.305 Y104.994 E.01689
G1 X78.27 Y104.551 E.01689
G1 X78.312 Y104.108 E.01691
G1 X78.43 Y103.68 E.01687
G1 X78.621 Y103.278 E.01692
G1 X78.879 Y102.916 E.01689
G1 X79.196 Y102.604 E.0169
G1 X79.562 Y102.352 E.01689
G1 X79.966 Y102.168 E.01687
G1 X80.397 Y102.056 E.01692
G1 X80.807 Y102.023 E.01563
G1 X81.282 Y102.063 E.01812
G1 X81.711 Y102.181 E.01691
G1 X82.112 Y102.372 E.01688
G1 X82.474 Y102.63 E.01689
G1 X82.786 Y102.947 E.0169
G1 X83.038 Y103.313 E.01689
G1 X83.223 Y103.717 E.01689
G1 X83.335 Y104.147 E.01689
G1 X83.37 Y104.555 E.01556
G1 X83.328 Y105.033 E.01824
G1 X83.209 Y105.462 E.01692
G1 X82.999 Y105.891 E.01815
G1 X82.702 Y106.283 E.01869
G1 X82.326 Y106.619 E.01916
G1 X81.886 Y106.878 E.0194
G1 X81.319 Y107.066 E.0227
M204 P1000
G1 X81.131 Y107.459 F12000
G1 E-.64 F2100
;WIPE_START
G1 F9600
G1 X80.8 Y107.121 E-.10846
G1 X80.553 Y107.097 E-.05154
;WIPE_END
G1 Z.4 F720
G1 X202.717 Y52.546 F12000
G1 Z.2 F720
G1 E.8 F1500
M204 P600
;TYPE:Solid infill
;WIDTH:0.500718
G1 F1200
G1 X191.225 Y41.054 E.61865
G1 X189.162 Y39.234 E.10472
G1 X187.767 Y38.244 E.06512
G1 X203.567 Y54.043 E.85054
G1 X205.394 Y56.518 E.1171
G1 X185.539 Y36.663 E1.06886
G1 X183.31 Y35.081 E.10405
G1 X207.116 Y58.888 E1.28159
G1 X208.033 Y60.452 E.06901
G1 X181.366 Y33.785 E1.43558
G1 X179.892 Y32.959 E.06432
G1 X208.95 Y62.017 E1.56429
G1 X209.868 Y63.581 E.06903
G1 X178.419 Y32.132 E1.69301
G1 X176.945 Y31.306 E.06432
G1 X210.785 Y65.146 E1.82173
G1 X211.5 Y66.366 E.05383
G1 X211.617 Y66.626 E.01085
G1 X175.471 Y30.479 E1.94589
G1 X174.213 Y29.774 E.05489
G1 X174.047 Y29.703 E.00687
G1 X212.15 Y67.806 E2.05122
G1 X212.683 Y68.986 E.04929
G1 X172.914 Y29.217 E2.14091
G1 X171.78 Y28.731 E.04696
G1 X213.215 Y70.166 E2.23059
G1 X213.748 Y71.346 E.04929
G1 X170.647 Y28.245 E2.32028
G1 X169.514 Y27.759 E.04693
G1 X214.281 Y72.526 E2.40997
G1 X214.813 Y73.707 E.04931
G1 X168.38 Y27.274 E2.49965
G1 X167.247 Y26.788 E.04693
G1 X215.261 Y74.802 E2.58476
G1 X215.579 Y75.767 E.03868
G1 X166.114 Y26.302 E2.66288
G1 X165.168 Y26.004 E.03775
G1 X215.897 Y76.732 E2.73089
G1 X216.215 Y77.697 E.03868
G1 X164.233 Y25.716 E2.79835
G1 X163.298 Y25.428 E.03724
G1 X216.533 Y78.663 E2.86583
G1 X216.85 Y79.628 E.03866
M73 P0 R273
G1 X162.362 Y25.14 E2.93328
G1 X161.427 Y24.852 E.03724
G1 X217.168 Y80.593 E3.00074
G1 X217.486 Y81.559 E.03871
G1 X160.492 Y24.564 E3.06822
G1 X159.556 Y24.276 E.03728
G1 X217.804 Y82.524 E3.1357
G1 X217.921 Y82.878 E.01419
G1 X218.065 Y83.432 E.02179
G1 X158.621 Y23.988 E3.20008
G1 X157.686 Y23.7 E.03724
G1 X218.597 Y84.612 E3.27908
M204 P1000
G1 E-.64 F2100
;WIPE_START
G1 F9600
G1 X218.053 Y84.068 E-.16
;WIPE_END
G1 Z.4 F720
G1 X242.229 Y87.526 F12000
G1 Z.2 F720
G1 E.8 F1500
M204 P600
M73 P1 R273
G1 F1200
G1 X244.06 Y89.357 E.09857
G1 X244.064 Y90.009 E.02482
G1 X241.787 Y87.732 E.12258
G1 X241.14 Y87.732 E.02463
G1 X244.064 Y90.656 E.15741
G1 X244.064 Y91.304 E.02467
G1 X240.492 Y87.732 E.19229
G1 X239.845 Y87.732 E.02463
G1 X244.064 Y91.951 E.22712
G1 X244.064 Y92.599 E.02467
G1 X239.197 Y87.732 E.26201
G1 X238.55 Y87.732 E.02463
G1 X244.064 Y93.246 E.29684
G1 X244.064 Y93.893 E.02463
G1 X237.902 Y87.732 E.3317
G1 X237.255 Y87.731 E.02463
G1 X244.064 Y94.541 E.36658
G1 X244.064 Y95.188 E.02463
G1 X236.607 Y87.731 E.40144
G1 X235.96 Y87.731 E.02463
G1 X244.064 Y95.836 E.43629
G1 X244.064 Y96.483 E.02463
G1 X235.313 Y87.731 E.47112
G1 X234.665 Y87.731 E.02467
G1 X244.064 Y97.131 E.50601
G1 X244.064 Y97.778 E.02463
G1 X234.018 Y87.731 E.54084
G1 X233.37 Y87.731 E.02467
G1 X244.064 Y98.425 E.5757
