; generated by PrusaSlicer 2.6.0+win64 on 2023-08-25 at 13:08:53 UTC


;
;

;
;

;
;
; 

; external perimeters extrusion width = 0.45mm
; perimeters extrusion width = 0.45mm
; infill extrusion width = 0.45mm
; solid infill extrusion width = 0.45mm
; top infill extrusion width = 0.40mm
; support material extrusion width = 0.37mm
; first layer extrusion width = 0.50mm

M73 P0 R35
M201 X2500 Y2500 Z200 E2500 ; sets maximum accelerations, mm/sec^2
M203 X200 Y200 Z40 E100 ; sets maximum feedrates, mm / sec
M204 P2000 R1200 T2000 ; sets acceleration (P, T) and retract acceleration (R), mm/sec^2
M205 X8.00 Y8.00 Z2.00 E10.00 ; sets the jerk limits, mm/sec
M205 S0 T0 ; sets the minimum extruding and travel feed rate, mm/sec
;TYPE:Custom
M17 ; enable steppers
M862.3 P "MK4" ; printer model check
M862.1 P0.4 ; nozzle diameter check
M555 X110 Y61 W32 H84

G90 ; use absolute coordinates
M83 ; extruder relative mode

M140 S85 ; set bed temp

M104 S170 ; set extruder temp for bed leveling
M109 R170 ; wait for temp


M84 E ; turn off E motor

G28 ; home all without mesh bed level

G1 X42 Y-4 Z5 F4800

M302 S160 ; lower cold extrusion limit to 160C


G1 E-2 F2400 ; retraction


M84 E ; turn off E motor

G29 P9 X10 Y-4 W32 H4



G0 Z40 F10000

M190 S85 ; wait for bed temp

M107

;
; MBL
;
M84 E ; turn off E motor
G29 P1 ; invalidate mbl & probe print area
G29 P1 X0 Y0 W50 H20 C ; probe near purge place
G29 P3.2 ; interpolate mbl probes
G29 P3.13 ; extrapolate mbl outside probe area
G29 A ; activate mbl

; prepare for purge
M104 S230
G0 X0 Y-4 Z15 F4800 ; move away and ready for the purge
M109 S230

G92 E0
M569 S0 E ; set spreadcycle mode for extruder

;
; Extrude purge line
;
G92 E0 ; reset extruder position
G1 E2 F2400 ; deretraction after the initial one before nozzle cleaning
G0 E7 X15 Z0.2 F500 ; purge
G0 X25 E4 F500 ; purge
G0 X35 E4 F650 ; purge
G0 X45 E4 F800 ; purge
G0 X48 Z0.05 F8000 ; wipe, move close to the bed
G0 X51 Z0.2 F8000 ; wipe, move quickly away from the bed

G92 E0
M221 S100 ; set flow to 100%
G21 ; set units to millimeters
G90 ; use absolute coordinates
M83 ; use relative distances for extrusion
M900 K0.07 ; Filament gcode



M142 S36 ; set heatbreak target temp
M107
;LAYER_CHANGE
;Z:0.2
;HEIGHT:0.2
;BEFORE_LAYER_CHANGE
G92 E0.0
;0.2


G1 E-1 F2100
G1 Z.15 F720
G1 Z.2
;AFTER_LAYER_CHANGE
;0.2
; printing object support boite harpe.STL id:0 copy 0
G1 Z.35
G1 X111.123 Y143.295 F12000
G1 Z.2 F720
G1 E1 F1500
M204 P600
;TYPE:Perimeter
;WIDTH:0.499999
G1 F1200
G1 X110.971 Y142.91 E.01573
G1 X110.907 Y142.46 E.01727
G1 X110.907 Y67.614 E2.84462
G1 X110.914 Y67.465 E.00567
G1 X111.006 Y66.956 E.01966
G1 X111.282 Y66.478 E.02098
G1 X111.705 Y66.123 E.02099
G1 X112.09 Y65.971 E.01573
G1 X112.54 Y65.907 E.01727
G1 X137.386 Y65.907 E.9443
G1 X137.535 Y65.914 E.00567
G1 X138.044 Y66.006 E.01966
G1 X138.522 Y66.282 E.02098
G1 X138.877 Y66.705 E.02099
G1 X139.029 Y67.09 E.01573
G1 X139.093 Y67.614 E.02006
G1 X139.093 Y142.386 E2.84181
G1 X139.086 Y142.535 E.00567
G1 X138.994 Y143.044 E.01966
G1 X138.718 Y143.522 E.02098
G1 X138.295 Y143.876 E.02096
G1 X137.91 Y144.029 E.01575
G1 X137.46 Y144.093 E.01727
G1 X112.614 Y144.093 E.9443
G1 X112.465 Y144.086 E.00567
G1 X111.956 Y143.994 E.01966
G1 X111.478 Y143.718 E.02098
G1 X111.162 Y143.341 E.0187
M204 P1000
G1 X110.726 Y143.524 F12000
M204 P600
;TYPE:External perimeter
G1 F1200
G1 X110.529 Y143.028 E.02028
G1 X110.45 Y142.48 E.02104
G1 X110.45 Y67.52 E2.84895
G1 X110.529 Y66.972 E.02104
G1 X110.726 Y66.476 E.02028
G1 X111.057 Y66.057 E.02029
G1 X111.476 Y65.726 E.02029
G1 X111.972 Y65.529 E.02028
G1 X112.52 Y65.45 E.02104
G1 X137.386 Y65.45 E.94506
G1 X137.678 Y65.467 E.01112
G1 X138.201 Y65.575 E.0203
M73 P1 R35
G1 X138.67 Y65.829 E.02027
G1 X139.069 Y66.183 E.02027
G1 X139.349 Y66.638 E.0203
G1 X139.517 Y67.144 E.02026
G1 X139.55 Y67.614 E.01791
G1 X139.55 Y142.48 E2.84538
G1 X139.471 Y143.028 E.02104
G1 X139.274 Y143.524 E.02028
G1 X138.943 Y143.943 E.02029
G1 X138.524 Y144.274 E.02029
G1 X138.028 Y144.471 E.02028
G1 X137.48 Y144.55 E.02104
G1 X112.52 Y144.55 E.94864
G1 X111.972 Y144.471 E.02104
G1 X111.476 Y144.274 E.02028
G1 X111.057 Y143.943 E.02029
G1 X110.763 Y143.571 E.01802
M204 P1000
G1 X110.929 Y143.18 F12000
;WIPE_START
G1 F9600
G1 X110.529 Y143.028 E-.12287
G1 X110.45 Y142.48 E-.11506
G1 X110.45 Y138.813 E-.76207
;WIPE_END
G1 Z.35 F720
G1 X122.679 Y75.559 F12000
G1 Z.2 F720
G1 E1 F1500
M204 P600
;TYPE:Perimeter
G1 F1200
G1 X122.717 Y75.506 E.00248
G1 X123.098 Y75.14 E.02008
G1 X123.537 Y74.846 E.02008
G1 X124.02 Y74.632 E.02008
G1 X124.533 Y74.505 E.02009
G1 X125.022 Y74.472 E.01863
G1 X125.585 Y74.526 E.0215
G1 X126.093 Y74.673 E.0201
G1 X126.567 Y74.906 E.02007
G1 X126.994 Y75.217 E.02008
G1 X127.36 Y75.598 E.02008
G1 X127.654 Y76.037 E.02008
G1 X127.868 Y76.52 E.02008
G1 X127.995 Y77.033 E.02009
G1 X128.03 Y77.56 E.02007
G1 X127.974 Y78.085 E.02007
G1 X127.827 Y78.593 E.0201
G1 X127.594 Y79.067 E.02007
G1 X127.283 Y79.494 E.02008
G1 X126.902 Y79.86 E.02008
G1 X126.463 Y80.154 E.02008
G1 X125.98 Y80.368 E.02008
G1 X125.467 Y80.495 E.02009
G1 X124.94 Y80.53 E.02007
G1 X124.415 Y80.474 E.02007
G1 X123.907 Y80.327 E.0201
G1 X123.433 Y80.094 E.02007
G1 X123.006 Y79.783 E.02008
G1 X122.64 Y79.402 E.02008
G1 X122.346 Y78.963 E.02008
G1 X122.132 Y78.48 E.02008
G1 X122.005 Y77.967 E.02009
G1 X121.967 Y77.5 E.01781
G1 X122.026 Y76.915 E.02235
G1 X122.173 Y76.407 E.0201
G1 X122.406 Y75.933 E.02007
G1 X122.644 Y75.607 E.01534
M204 P1000
G1 X123.032 Y75.842 F12000
M204 P600
;TYPE:External perimeter
G1 F1200
G1 X123.36 Y75.515 E.0176
G1 X123.73 Y75.26 E.01708
G1 X124.138 Y75.073 E.01706
G1 X124.572 Y74.961 E.01704
G1 X124.987 Y74.927 E.01583
G1 X125.467 Y74.968 E.01831
G1 X125.899 Y75.087 E.01703
G1 X126.305 Y75.28 E.01709
G1 X126.67 Y75.54 E.01703
G1 X126.985 Y75.86 E.01707
G1 X127.24 Y76.23 E.01708
G1 X127.426 Y76.638 E.01704
G1 X127.539 Y77.072 E.01704
G1 X127.575 Y77.52 E.01708
G1 X127.532 Y77.967 E.01707
G1 X127.413 Y78.399 E.01703
G1 X127.22 Y78.805 E.01709
G1 X126.96 Y79.17 E.01703
G1 X126.64 Y79.485 E.01707
G1 X126.27 Y79.74 E.01708
G1 X125.862 Y79.926 E.01704
G1 X125.428 Y80.039 E.01704
G1 X124.98 Y80.075 E.01708
G1 X124.533 Y80.032 E.01707
G1 X124.101 Y79.913 E.01703
G1 X123.695 Y79.72 E.01709
G1 X123.33 Y79.46 E.01703
G1 X123.015 Y79.14 E.01707
G1 X122.76 Y78.77 E.01708
G1 X122.573 Y78.362 E.01706
G1 X122.461 Y77.928 E.01704
G1 X122.424 Y77.5 E.01633
G1 X122.468 Y77.033 E.01783
G1 X122.587 Y76.601 E.01703
G1 X122.815 Y76.146 E.01934
G1 X122.997 Y75.891 E.01191
M204 P1000
G1 X122.896 Y75.465 F12000
;WIPE_START
G1 F9600
G1 X123.36 Y75.515 E-.10861
G1 X123.73 Y75.26 E-.09338
G1 X124.138 Y75.073 E-.09327
G1 X124.572 Y74.961 E-.09315
G1 X124.987 Y74.927 E-.08653
G1 X125.467 Y74.968 E-.10011
G1 X125.899 Y75.087 E-.09312
G1 X126.305 Y75.28 E-.09342
G1 X126.67 Y75.54 E-.09313
G1 X126.985 Y75.86 E-.09331
G1 X127.127 Y76.066 E-.05197
;WIPE_END
G1 Z.35 F720
G1 X123.923 Y135.325 F12000
G1 Z.2 F720
G1 E1 F1500
M204 P600
;TYPE:Perimeter
G1 F1200
G1 X123.537 Y135.154 E.01605
G1 X123.098 Y134.86 E.02008
G1 X122.717 Y134.494 E.02008
G1 X122.44 Y134.117 E.01778
G1 X122.173 Y133.593 E.02235
G1 X122.026 Y133.085 E.0201
G1 X121.97 Y132.56 E.02007
G1 X122.005 Y132.033 E.02007
G1 X122.132 Y131.52 E.02009
G1 X122.346 Y131.037 E.02008
G1 X122.64 Y130.598 E.02008
G1 X123.006 Y130.217 E.02008
G1 X123.433 Y129.906 E.02008
G1 X123.907 Y129.673 E.02007
G1 X124.415 Y129.526 E.0201
G1 X124.942 Y129.47 E.02014
G1 X125.459 Y129.505 E.01969
G1 X125.98 Y129.632 E.02038
G1 X126.463 Y129.846 E.02008
G1 X126.902 Y130.14 E.02008
G1 X127.283 Y130.506 E.02008
G1 X127.594 Y130.933 E.02008
G1 X127.827 Y131.407 E.02007
G1 X127.974 Y131.915 E.0201
G1 X128.03 Y132.44 E.02007
G1 X127.995 Y132.967 E.02007
G1 X127.868 Y133.48 E.02009
G1 X127.654 Y133.963 E.02008
G1 X127.36 Y134.402 E.02008
G1 X126.994 Y134.783 E.02008
G1 X126.567 Y135.094 E.02008
G1 X126.093 Y135.327 E.02007
G1 X125.585 Y135.474 E.0201
G1 X125.06 Y135.53 E.02007
G1 X124.533 Y135.495 E.02007
G1 X123.978 Y135.35 E.0218
M204 P1000
G1 X124.115 Y134.917 F12000
M204 P600
;TYPE:External perimeter
G1 F1200
G1 X123.695 Y134.72 E.01763
G1 X123.33 Y134.46 E.01703
G1 X123.015 Y134.14 E.01707
G1 X122.815 Y133.854 E.01326
G1 X122.587 Y133.399 E.01934
G1 X122.461 Y132.928 E.01853
G1 X122.425 Y132.48 E.01708
G1 X122.468 Y132.033 E.01707
G1 X122.587 Y131.601 E.01703
G1 X122.78 Y131.195 E.01709
G1 X123.04 Y130.83 E.01703
G1 X123.36 Y130.515 E.01707
G1 X123.73 Y130.26 E.01708
G1 X124.138 Y130.073 E.01706
G1 X124.572 Y129.961 E.01704
G1 X124.987 Y129.927 E.01583
G1 X125.467 Y129.968 E.01831
G1 X125.899 Y130.087 E.01703
G1 X126.305 Y130.28 E.01709
G1 X126.67 Y130.54 E.01703
G1 X126.985 Y130.86 E.01707
G1 X127.24 Y131.23 E.01708
G1 X127.426 Y131.638 E.01704
G1 X127.539 Y132.072 E.01704
G1 X127.575 Y132.52 E.01708
G1 X127.532 Y132.967 E.01707
G1 X127.413 Y133.399 E.01703
G1 X127.185 Y133.854 E.01934
G1 X126.96 Y134.17 E.01474
G1 X126.64 Y134.485 E.01707
G1 X126.27 Y134.74 E.01708
G1 X125.862 Y134.926 E.01704
G1 X125.428 Y135.039 E.01704
G1 X124.98 Y135.075 E.01708
G1 X124.533 Y135.032 E.01707
G1 X124.173 Y134.933 E.01419
M204 P1000
G1 X123.808 Y135.173 F12000
;WIPE_START
G1 F9600
G1 X123.695 Y134.72 E-.10875
G1 X123.33 Y134.46 E-.09313
G1 X123.015 Y134.14 E-.09331
G1 X122.815 Y133.854 E-.07253
G1 X122.587 Y133.399 E-.10576
G1 X122.461 Y132.928 E-.10132
G1 X122.425 Y132.48 E-.0934
G1 X122.468 Y132.033 E-.09332
G1 X122.587 Y131.601 E-.09312
G1 X122.78 Y131.195 E-.09342
G1 X122.925 Y130.991 E-.05194
;WIPE_END
G1 Z.35 F720
G1 X138.842 Y67.187 F12000
G1 Z.2 F720
G1 E1 F1500
M204 P600
;TYPE:Solid infill
;WIDTH:0.502368
G1 F1200
G1 X138.25 Y66.595 E.03198
G1 X138.088 Y66.481 E.00757
G1 X137.902 Y66.394 E.00784
G1 X137.704 Y66.341 E.00783
G1 X137.324 Y66.318 E.01454
G1 X138.682 Y67.676 E.07337
G1 X138.682 Y68.325 E.02479
G1 X136.675 Y66.318 E.10843
G1 X136.025 Y66.318 E.02483
G1 X138.682 Y68.975 E.14355
G1 X138.682 Y69.625 E.02483
G1 X135.375 Y66.318 E.17867
G1 X134.725 Y66.318 E.02483
G1 X138.682 Y70.275 E.21379
G1 X138.682 Y70.924 E.02479
G1 X134.076 Y66.318 E.24885
G1 X133.426 Y66.318 E.02483
G1 X138.682 Y71.574 E.28397
M73 P1 R34
G1 X138.682 Y72.224 E.02483
G1 X132.776 Y66.318 E.31909
G1 X132.126 Y66.318 E.02483
G1 X138.682 Y72.874 E.3542
G1 X138.682 Y73.523 E.02479
G1 X131.477 Y66.318 E.38927
G1 X130.827 Y66.318 E.02483
G1 X138.682 Y74.173 E.42439
G1 X138.682 Y74.823 E.02483
G1 X130.177 Y66.318 E.4595
G1 X129.527 Y66.318 E.02483
G1 X138.682 Y75.473 E.49462
G1 X138.682 Y76.122 E.02479
G1 X128.878 Y66.318 E.52969
G1 X128.228 Y66.318 E.02483
G1 X138.682 Y76.772 E.5648
G1 X138.682 Y77.422 E.02483
G1 X127.578 Y66.318 E.59992
G1 X126.928 Y66.318 E.02483
G1 X138.682 Y78.072 E.63504
G1 X138.682 Y78.721 E.02479
G1 X126.279 Y66.318 E.6701
G1 X125.629 Y66.318 E.02483
M73 P2 R34
G1 X138.682 Y79.371 E.70522
G1 X138.682 Y80.021 E.02483
G1 X124.979 Y66.318 E.74034
G1 X124.329 Y66.318 E.02483
G1 X138.682 Y80.671 E.77546
G1 X138.682 Y81.32 E.02479
G1 X123.68 Y66.318 E.81052
G1 X123.03 Y66.318 E.02483
G1 X138.682 Y81.97 E.84564
G1 X138.682 Y82.62 E.02483
G1 X122.38 Y66.318 E.88076
G1 X121.73 Y66.318 E.02483
G1 X138.682 Y83.27 E.91588
G1 X138.682 Y83.919 E.02479
G1 X121.081 Y66.318 E.95094
G1 X120.431 Y66.318 E.02483
G1 X138.682 Y84.569 E.98606
G1 X138.682 Y85.219 E.02483
G1 X119.781 Y66.318 E1.02117
G1 X119.131 Y66.318 E.02483
G1 X138.682 Y85.869 E1.05629
G1 X138.682 Y86.519 E.02483
G1 X118.481 Y66.318 E1.09141
G1 X117.832 Y66.318 E.02479
G1 X125.631 Y74.118 E.42139
G1 X125.499 Y74.095 E.00512
G1 X124.925 Y74.062 E.02196
G1 X117.182 Y66.318 E.41836
G1 X116.532 Y66.318 E.02483
G1 X124.338 Y74.124 E.42174
G1 X123.829 Y74.265 E.02018
G1 X115.882 Y66.318 E.42936
G1 X115.233 Y66.318 E.02479
G1 X123.379 Y74.465 E.44014
G1 X123.204 Y74.564 E.00768
G1 X122.983 Y74.719 E.01031
G1 X114.583 Y66.318 E.45386
G1 X113.933 Y66.318 E.02483
G1 X122.628 Y75.013 E.46977
G1 X122.421 Y75.221 E.01121
G1 X122.314 Y75.349 E.00637
G1 X113.283 Y66.318 E.48792
G1 X112.634 Y66.318 E.02479
G1 X122.047 Y75.732 E.50859
G1 X121.976 Y75.856 E.00546
G1 X121.832 Y76.166 E.01306
M73 P3 R34
G1 X112.072 Y66.406 E.52731
G1 X111.912 Y66.481 E.00675
G1 X111.744 Y66.599 E.00784
G1 X111.679 Y66.663 E.00348
G1 X121.67 Y76.654 E.53979
G1 X121.596 Y76.989 E.01311
G1 X121.578 Y77.212 E.00855
G1 X111.416 Y67.05 E.54903
G1 X111.341 Y67.296 E.00983
G1 X111.318 Y67.602 E.01172
G1 X121.822 Y78.106 E.56751
M204 P1000
;WIPE_START
G1 F9600
G1 X118.419 Y74.703 E-1
;WIPE_END
G1 Z.35 F720
G1 X128.098 Y76.585 F12000
G1 Z.2 F720
G1 E1 F1500
M204 P600
G1 F1200
G1 X138.682 Y87.168 E.5718
G1 X138.682 Y87.818 E.02483
G1 X128.438 Y77.575 E.55343
G1 X128.393 Y78.097 E.02002
G1 X128.376 Y78.162 E.00257
G1 X138.682 Y88.468 E.55681
G1 X138.682 Y89.118 E.02483
G1 X128.235 Y78.671 E.56443
G1 X128.035 Y79.121 E.01881
G1 X138.682 Y89.767 E.5752
G1 X138.682 Y90.417 E.02483
G1 X127.781 Y79.517 E.58893
G1 X127.692 Y79.645 E.00596
G1 X127.486 Y79.871 E.01168
G1 X138.682 Y91.067 E.60489
G1 X138.682 Y91.717 E.02483
G1 X127.15 Y80.185 E.62305
G1 X126.768 Y80.453 E.01783
G1 X138.682 Y92.366 E.64366
G1 X138.682 Y93.016 E.02483
G1 X126.334 Y80.668 E.66713
G1 X126.094 Y80.763 E.00986
G1 X125.845 Y80.829 E.00984
G1 X138.682 Y93.666 E.69355
G1 X138.682 Y94.316 E.02483
G1 X125.285 Y80.919 E.72381
G1 X125 Y80.945 E.01093
G1 X124.627 Y80.911 E.01431
G1 X138.682 Y94.965 E.75933
G1 X138.682 Y95.615 E.02483
G1 X123.786 Y80.72 E.80477
G1 X123.279 Y80.484 E.02136
G1 X122.856 Y80.193 E.01961
G1 X122.721 Y80.079 E.00675
G1 X122.421 Y79.779 E.01621
G1 X122.308 Y79.645 E.0067
G1 X122.064 Y79.296 E.01627
G1 X121.976 Y79.144 E.00671
G1 X121.78 Y78.714 E.01805
G1 X111.318 Y68.252 E.56524
G1 X111.318 Y68.902 E.02483
G1 X138.682 Y96.265 E1.47838
G1 X138.682 Y96.915 E.02483
G1 X111.318 Y69.552 E1.47838
G1 X111.318 Y70.201 E.02479
G1 X138.682 Y97.564 E1.47838
G1 X138.682 Y98.214 E.02483
G1 X111.318 Y70.851 E1.47838
G1 X111.318 Y71.501 E.02483
G1 X138.682 Y98.864 E1.47838
G1 X138.682 Y99.514 E.02483
G1 X111.318 Y72.151 E1.47838
G1 X111.318 Y72.8 E.02479
M73 P4 R34
G1 X138.682 Y100.163 E1.47838
G1 X138.682 Y100.813 E.02483
G1 X111.318 Y73.45 E1.47838
G1 X111.318 Y74.1 E.02483
G1 X138.682 Y101.463 E1.47838
G1 X138.682 Y102.113 E.02483
G1 X111.318 Y74.75 E1.47838
G1 X111.318 Y75.399 E.02479
G1 X138.682 Y102.762 E1.47838
G1 X138.682 Y103.412 E.02483
M73 P4 R33
G1 X111.318 Y76.049 E1.47838
G1 X111.318 Y76.699 E.02483
G1 X138.682 Y104.062 E1.47838
G1 X138.682 Y104.712 E.02483
G1 X111.318 Y77.349 E1.47838
G1 X111.318 Y77.998 E.02479
G1 X138.682 Y105.361 E1.47838
G1 X138.682 Y106.011 E.02483
G1 X111.318 Y78.648 E1.47838
G1 X111.318 Y79.298 E.02483
M73 P5 R33
G1 X138.682 Y106.661 E1.47838
G1 X138.682 Y107.311 E.02483
G1 X111.318 Y79.948 E1.47838
G1 X111.318 Y80.597 E.02479
G1 X138.682 Y107.961 E1.47841
G1 X138.682 Y108.61 E.02479
G1 X111.318 Y81.247 E1.47838
G1 X111.318 Y81.897 E.02483
G1 X138.682 Y109.26 E1.47838
G1 X138.682 Y109.91 E.02483
G1 X111.318 Y82.547 E1.47838
G1 X111.318 Y83.196 E.02479
G1 X138.682 Y110.56 E1.47841
G1 X138.682 Y111.209 E.02479
G1 X111.318 Y83.846 E1.47838
G1 X111.318 Y84.496 E.02483
G1 X138.682 Y111.859 E1.47838
G1 X138.682 Y112.509 E.02483
G1 X111.318 Y85.146 E1.47838
G1 X111.318 Y85.795 E.02479
G1 X138.682 Y113.159 E1.47841
G1 X138.682 Y113.808 E.02479
M73 P6 R33
G1 X111.318 Y86.445 E1.47838
G1 X111.318 Y87.095 E.02483
G1 X138.682 Y114.458 E1.47838
G1 X138.682 Y115.108 E.02483
G1 X111.318 Y87.745 E1.47838
G1 X111.318 Y88.394 E.02479
G1 X138.682 Y115.758 E1.47841
G1 X138.682 Y116.407 E.02479
G1 X111.318 Y89.044 E1.47838
G1 X111.318 Y89.694 E.02483
G1 X138.682 Y117.057 E1.47838
G1 X138.682 Y117.707 E.02483
G1 X111.318 Y90.344 E1.47838
G1 X111.318 Y90.994 E.02483
G1 X138.682 Y118.357 E1.47838
G1 X138.682 Y119.006 E.02479
G1 X111.318 Y91.643 E1.47838
G1 X111.318 Y92.293 E.02483
G1 X138.682 Y119.656 E1.47838
G1 X138.682 Y120.306 E.02483
G1 X111.318 Y92.943 E1.47838
G1 X111.318 Y93.593 E.02483
M73 P7 R33
G1 X138.682 Y120.956 E1.47838
