; generated by PrusaSlicer 2.6.1+win64 on 2023-11-15 at 17:48:08 UTC


;
;

;
;

;
;

;
;
; 

; external perimeters extrusion width = 0.50mm
; perimeters extrusion width = 0.50mm
; infill extrusion width = 0.50mm
; solid infill extrusion width = 0.50mm
; top infill extrusion width = 0.45mm
; first layer extrusion width = 0.50mm

M73 P0 R6
M201 X2500 Y2500 Z200 E2500 ; sets maximum accelerations, mm/sec^2
M203 X200 Y200 Z40 E100 ; sets maximum feedrates, mm / sec
M204 P2000 R1200 T2000 ; sets acceleration (P, T) and retract acceleration (R), mm/sec^2
M205 X8.00 Y8.00 Z2.00 E10.00 ; sets the jerk limits, mm/sec
M205 S0 T0 ; sets the minimum extruding and travel feed rate, mm/sec
;TYPE:Custom
M17 ; enable steppers
M862.3 P "MK4" ; printer model check
M862.1 P0.4 ; nozzle diameter check
M555 X114.573 Y93.8229 W32 H18.3543

G90 ; use absolute coordinates
M83 ; extruder relative mode

M140 S85 ; set bed temp
M104 T0 S195 ; set extruder temp for bed leveling
M109 T0 R195 ; wait for temp

M84 E ; turn off E motor

G28 ; home all without mesh bed level

G1 X42 Y-4 Z5 F4800

M302 S160 ; lower cold extrusion limit to 160C


G1 E-2 F2400 ; retraction


M84 E ; turn off E motor

G29 P9 X10 Y-4 W32 H4



G0 Z40 F10000

M190 S85 ; wait for bed temp

M107

;
; MBL
;
M84 E ; turn off E motor
G29 P1 ; invalidate mbl & probe print area
G29 P1 X0 Y0 W50 H20 C ; probe near purge place
G29 P3.2 ; interpolate mbl probes
G29 P3.13 ; extrapolate mbl outside probe area
G29 A ; activate mbl

; prepare for purge
M104 S230
G0 X0 Y-4 Z15 F4800 ; move away and ready for the purge
M109 S230

G92 E0
M569 S0 E ; set spreadcycle mode for extruder

;
; Extrude purge line
;
G92 E0 ; reset extruder position
G1 E2 F2400 ; deretraction after the initial one before nozzle cleaning
G0 E7 X15 Z0.2 F500 ; purge
G0 X25 E4 F500 ; purge
G0 X35 E4 F650 ; purge
G0 X45 E4 F800 ; purge
G0 X48 Z0.05 F8000 ; wipe, move close to the bed
G0 X51 Z0.2 F8000 ; wipe, move quickly away from the bed

G92 E0
M221 S100 ; set flow to 100%
G21 ; set units to millimeters
G90 ; use absolute coordinates
M83 ; use relative distances for extrusion
M900 K0.07 ; Filament gcode



M142 S36 ; set heatbreak target temp
M107
;LAYER_CHANGE
;Z:0.2
;HEIGHT:0.2
;BEFORE_LAYER_CHANGE
G92 E0.0
;0.2


G1 E-1 F2100
G1 Z.15 F720
G1 Z.2
;AFTER_LAYER_CHANGE
;0.2
; printing object Capteur lumiere.STL id:0 copy 0
G1 Z.35
M73 P1 R6
G1 X115.48 Y98.73 F12000
G1 Z.2 F720
G1 E1 F1500
M204 P600
;TYPE:Perimeter
;WIDTH:0.499999
M73 P2 R6
G1 F1200
G1 X134.52 Y98.732 E.72364
G1 X134.52 Y111.27 E.47652
G1 X121.589 Y111.27 E.49146
G1 X120.721 Y111.294 E.033
;WIDTH:0.452951
G1 X115.779 Y111.294 E.16849
;WIDTH:0.456658
G1 X115.458 Y111.292 E.01104
G1 X115.458 Y110.656 E.02188
G1 X115.692 Y110.88 E.01114
G1 X115.779 Y110.884 E.003
;WIDTH:0.452951
G1 X120.721 Y110.884 E.16849
;WIDTH:0.459521
G1 X120.836 Y110.877 E.00399
;WIDTH:0.499999
G1 X121.27 Y110.633 E.01892
G1 X121.407 Y110.221 E.0165
G1 X121.407 Y100.779 E.35886
G1 X121.354 Y100.515 E.01023
G1 X121.133 Y100.23 E.01371
G1 X120.722 Y100.093 E.01647
M73 P3 R6
G1 X115.779 Y100.093 E.18787
G1 X115.48 Y100.392 E.01607
G1 X115.48 Y98.79 E.06089
M204 P1000
G1 X115.023 Y98.293 F12000
M204 P600
;TYPE:External perimeter
G1 F1200
G1 X115.04 Y98.273 E.001
G1 X134.948 Y98.274 E.75663
G1 X134.977 Y98.304 E.00159
G1 X134.977 Y111.707 E.5094
G1 X134.96 Y111.727 E.001
G1 X115.665 Y111.727 E.73333
G1 X115.023 Y111.71 E.02441
G1 X115.023 Y111.085 E.02375
;WIDTH:0.535031
G1 X115.04 Y110.221 E.03536
G1 X115.04 Y100.779 E.38636
G1 X115.023 Y99.794 E.04031
;WIDTH:0.499999
G1 X115.023 Y98.353 E.05477
M204 P1000
;WIPE_START
G1 F9600
G1 X115.04 Y98.273 E-.017
G1 X119.77 Y98.273 E-.983
;WIPE_END
G1 Z.35 F720
G1 X115.779 Y110.45 F12000
G1 Z.2 F720
G1 E1 F1500
M204 P600
;WIDTH:0.53876
M73 P4 R6
G1 F1200
G1 X115.534 Y110.264 E.01268
G1 X115.532 Y110.221 E.00177
;WIDTH:0.535031
G1 X115.532 Y100.779 E.38636
G1 X115.779 Y100.55 E.01378
;WIDTH:0.499999
G1 X120.721 Y100.55 E.18783
G1 X120.859 Y100.596 E.00553
G1 X120.95 Y100.779 E.00777
G1 X120.95 Y110.221 E.35886
G1 X120.904 Y110.359 E.00553
G1 X120.721 Y110.45 E.00777
G1 X115.839 Y110.45 E.18555
M204 P1000
G1 X115.529 Y110.628 F12000
;WIPE_START
G1 F9600
G1 X115.534 Y110.264 E-.07424
G1 X115.532 Y110.221 E-.00895
G1 X115.532 Y105.809 E-.91681
;WIPE_END
G1 Z.35 F720
G1 X134.314 Y99.885 F12000
G1 Z.2 F720
G1 E1 F1500
M204 P600
;TYPE:Solid infill
;WIDTH:0.511446
G1 F1200
G1 X133.572 Y99.143 E.04088
G1 X132.909 Y99.143 E.02583
G1 X134.109 Y100.342 E.06609
G1 X134.109 Y101.005 E.02583
G1 X132.246 Y99.143 E.10261
G1 X131.584 Y99.143 E.02579
G1 X134.109 Y101.668 E.13912
G1 X134.109 Y102.33 E.02579
G1 X130.921 Y99.143 E.17562
G1 X130.258 Y99.143 E.02583
G1 X134.109 Y102.993 E.21214
G1 X134.109 Y103.655 E.02579
G1 X129.596 Y99.143 E.24862
G1 X128.933 Y99.142 E.02583
G1 X134.109 Y104.318 E.28517
G1 X134.109 Y104.981 E.02583
G1 X128.271 Y99.142 E.32167
G1 X127.608 Y99.142 E.02583
G1 X134.109 Y105.643 E.35817
G1 X134.109 Y106.306 E.02583
M73 P5 R6
G1 X126.945 Y99.142 E.3947
G1 X126.283 Y99.142 E.02579
G1 X134.109 Y106.968 E.43117
G1 X134.109 Y107.631 E.02583
G1 X125.62 Y99.142 E.4677
G1 X124.957 Y99.142 E.02583
G1 X134.109 Y108.294 E.50423
G1 X134.109 Y108.956 E.02579
G1 X124.295 Y99.142 E.5407
G1 X123.632 Y99.142 E.02583
G1 X134.109 Y109.619 E.57723
G1 X134.109 Y110.281 E.02579
G1 X122.969 Y99.142 E.61373
G1 X122.307 Y99.142 E.02579
G1 X134.023 Y110.859 E.64552
G1 X133.361 Y110.859 E.02579
M73 P6 R6
G1 X121.644 Y99.142 E.64555
G1 X120.981 Y99.142 E.02583
G1 X132.698 Y110.859 E.64555
G1 X132.036 Y110.859 E.02579
G1 X121.789 Y100.612 E.56456
G1 X121.736 Y100.349 E.01045
G1 X121.38 Y99.891 E.0226
G1 X120.912 Y99.735 E.01922
G1 X120.319 Y99.142 E.03267
G1 X119.656 Y99.142 E.02583
M73 P7 R6
G1 X120.196 Y99.682 E.02975
G1 X119.533 Y99.682 E.02583
G1 X118.993 Y99.142 E.02975
G1 X118.331 Y99.142 E.02579
G1 X118.871 Y99.682 E.02975
G1 X118.208 Y99.682 E.02583
G1 X117.668 Y99.142 E.02975
G1 X117.005 Y99.141 E.02583
G1 X117.546 Y99.682 E.02981
G1 X116.883 Y99.682 E.02583
G1 X116.343 Y99.141 E.02978
G1 X115.891 Y99.141 E.01761
G1 X115.891 Y99.352 E.00822
G1 X116.426 Y99.887 E.02948
M204 P1000
;WIPE_START
G1 F9600
G1 X115.891 Y99.352 E-.15723
G1 X115.891 Y99.141 E-.04385
G1 X116.343 Y99.141 E-.09393
G1 X116.883 Y99.682 E-.15885
G1 X117.546 Y99.682 E-.13778
G1 X117.005 Y99.141 E-.159
G1 X117.668 Y99.142 E-.13778
G1 X118.048 Y99.522 E-.11158
;WIPE_END
G1 Z.35 F720
G1 X121.613 Y101.098 F12000
G1 Z.2 F720
G1 E1 F1500
M204 P600
G1 F1200
G1 X131.373 Y110.859 E.53776
G1 X130.711 Y110.859 E.02579
G1 X121.818 Y101.967 E.48993
G1 X121.818 Y102.629 E.02579
G1 X130.048 Y110.859 E.45343
G1 X129.385 Y110.859 E.02583
G1 X121.818 Y103.292 E.4169
G1 X121.818 Y103.954 E.02579
G1 X128.723 Y110.859 E.38043
G1 X128.06 Y110.859 E.02583
G1 X121.818 Y104.617 E.3439
M73 P8 R6
G1 X121.818 Y105.28 E.02583
G1 X127.398 Y110.859 E.3074
G1 X126.735 Y110.859 E.02583
G1 X121.818 Y105.942 E.2709
G1 X121.818 Y106.605 E.02583
G1 X126.072 Y110.859 E.23437
G1 X125.41 Y110.859 E.02579
G1 X121.818 Y107.267 E.1979
G1 X121.818 Y107.93 E.02583
G1 X124.747 Y110.859 E.16137
G1 X124.085 Y110.859 E.02579
G1 X121.818 Y108.593 E.12487
G1 X121.818 Y109.255 E.02579
G1 X123.422 Y110.859 E.08837
G1 X122.759 Y110.859 E.02583
M73 P9 R6
G1 X121.818 Y109.918 E.05184
G1 X121.818 Y110.251 E.01297
G1 X121.736 Y110.498 E.01014
G1 X122.302 Y111.064 E.03118
M204 P1000
; stop printing object Capteur lumiere.STL id:0 copy 0
;LAYER_CHANGE
;Z:0.5
;HEIGHT:0.3
;BEFORE_LAYER_CHANGE
G92 E0.0
;0.5


;WIPE_START
G1 F9600
G1 X121.736 Y110.498 E-.16634
G1 X121.818 Y110.251 E-.05408
G1 X121.818 Y109.918 E-.0692
G1 X122.759 Y110.859 E-.27655
G1 X123.422 Y110.859 E-.13778
G1 X122.415 Y109.852 E-.29605
;WIPE_END
G1 Z.35 F720
G1 Z.5
;AFTER_LAYER_CHANGE
;0.5
M104 S240 ; set temperature
M140 S90 ; set bed temperature
; printing object Capteur lumiere.STL id:0 copy 0
G1 Z.65
G1 X114.927 Y98.364 F12000
G1 Z.5 F720
G1 E1 F1500
M204 P1100
;TYPE:Perimeter
;WIDTH:0.5
G1 F4200
G1 X114.962 Y98.209 E.00863
G1 X115.06 Y98.177 E.0056
G1 X134.894 Y98.177 E1.07764
G1 X135.038 Y98.21 E.00803
G1 X135.073 Y98.322 E.00638
G1 X135.073 Y111.635 E.72333
G1 X135.038 Y111.791 E.00869
G1 X134.94 Y111.823 E.0056
G1 X115.004 Y111.813 E1.08318
G1 X114.932 Y111.718 E.00648
G1 X114.918 Y110.18 E.08357
;WIDTH:0.482407
G1 X114.915 Y110.032 E.00772
;WIDTH:0.475988
G1 X114.915 Y100.968 E.46533
;WIDTH:0.5
G1 X114.927 Y98.424 E.13822
M204 P1000
G1 X114.512 Y98.269 F12000
;TYPE:External perimeter
G1 F1015.785

G1 X114.571 Y97.986 E.01571
G1 X114.737 Y97.828 E.01245
G1 F1003.944
G1 X115.022 Y97.741 E.01619
G1 X115.854 Y97.741 E.0452
G1 F1004.001
G1 X134.063 Y97.742 E.98935
G1 F1005.248
G1 X134.894 Y97.742 E.04515
G1 X135.151 Y97.789 E.0142
G1 F1029.404
G1 X135.33 Y97.878 E.01086
G1 F1013.198
G1 X135.475 Y98.077 E.01338
G1 F1003.939
G1 X135.509 Y98.322 E.01344
M73 P10 R6
G1 X135.509 Y99.153 E.04515
G1 X135.509 Y110.803 E.63298
G1 X135.509 Y111.635 E.0452
G1 X135.429 Y112.014 E.02105
G1 F1015.783
G1 X135.263 Y112.172 E.01245
G1 F1003.944
G1 X134.978 Y112.259 E.01619
G1 X134.146 Y112.259 E.0452
G1 X115.907 Y112.259 E.99098
G1 X115.076 Y112.259 E.04515
G1 X114.832 Y112.224 E.01339
G1 F1018.002
G1 X114.732 Y112.154 E.00663
G1 F1029.426
G1 X114.563 Y111.987 E.01291
G1 F1003.941
G1 X114.491 Y111.728 E.01461
G1 X114.492 Y110.896 E.0452
G1 F1005.121
G1 X114.499 Y99.152 E.63808
G1 F1021.772
G1 X114.499 Y98.328 E.04477
G1 F1022.94

G1 X114.779 Y98.16 F12000
;WIPE_START
G1 F9600
G1 X114.571 Y97.986 E-.07263
G1 X114.737 Y97.828 E-.04762
G1 X115.022 Y97.741 E-.06192
G1 X118.957 Y97.741 E-.81783
;WIPE_END
G1 Z.65 F720
G1 X115.659 Y110.543 F12000
G1 Z.5 F720
G1 E1 F1500
M204 P1100
;TYPE:Perimeter
G1 F2400
G1 X115.333 Y110.144 E.02799
;WIDTH:0.482407
G1 X115.326 Y110.032 E.00585
;WIDTH:0.475988
G1 X115.326 Y100.968 E.46533
;WIDTH:0.5
G1 X115.576 Y100.445 E.0315
G1 X115.996 Y100.314 E.0239
G1 X120.532 Y100.314 E.24645
G1 X120.84 Y100.391 E.01725
G1 X121.055 Y100.576 E.01541
G1 X121.159 Y100.785 E.01268
G1 X121.186 Y100.968 E.01005
G1 X121.186 Y110.032 E.49247
G1 X121.135 Y110.284 E.01397
G1 X120.924 Y110.555 E.01866
G1 X120.645 Y110.676 E.01652
G1 X120.532 Y110.686 E.00616
M73 P10 R5
G1 X115.968 Y110.686 E.24797
G1 X115.743 Y110.646 E.01242
G1 X115.697 Y110.589 E.00398
M204 P1000
G1 X115.893 Y110.237 F12000
;TYPE:External perimeter
G1 F2400
M73 P11 R5
G1 X115.75 Y110.032 E.01358
G1 X115.75 Y100.968 E.49247
G1 X115.837 Y100.794 E.01057
G1 X115.996 Y100.75 E.00896
G1 X120.532 Y100.75 E.24645
G1 X120.706 Y100.837 E.01057
G1 X120.75 Y100.968 E.00751
G1 X120.75 Y110.032 E.49247
G1 X120.663 Y110.206 E.01057
G1 X120.532 Y110.25 E.00751
G1 X115.952 Y110.247 E.24884
G1 X115.664 Y110.336 F12000
;WIPE_START
G1 F9600
G1 X115.75 Y110.032 E-.06131
G1 X115.75 Y105.515 E-.93869
;WIPE_END
G1 Z.65 F720
G1 X120.527 Y99.922 F12000
G1 Z.5 F720
G1 E1 F1500
M204 P1700
;TYPE:Solid infill
G1 F4591.168
G1 X121.063 Y100.073 E.03026
G1 X121.389 Y100.375 E.02414
G1 X121.542 Y100.706 E.01981
G1 X121.578 Y101.115 E.02231
G1 X124.124 Y98.569 E.19563
G1 X115.319 Y98.569 E.4784
G1 X115.318 Y100.165 E.08672
G1 X115.408 Y100.1 E.00603
G1 X115.906 Y99.934 E.02852
G1 X115.996 Y99.922 E.00493
G1 X120.309 Y99.922 E.23434
M204 P1000
G1 X120.527 Y99.016 F12000
M204 P1700
;WIDTH:0.523297
G1 F4358.096
G1 X115.766 Y99.016 E.27251
G1 X115.766 Y99.509 E.02822
G1 X115.996 Y99.475 E.01331
G1 X120.527 Y99.475 E.25935
G1 X121.08 Y99.605 E.03252
;WIDTH:0.5
G1 F4591.168
G1 X121.347 Y99.743 E.01633
G1 X121.619 Y99.976 E.01946
G1 X121.818 Y100.259 E.0188
G1 X123.072 Y99.005 E.09636
G1 X121.154 Y99.005 E.10421
;WIDTH:0.515164
G1 F4436.716
G1 X120.745 Y99.012 E.023
M204 P1000
G1 X121.922 Y99.491 F12000
M204 P1700
;WIDTH:0.639571
G1 F3477.112
G1 X121.871 Y99.441 E.00512
G1 X121.801 Y99.459 E.00519
G1 X121.783 Y99.529 E.00519
G1 X121.833 Y99.58 E.00512
G1 X121.903 Y99.561 E.0052
M204 P1000
;WIPE_START
G1 F9600
G1 X121.833 Y99.58 E-.01507
G1 X121.783 Y99.529 E-.01484
G1 X121.801 Y99.459 E-.01502
G1 X121.871 Y99.441 E-.01502
G1 X121.922 Y99.491 E-.01484
;WIPE_END
G1 E-.92521 F2100
G1 Z.65 F720
G1 X121.578 Y101.731 F12000
G1 Z.5 F720
G1 E1 F1500
M204 P1700
;WIDTH:0.5
G1 F4591.168
G1 X124.74 Y98.569 E.24296
G1 X125.356 Y98.569 E.03347
G1 X121.578 Y102.347 E.29029
G1 X121.578 Y102.963 E.03347
G1 X125.972 Y98.569 E.33763
G1 X126.588 Y98.569 E.03347
G1 X121.578 Y103.58 E.385
G1 X121.578 Y104.196 E.03347
G1 X127.204 Y98.569 E.43233
G1 X127.82 Y98.569 E.03347
G1 X121.578 Y104.812 E.47966
G1 X121.578 Y105.428 E.03347
G1 X128.436 Y98.569 E.52699
G1 X129.052 Y98.569 E.03347
G1 X121.578 Y106.044 E.57433
G1 X121.578 Y106.66 E.03347
G1 X129.668 Y98.569 E.62166
G1 X130.284 Y98.569 E.03347
G1 X121.578 Y107.276 E.66899
G1 X121.578 Y107.892 E.03347
G1 X130.9 Y98.569 E.71632
G1 X131.516 Y98.569 E.03347
G1 X121.578 Y108.508 E.76366
G1 X121.578 Y109.124 E.03347
G1 X132.132 Y98.569 E.81099
G1 X132.748 Y98.569 E.03347
M73 P12 R5
G1 X121.578 Y109.74 E.85832
M204 P1000
G1 X121.292 Y110.741 F12000
M204 P1700
;WIDTH:0.404381
G1 F5100
G1 X121.229 Y110.676 E.00384
;WIDTH:0.45219
G1 X121.365 Y110.555 E.00881
;WIDTH:0.5
G1 F4591.168
G1 X133.364 Y98.569 E.92148
M204 P1000
;WIPE_START
G1 F9600
G1 X129.962 Y101.972 E-1
;WIPE_END
G1 Z.65 F720
G1 X116.189 Y111.057 F12000
G1 Z.5 F720
G1 E1 F1500
M204 P1700
;WIDTH:0.45893
G1 F5069.079
G1 X120.279 Y111.057 E.20127
G1 X120.018 Y111.343 E.01905
G1 X120.036 Y111.452 E.00544
G1 X115.972 Y111.452 E.19999
;WIDTH:0.461987
G1 F5030.105
G1 X115.902 Y111.45 E.00347
;WIDTH:0.499161
G1 F4600.027
G1 X115.316 Y111.432 E.03179
G1 X115.307 Y110.68 E.04078
G1 X115.611 Y111.012 E.02441
G1 X115.972 Y111.057 E.01973
M204 P1000
;WIPE_START
G1 F9600
G1 X115.611 Y111.012 E-.0756
G1 X115.307 Y110.68 E-.09355
G1 X115.316 Y111.432 E-.15629
G1 X115.902 Y111.45 E-.12184
G1 X115.972 Y111.452 E-.01455
G1 X118.562 Y111.452 E-.53817
;WIPE_END
G1 Z.65 F720
G1 X120.841 Y111.589 F12000
G1 Z.5 F720
G1 E1 F1500
M204 P1700
;WIDTH:0.404381
G1 F5100
G1 X120.8 Y111.6 E.0018
G1 X120.781 Y111.529 E.00312
G1 X120.852 Y111.548 E.00312
;WIDTH:0.45219
G1 X120.677 Y111.489 E.00893
;WIDTH:0.5
G1 F4591.168
G1 X120.503 Y111.431 E.00997
G1 X120.984 Y110.95 E.03696
G1 X121.119 Y111.431 E.02714
G1 X133.98 Y98.569 E.98825
G1 X134.597 Y98.569 E.03352
G1 X121.735 Y111.431 E.98829
G1 X122.351 Y111.431 E.03347
G1 X134.681 Y99.101 E.94741
G1 X134.681 Y99.717 E.03347
G1 X122.967 Y111.431 E.90008
G1 X123.583 Y111.431 E.03347
G1 X134.681 Y100.333 E.85275
G1 X134.681 Y100.949 E.03347
G1 X124.199 Y111.431 E.80542
G1 X124.815 Y111.431 E.03347
G1 X134.681 Y101.565 E.75809
G1 X134.681 Y102.181 E.03347
G1 X125.431 Y111.431 E.71075
G1 X126.047 Y111.431 E.03347
G1 X134.681 Y102.797 E.66342
G1 X134.681 Y103.413 E.03347
M73 P13 R5
G1 X126.663 Y111.431 E.61609
G1 X127.279 Y111.431 E.03347
G1 X134.681 Y104.029 E.56876
G1 X134.681 Y104.645 E.03347
G1 X127.895 Y111.431 E.52142
G1 X128.511 Y111.431 E.03347
G1 X134.681 Y105.261 E.47409
G1 X134.681 Y105.877 E.03347
G1 X129.127 Y111.431 E.42676
G1 X129.744 Y111.431 E.03352
G1 X134.681 Y106.494 E.37935
G1 X134.681 Y107.11 E.03347
G1 X130.36 Y111.431 E.33202
G1 X130.976 Y111.431 E.03347
G1 X134.681 Y107.726 E.28469
G1 X134.681 Y108.342 E.03347
G1 X131.592 Y111.431 E.23735
G1 X132.208 Y111.431 E.03347
G1 X134.681 Y108.958 E.19002
G1 X134.681 Y109.574 E.03347
G1 X132.824 Y111.431 E.14269
G1 X133.44 Y111.431 E.03347
G1 X134.681 Y110.19 E.09536
G1 X134.681 Y110.806 E.03347
G1 X134.056 Y111.431 E.04802
G1 X134.717 Y111.467 E.03597
;WIDTH:0.505355
G1 F4535.415
G1 X134.664 Y111.482 E.00303
G1 X134.625 Y111.443 E.00303
G1 X134.64 Y111.39 E.00303
G1 X134.693 Y111.375 E.00303
G1 X134.732 Y111.414 E.00303
M204 P1000
; stop printing object Capteur lumiere.STL id:0 copy 0
;LAYER_CHANGE
;Z:0.8
;HEIGHT:0.3
;BEFORE_LAYER_CHANGE
G92 E0.0
;0.8


;WIPE_START
G1 F9600
G1 X134.693 Y111.375 E-.01146
G1 X134.64 Y111.39 E-.01145
G1 X134.625 Y111.443 E-.01145
G1 X134.664 Y111.482 E-.01146
G1 X134.717 Y111.467 E-.01145
G1 X134.056 Y111.431 E-.13757
G1 X134.681 Y110.806 E-.18368
